P3
400 225
255
204 226 255
204 226 255
204 226 255
204 226 255
204 226 255
204 226 255
204 226 255
204 226 255
204 226 255
204 226 255
204 226 255
204 226 255
204 226 255
204 226 255
204 226 255
203 226 255
203 226 255
203 226 255
203 226 255
203 226 255
203 226 255
203 226 255
203 226 255
203 225 255
203 225 255
203 225 255
203 225 255
203 225 255
203 225 255
203 225 255
203 225 255
203 225 255
202 225 255
202 225 255
202 225 255
202 225 255
202 225 255
202 225 255
202 225 255
202 225 255
202 225 255
202 225 255
202 225 255
202 225 255
202 225 255
202 225 255
202 225 255
202 225 255
201 225 255
201 225 255
201 225 255
201 225 255
201 224 255
201 224 255
201 224 255
201 224 255
201 224 255
201 224 255
201 224 255
201 224 255
201 224 255
201 224 255
201 224 255
200 224 255
200 224 255
200 224 255
200 224 255
200 224 255
200 224 255
200 224 255
200 224 255
200 224 255
200 224 255
200 224 255
200 224 255
200 224 255
200 224 255
200 224 255
199 224 255
199 224 255
199 223 255
199 223 255
199 223 255
199 223 255
199 223 255
199 223 255
199 223 255
199 223 255
199 223 255
199 223 255
199 223 255
199 223 255
198 223 255
198 223 255
198 223 255
198 223 255
198 223 255
198 223 255
198 223 255
198 223 255
198 223 255
198 223 255
198 223 255
198 223 255
198 223 255
198 223 255
197 223 255
197 222 255
197 222 255
197 222 255
197 222 255
197 222 255
197 222 255
197 222 255
197 222 255
197 222 255
197 222 255
197 222 255
197 222 255
197 222 255
197 222 255
196 222 255
196 222 255
196 222 255
196 222 255
196 222 255
196 222 255
196 222 255
196 222 255
196 222 255
196 222 255
196 222 255
196 222 255
196 222 255
196 222 255
196 221 255
196 221 255
195 221 255
195 221 255
195 221 255
195 221 255
195 221 255
195 221 255
195 221 255
195 221 255
195 221 255
195 221 255
195 221 255
195 221 255
195 221 255
195 221 255
195 221 255
195 221 255
195 221 255
195 221 255
194 221 255
194 221 255
194 221 255
194 221 255
194 221 255
194 221 255
194 221 255
194 221 255
194 221 255
194 221 255
194 221 255
194 221 255
194 221 255
194 221 255
194 221 255
194 221 255
194 221 255
194 221 255
194 221 255
194 221 255
194 221 255
194 221 255
194 220 255
194 220 255
194 220 255
194 220 255
194 220 255
194 220 255
194 220 255
194 220 255
194 220 255
194 220 255
193 220 255
193 220 255
193 220 255
193 220 255
193 220 255
193 220 255
193 220 255
193 220 255
193 220 255
193 220 255
193 220 255
193 220 255
193 220 255
193 220 255
193 220 255
193 220 255
193 220 255
193 220 255
193 220 255
193 220 255
193 220 255
193 220 255
193 220 255
193 220 255
193 220 255
193 220 255
193 220 255
194 220 255
194 220 255
194 220 255
194 220 255
194 220 255
194 220 255
194 220 255
194 220 255
194 220 255
194 221 255
194 221 255
194 221 255
194 221 255
194 221 255
194 221 255
194 221 255
194 221 255
194 221 255
194 221 255
194 221 255
194 221 255
194 221 255
194 221 255
194 221 255
194 221 255
194 221 255
194 221 255
194 221 255
194 221 255
194 221 255
194 221 255
195 221 255
195 221 255
195 221 255
195 221 255
195 221 255
195 221 255
195 221 255
195 221 255
195 221 255
195 221 255
195 221 255
195 221 255
195 221 255
195 221 255
195 221 255
195 221 255
195 221 255
195 221 255
196 221 255
196 221 255
196 222 255
196 222 255
196 222 255
196 222 255
196 222 255
196 222 255
196 222 255
196 222 255
196 222 255
196 222 255
196 222 255
196 222 255
196 222 255
196 222 255
197 222 255
197 222 255
197 222 255
197 222 255
197 222 255
197 222 255
197 222 255
197 222 255
197 222 255
197 222 255
197 222 255
197 222 255
197 222 255
197 222 255
197 223 255
198 223 255
198 223 255
198 223 255
198 223 255
198 223 255
198 223 255
198 223 255
198 223 255
198 223 255
198 223 255
198 223 255
198 223 255
198 223 255
198 223 255
199 223 255
199 223 255
199 223 255
199 223 255
199 223 255
199 223 255
199 223 255
199 223 255
199 223 255
199 223 255
199 223 255
199 223 255
199 224 255
199 224 255
199 224 255
200 224 255
200 224 255
200 224 255
200 224 255
200 224 255
200 224 255
200 224 255
200 224 255
200 224 255
200 224 255
200 224 255
200 224 255
200 224 255
200 224 255
201 224 255
201 224 255
201 224 255
201 224 255
201 224 255
201 224 255
201 224 255
201 224 255
201 224 255
201 224 255
201 224 255
201 225 255
201 225 255
201 225 255
201 225 255
202 225 255
202 225 255
202 225 255
202 225 255
202 225 255
202 225 255
202 225 255
202 225 255
202 225 255
202 225 255
202 225 255
202 225 255
202 225 255
202 225 255
202 225 255
202 225 255
203 225 255
203 225 255
203 225 255
203 225 255
203 225 255
203 225 255
203 225 255
203 225 255
203 225 255
203 226 255
203 226 255
203 226 255
203 226 255
203 226 255
203 226 255
203 226 255
203 226 255
204 226 255
204 226 255
204 226 255
204 226 255
204 226 255
204 226 255
204 226 255
204 226 255
204 226 255
204 226 255
204 226 255
204 226 255
204 226 255
204 226 255
204 226 255
204 226 255
204 226 255
204 226 255
204 226 255
204 226 255
204 226 255
204 226 255
204 226 255
204 226 255
204 226 255
204 226 255
204 226 255
204 226 255
204 226 255
204 226 255
204 226 255
204 226 255
204 226 255
203 226 255
203 226 255
203 226 255
203 226 255
203 226 255
203 226 255
203 226 255
203 225 255
203 225 255
203 225 255
203 225 255
203 225 255
203 225 255
203 225 255
203 225 255
203 225 255
202 225 255
202 225 255
202 225 255
202 225 255
202 225 255
202 225 255
202 225 255
202 225 255
202 225 255
202 225 255
202 225 255
202 225 255
202 225 255
202 225 255
202 225 255
202 225 255
201 225 255
201 225 255
201 225 255
201 225 255
201 224 255
201 224 255
201 224 255
201 224 255
201 224 255
201 224 255
201 224 255
201 224 255
201 224 255
201 224 255
201 224 255
200 224 255
200 224 255
200 224 255
200 224 255
200 224 255
200 224 255
200 224 255
200 224 255
200 224 255
200 224 255
200 224 255
200 224 255
200 224 255
200 224 255
200 224 255
199 224 255
199 224 255
199 223 255
199 223 255
199 223 255
199 223 255
199 223 255
199 223 255
199 223 255
199 223 255
199 223 255
199 223 255
199 223 255
199 223 255
198 223 255
198 223 255
198 223 255
198 223 255
198 223 255
198 223 255
198 223 255
198 223 255
198 223 255
198 223 255
198 223 255
198 223 255
198 223 255
198 223 255
197 223 255
197 222 255
197 222 255
197 222 255
197 222 255
197 222 255
197 222 255
197 222 255
197 222 255
197 222 255
197 222 255
197 222 255
197 222 255
197 222 255
197 222 255
196 222 255
196 222 255
196 222 255
196 222 255
196 222 255
196 222 255
196 222 255
196 222 255
196 222 255
196 222 255
196 222 255
196 222 255
196 222 255
196 222 255
196 222 255
196 221 255
195 221 255
195 221 255
195 221 255
195 221 255
195 221 255
195 221 255
195 221 255
195 221 255
195 221 255
195 221 255
195 221 255
195 221 255
195 221 255
195 221 255
195 221 255
195 221 255
195 221 255
195 221 255
195 221 255
194 221 255
194 221 255
194 221 255
194 221 255
194 221 255
194 221 255
194 221 255
194 221 255
194 221 255
194 221 255
194 221 255
194 221 255
194 221 255
194 221 255
194 221 255
194 221 255
194 221 255
194 221 255
194 221 255
194 221 255
194 221 255
194 221 255
194 221 255
194 221 255
194 221 255
194 220 255
194 220 255
194 220 255
194 220 255
194 220 255
194 220 255
194 220 255
194 220 255
194 220 255
194 220 255
194 220 255
194 220 255
194 220 255
194 220 255
194 220 255
194 220 255
194 220 255
194 220 255
194 220 255
194 220 255
194 220 255
194 220 255
194 220 255
194 220 255
194 220 255
194 220 255
194 220 255
194 220 255
194 220 255
194 220 255
194 220 255
194 220 255
194 220 255
194 220 255
194 221 255
194 221 255
194 221 255
194 221 255
194 221 255
194 221 255
194 221 255
194 221 255
194 221 255
194 221 255
194 221 255
194 221 255
194 221 255
194 221 255
194 221 255
194 221 255
194 221 255
194 221 255
194 221 255
194 221 255
194 221 255
194 221 255
194 221 255
194 221 255
194 221 255
195 221 255
195 221 255
195 221 255
195 221 255
195 221 255
195 221 255
195 221 255
195 221 255
195 221 255
195 221 255
195 221 255
195 221 255
195 221 255
195 221 255
195 221 255
195 221 255
195 221 255
195 221 255
195 221 255
196 221 255
196 222 255
196 222 255
196 222 255
196 222 255
196 222 255
196 222 255
196 222 255
196 222 255
196 222 255
196 222 255
196 222 255
196 222 255
196 222 255
196 222 255
196 222 255
197 222 255
197 222 255
197 222 255
197 222 255
197 222 255
197 222 255
197 222 255
197 222 255
197 222 255
197 222 255
197 222 255
197 222 255
197 222 255
197 222 255
197 223 255
198 223 255
198 223 255
198 223 255
198 223 255
198 223 255
198 223 255
198 223 255
198 223 255
198 223 255
198 223 255
198 223 255
198 223 255
198 223 255
198 223 255
199 223 255
199 223 255
199 223 255
199 223 255
199 223 255
199 223 255
199 223 255
199 223 255
199 223 255
199 223 255
199 223 255
199 223 255
199 224 255
199 224 255
200 224 255
200 224 255
200 224 255
200 224 255
200 224 255
200 224 255
200 224 255
200 224 255
200 224 255
200 224 255
200 224 255
200 224 255
200 224 255
200 224 255
200 224 255
201 224 255
201 224 255
201 224 255
201 224 255
201 224 255
201 224 255
201 224 255
201 224 255
201 224 255
201 224 255
201 225 255
201 225 255
201 225 255
201 225 255
201 225 255
202 225 255
202 225 255
202 225 255
202 225 255
202 225 255
202 225 255
202 225 255
202 225 255
202 225 255
202 225 255
202 225 255
202 225 255
202 225 255
202 225 255
202 225 255
202 225 255
203 225 255
203 225 255
203 225 255
203 225 255
203 225 255
203 225 255
203 225 255
203 225 255
203 225 255
203 226 255
203 226 255
203 226 255
203 226 255
203 226 255
203 226 255
203 226 255
204 226 255
204 226 255
204 226 255
204 226 255
204 226 255
204 226 255
204 226 255
204 226 255
204 226 255
204 226 255
204 226 255
204 226 255
204 226 255
204 226 255
204 226 255
204 226 255
204 226 255
204 226 255
205 226 255
205 226 255
204 226 255
204 226 255
204 226 255
204 226 255
204 226 255
204 226 255
204 226 255
204 226 255
204 226 255
204 226 255
204 226 255
204 226 255
204 226 255
204 226 255
204 226 255
204 226 255
204 226 255
204 226 255
203 226 255
203 226 255
203 226 255
203 226 255
203 226 255
203 226 255
203 226 255
203 225 255
203 225 255
203 225 255
203 225 255
203 225 255
203 225 255
203 225 255
203 225 255
203 225 255
203 225 255
202 225 255
202 225 255
202 225 255
202 225 255
202 225 255
202 225 255
202 225 255
202 225 255
202 225 255
202 225 255
202 225 255
202 225 255
202 225 255
202 225 255
202 225 255
201 225 255
201 225 255
201 225 255
201 225 255
201 225 255
201 224 255
201 224 255
201 224 255
201 224 255
201 224 255
201 224 255
201 224 255
201 224 255
201 224 255
201 224 255
200 224 255
200 224 255
200 224 255
200 224 255
200 224 255
200 224 255
200 224 255
200 224 255
200 224 255
200 224 255
200 224 255
200 224 255
200 224 255
200 224 255
200 224 255
199 224 255
199 224 255
199 223 255
199 223 255
199 223 255
199 223 255
199 223 255
199 223 255
199 223 255
199 223 255
199 223 255
199 223 255
199 223 255
199 223 255
198 223 255
198 223 255
198 223 255
198 223 255
198 223 255
198 223 255
198 223 255
198 223 255
198 223 255
198 223 255
198 223 255
198 223 255
198 223 255
198 223 255
197 223 255
197 222 255
197 222 255
197 222 255
197 222 255
197 222 255
197 222 255
197 222 255
197 222 255
197 222 255
197 222 255
197 222 255
197 222 255
197 222 255
197 222 255
196 222 255
196 222 255
196 222 255
196 222 255
196 222 255
196 222 255
196 222 255
196 222 255
196 222 255
196 222 255
196 222 255
196 222 255
196 222 255
196 222 255
196 222 255
196 221 255
195 221 255
195 221 255
195 221 255
195 221 255
195 221 255
195 221 255
195 221 255
195 221 255
195 221 255
195 221 255
195 221 255
195 221 255
195 221 255
195 221 255
195 221 255
195 221 255
195 221 255
195 221 255
195 221 255
195 221 255
194 221 255
194 221 255
194 221 255
194 221 255
194 221 255
194 221 255
194 221 255
194 221 255
194 221 255
194 221 255
194 221 255
194 221 255
194 221 255
194 221 255
194 221 255
194 221 255
194 221 255
194 221 255
194 221 255
194 221 255
194 221 255
194 221 255
194 221 255
194 221 255
194 221 255
194 221 255
194 221 255
194 221 255
194 221 255
194 221 255
194 221 255
194 220 255
194 220 255
194 220 255
194 220 255
194 220 255
194 220 255
194 220 255
194 220 255
194 220 255
194 220 255
194 220 255
194 220 255
194 220 255
194 220 255
194 220 255
194 221 255
194 221 255
194 221 255
194 221 255
194 221 255
194 221 255
194 221 255
194 221 255
194 221 255
194 221 255
194 221 255
194 221 255
194 221 255
194 221 255
194 221 255
194 221 255
194 221 255
194 221 255
194 221 255
194 221 255
194 221 255
194 221 255
194 221 255
194 221 255
194 221 255
194 221 255
194 221 255
194 221 255
194 221 255
194 221 255
194 221 255
194 221 255
195 221 255
195 221 255
195 221 255
195 221 255
195 221 255
195 221 255
195 221 255
195 221 255
195 221 255
195 221 255
195 221 255
195 221 255
195 221 255
195 221 255
195 221 255
195 221 255
195 221 255
195 221 255
195 221 255
195 221 255
196 221 255
196 222 255
196 222 255
196 222 255
196 222 255
196 222 255
196 222 255
196 222 255
196 222 255
196 222 255
196 222 255
196 222 255
196 222 255
196 222 255
196 222 255
196 222 255
197 222 255
197 222 255
197 222 255
197 222 255
197 222 255
197 222 255
197 222 255
197 222 255
197 222 255
197 222 255
197 222 255
197 222 255
197 222 255
197 222 255
197 223 255
198 223 255
198 223 255
198 223 255
198 223 255
198 223 255
198 223 255
198 223 255
198 223 255
198 223 255
198 223 255
198 223 255
198 223 255
198 223 255
198 223 255
199 223 255
199 223 255
199 223 255
199 223 255
199 223 255
199 223 255
199 223 255
199 223 255
199 223 255
199 223 255
199 223 255
199 223 255
199 224 255
199 224 255
200 224 255
200 224 255
200 224 255
200 224 255
200 224 255
200 224 255
200 224 255
200 224 255
200 224 255
200 224 255
200 224 255
200 224 255
200 224 255
200 224 255
200 224 255
201 224 255
201 224 255
201 224 255
201 224 255
201 224 255
201 224 255
201 224 255
201 224 255
201 224 255
201 224 255
201 225 255
201 225 255
201 225 255
201 225 255
201 225 255
202 225 255
202 225 255
202 225 255
202 225 255
202 225 255
202 225 255
202 225 255
202 225 255
202 225 255
202 225 255
202 225 255
202 225 255
202 225 255
202 225 255
202 225 255
202 225 255
203 225 255
203 225 255
203 225 255
203 225 255
203 225 255
203 225 255
203 225 255
203 225 255
203 225 255
203 226 255
203 226 255
203 226 255
203 226 255
203 226 255
203 226 255
203 226 255
204 226 255
204 226 255
204 226 255
204 226 255
204 226 255
204 226 255
204 226 255
204 226 255
204 226 255
204 226 255
204 226 255
204 226 255
204 226 255
204 226 255
204 226 255
204 226 255
204 226 255
204 226 255
205 226 255
205 226 255
205 226 255
205 226 255
205 226 255
205 226 255
204 226 255
204 226 255
204 226 255
204 226 255
204 226 255
204 226 255
204 226 255
204 226 255
204 226 255
204 226 255
204 226 255
204 226 255
204 226 255
204 226 255
204 226 255
204 226 255
204 226 255
204 226 255
203 226 255
203 226 255
203 226 255
203 226 255
203 226 255
203 226 255
203 226 255
203 226 255
203 225 255
203 225 255
203 225 255
203 225 255
203 225 255
203 225 255
203 225 255
203 225 255
203 225 255
202 225 255
202 225 255
202 225 255
202 225 255
202 225 255
202 225 255
202 225 255
202 225 255
202 225 255
202 225 255
202 225 255
202 225 255
202 225 255
202 225 255
202 225 255
201 225 255
201 225 255
201 225 255
201 225 255
201 225 255
201 224 255
201 224 255
201 224 255
201 224 255
201 224 255
201 224 255
201 224 255
201 224 255
201 224 255
201 224 255
200 224 255
200 224 255
200 224 255
200 224 255
200 224 255
200 224 255
200 224 255
200 224 255
200 224 255
200 224 255
200 224 255
200 224 255
200 224 255
200 224 255
200 224 255
199 224 255
199 224 255
199 223 255
199 223 255
199 223 255
199 223 255
199 223 255
199 223 255
199 223 255
199 223 255
199 223 255
199 223 255
199 223 255
199 223 255
198 223 255
198 223 255
198 223 255
198 223 255
198 223 255
198 223 255
198 223 255
198 223 255
198 223 255
198 223 255
198 223 255
198 223 255
198 223 255
198 223 255
197 223 255
197 222 255
197 222 255
197 222 255
197 222 255
197 222 255
197 222 255
197 222 255
197 222 255
197 222 255
197 222 255
197 222 255
197 222 255
197 222 255
197 222 255
196 222 255
196 222 255
196 222 255
196 222 255
196 222 255
196 222 255
196 222 255
196 222 255
196 222 255
196 222 255
196 222 255
196 222 255
196 222 255
196 222 255
196 222 255
196 222 255
196 221 255
195 221 255
195 221 255
195 221 255
195 221 255
195 221 255
195 221 255
195 221 255
195 221 255
195 221 255
195 221 255
195 221 255
195 221 255
195 221 255
195 221 255
195 221 255
195 221 255
195 221 255
195 221 255
195 221 255
195 221 255
195 221 255
194 221 255
194 221 255
194 221 255
194 221 255
194 221 255
194 221 255
194 221 255
194 221 255
194 221 255
194 221 255
194 221 255
194 221 255
194 221 255
194 221 255
194 221 255
194 221 255
194 221 255
194 221 255
194 221 255
194 221 255
194 221 255
194 221 255
194 221 255
194 221 255
194 221 255
194 221 255
194 221 255
194 221 255
194 221 255
194 221 255
194 221 255
194 221 255
194 221 255
194 221 255
194 221 255
194 221 255
194 221 255
194 221 255
194 221 255
194 221 255
194 221 255
194 221 255
194 221 255
194 221 255
194 221 255
194 221 255
194 221 255
194 221 255
194 221 255
194 221 255
194 221 255
194 221 255
194 221 255
194 221 255
194 221 255
194 221 255
194 221 255
194 221 255
194 221 255
194 221 255
194 221 255
194 221 255
194 221 255
194 221 255
194 221 255
194 221 255
194 221 255
194 221 255
194 221 255
194 221 255
195 221 255
195 221 255
195 221 255
195 221 255
195 221 255
195 221 255
195 221 255
195 221 255
195 221 255
195 221 255
195 221 255
195 221 255
195 221 255
195 221 255
195 221 255
195 221 255
195 221 255
195 221 255
195 221 255
195 221 255
195 221 255
196 221 255
196 221 255
196 222 255
196 222 255
196 222 255
196 222 255
196 222 255
196 222 255
196 222 255
196 222 255
196 222 255
196 222 255
196 222 255
196 222 255
196 222 255
196 222 255
196 222 255
197 222 255
197 222 255
197 222 255
197 222 255
197 222 255
197 222 255
197 222 255
197 222 255
197 222 255
197 222 255
197 222 255
197 222 255
197 222 255
197 222 255
197 223 255
198 223 255
198 223 255
198 223 255
198 223 255
198 223 255
198 223 255
198 223 255
198 223 255
198 223 255
198 223 255
198 223 255
198 223 255
198 223 255
198 223 255
199 223 255
199 223 255
199 223 255
199 223 255
199 223 255
199 223 255
199 223 255
199 223 255
199 223 255
199 223 255
199 223 255
199 223 255
199 224 255
199 224 255
200 224 255
200 224 255
200 224 255
200 224 255
200 224 255
200 224 255
200 224 255
200 224 255
200 224 255
200 224 255
200 224 255
200 224 255
200 224 255
200 224 255
200 224 255
201 224 255
201 224 255
201 224 255
201 224 255
201 224 255
201 224 255
201 224 255
201 224 255
201 224 255
201 224 255
201 225 255
201 225 255
201 225 255
201 225 255
201 225 255
202 225 255
202 225 255
202 225 255
202 225 255
202 225 255
202 225 255
202 225 255
202 225 255
202 225 255
202 225 255
202 225 255
202 225 255
202 225 255
202 225 255
202 225 255
203 225 255
203 225 255
203 225 255
203 225 255
203 225 255
203 225 255
203 225 255
203 225 255
203 225 255
203 226 255
203 226 255
203 226 255
203 226 255
203 226 255
203 226 255
203 226 255
203 226 255
204 226 255
204 226 255
204 226 255
204 226 255
204 226 255
204 226 255
204 226 255
204 226 255
204 226 255
204 226 255
204 226 255
204 226 255
204 226 255
204 226 255
204 226 255
204 226 255
204 226 255
204 226 255
205 226 255
205 226 255
205 226 255
205 226 255
205 226 255
205 226 255
205 226 255
205 226 255
205 226 255
205 226 255
205 226 255
204 226 255
204 226 255
204 226 255
204 226 255
204 226 255
204 226 255
204 226 255
204 226 255
204 226 255
204 226 255
204 226 255
204 226 255
204 226 255
204 226 255
204 226 255
204 226 255
204 226 255
203 226 255
203 226 255
203 226 255
203 226 255
203 226 255
203 226 255
203 226 255
203 226 255
203 225 255
203 225 255
203 225 255
203 225 255
203 225 255
203 225 255
203 225 255
203 225 255
203 225 255
202 225 255
202 225 255
202 225 255
202 225 255
202 225 255
202 225 255
202 225 255
202 225 255
202 225 255
202 225 255
202 225 255
202 225 255
202 225 255
202 225 255
202 225 255
201 225 255
201 225 255
201 225 255
201 225 255
201 225 255
201 224 255
201 224 255
201 224 255
201 224 255
201 224 255
201 224 255
201 224 255
201 224 255
201 224 255
201 224 255
200 224 255
200 224 255
200 224 255
200 224 255
200 224 255
200 224 255
200 224 255
200 224 255
200 224 255
200 224 255
200 224 255
200 224 255
200 224 255
200 224 255
200 224 255
199 224 255
199 224 255
199 223 255
199 223 255
199 223 255
199 223 255
199 223 255
199 223 255
199 223 255
199 223 255
199 223 255
199 223 255
199 223 255
199 223 255
198 223 255
198 223 255
198 223 255
198 223 255
198 223 255
198 223 255
198 223 255
198 223 255
198 223 255
198 223 255
198 223 255
198 223 255
198 223 255
198 223 255
198 223 255
197 222 255
197 222 255
197 222 255
197 222 255
197 222 255
197 222 255
197 222 255
197 222 255
197 222 255
197 222 255
197 222 255
197 222 255
197 222 255
197 222 255
197 222 255
196 222 255
196 222 255
196 222 255
196 222 255
196 222 255
196 222 255
196 222 255
196 222 255
196 222 255
196 222 255
196 222 255
196 222 255
196 222 255
196 222 255
196 222 255
196 221 255
195 221 255
195 221 255
195 221 255
195 221 255
195 221 255
195 221 255
195 221 255
195 221 255
195 221 255
195 221 255
195 221 255
195 221 255
195 221 255
195 221 255
195 221 255
195 221 255
195 221 255
195 221 255
195 221 255
195 221 255
195 221 255
195 221 255
195 221 255
194 221 255
194 221 255
194 221 255
194 221 255
194 221 255
194 221 255
194 221 255
194 221 255
194 221 255
194 221 255
194 221 255
194 221 255
194 221 255
194 221 255
194 221 255
194 221 255
194 221 255
194 221 255
194 221 255
194 221 255
194 221 255
194 221 255
194 221 255
194 221 255
194 221 255
194 221 255
194 221 255
194 221 255
194 221 255
194 221 255
194 221 255
194 221 255
194 221 255
194 221 255
194 221 255
194 221 255
194 221 255
194 221 255
194 221 255
194 221 255
194 221 255
194 221 255
194 221 255
194 221 255
194 221 255
194 221 255
194 221 255
194 221 255
194 221 255
194 221 255
194 221 255
194 221 255
194 221 255
194 221 255
194 221 255
194 221 255
194 221 255
194 221 255
194 221 255
194 221 255
194 221 255
194 221 255
195 221 255
195 221 255
195 221 255
195 221 255
195 221 255
195 221 255
195 221 255
195 221 255
195 221 255
195 221 255
195 221 255
195 221 255
195 221 255
195 221 255
195 221 255
195 221 255
195 221 255
195 221 255
195 221 255
195 221 255
195 221 255
195 221 255
196 221 255
196 221 255
196 222 255
196 222 255
196 222 255
196 222 255
196 222 255
196 222 255
196 222 255
196 222 255
196 222 255
196 222 255
196 222 255
196 222 255
196 222 255
196 222 255
196 222 255
197 222 255
197 222 255
197 222 255
197 222 255
197 222 255
197 222 255
197 222 255
197 222 255
197 222 255
197 222 255
197 222 255
197 222 255
197 222 255
197 222 255
197 222 255
197 223 255
198 223 255
198 223 255
198 223 255
198 223 255
198 223 255
198 223 255
198 223 255
198 223 255
198 223 255
198 223 255
198 223 255
198 223 255
198 223 255
198 223 255
199 223 255
199 223 255
199 223 255
199 223 255
199 223 255
199 223 255
199 223 255
199 223 255
199 223 255
199 223 255
199 223 255
199 223 255
199 224 255
199 224 255
200 224 255
200 224 255
200 224 255
200 224 255
200 224 255
200 224 255
200 224 255
200 224 255
200 224 255
200 224 255
200 224 255
200 224 255
200 224 255
200 224 255
200 224 255
201 224 255
201 224 255
201 224 255
201 224 255
201 224 255
201 224 255
201 224 255
201 224 255
201 224 255
201 224 255
201 225 255
201 225 255
201 225 255
201 225 255
201 225 255
202 225 255
202 225 255
202 225 255
202 225 255
202 225 255
202 225 255
202 225 255
202 225 255
202 225 255
202 225 255
202 225 255
202 225 255
202 225 255
202 225 255
202 225 255
203 225 255
203 225 255
203 225 255
203 225 255
203 225 255
203 225 255
203 225 255
203 225 255
203 225 255
203 226 255
203 226 255
203 226 255
203 226 255
203 226 255
203 226 255
203 226 255
203 226 255
204 226 255
204 226 255
204 226 255
204 226 255
204 226 255
204 226 255
204 226 255
204 226 255
204 226 255
204 226 255
204 226 255
204 226 255
204 226 255
204 226 255
204 226 255
204 226 255
204 226 255
205 226 255
205 226 255
205 226 255
205 226 255
205 226 255
205 226 255
205 226 255
205 227 255
205 227 255
205 226 255
205 226 255
205 226 255
205 226 255
205 226 255
205 226 255
205 226 255
204 226 255
204 226 255
204 226 255
204 226 255
204 226 255
204 226 255
204 226 255
204 226 255
204 226 255
204 226 255
204 226 255
204 226 255
204 226 255
204 226 255
204 226 255
204 226 255
204 226 255
204 226 255
203 226 255
203 226 255
203 226 255
203 226 255
203 226 255
203 226 255
203 226 255
203 225 255
203 225 255
203 225 255
203 225 255
203 225 255
203 225 255
203 225 255
203 225 255
203 225 255
202 225 255
202 225 255
202 225 255
202 225 255
202 225 255
202 225 255
202 225 255
202 225 255
202 225 255
202 225 255
202 225 255
202 225 255
202 225 255
202 225 255
202 225 255
202 225 255
201 225 255
201 225 255
201 225 255
201 225 255
201 224 255
201 224 255
201 224 255
201 224 255
201 224 255
201 224 255
201 224 255
201 224 255
201 224 255
201 224 255
200 224 255
200 224 255
200 224 255
200 224 255
200 224 255
200 224 255
200 224 255
200 224 255
200 224 255
200 224 255
200 224 255
200 224 255
200 224 255
200 224 255
200 224 255
199 224 255
199 224 255
199 223 255
199 223 255
199 223 255
199 223 255
199 223 255
199 223 255
199 223 255
199 223 255
199 223 255
199 223 255
199 223 255
199 223 255
198 223 255
198 223 255
198 223 255
198 223 255
198 223 255
198 223 255
198 223 255
198 223 255
198 223 255
198 223 255
198 223 255
198 223 255
198 223 255
198 223 255
198 223 255
197 222 255
197 222 255
197 222 255
197 222 255
197 222 255
197 222 255
197 222 255
197 222 255
197 222 255
197 222 255
197 222 255
197 222 255
197 222 255
197 222 255
197 222 255
196 222 255
196 222 255
196 222 255
196 222 255
196 222 255
196 222 255
196 222 255
196 222 255
196 222 255
196 222 255
196 222 255
196 222 255
196 222 255
196 222 255
196 222 255
196 222 255
196 221 255
196 221 255
195 221 255
195 221 255
195 221 255
195 221 255
195 221 255
195 221 255
195 221 255
195 221 255
195 221 255
195 221 255
195 221 255
195 221 255
195 221 255
195 221 255
195 221 255
195 221 255
195 221 255
195 221 255
195 221 255
195 221 255
195 221 255
195 221 255
195 221 255
194 221 255
194 221 255
194 221 255
194 221 255
194 221 255
194 221 255
194 221 255
194 221 255
194 221 255
194 221 255
194 221 255
194 221 255
194 221 255
194 221 255
194 221 255
194 221 255
194 221 255
194 221 255
194 221 255
194 221 255
194 221 255
194 221 255
194 221 255
194 221 255
194 221 255
194 221 255
194 221 255
194 221 255
194 221 255
194 221 255
194 221 255
194 221 255
194 221 255
194 221 255
194 221 255
194 221 255
194 221 255
194 221 255
194 221 255
194 221 255
194 221 255
194 221 255
194 221 255
194 221 255
194 221 255
194 221 255
194 221 255
194 221 255
194 221 255
194 221 255
194 221 255
194 221 255
194 221 255
194 221 255
195 221 255
195 221 255
195 221 255
195 221 255
195 221 255
195 221 255
195 221 255
195 221 255
195 221 255
195 221 255
195 221 255
195 221 255
195 221 255
195 221 255
195 221 255
195 221 255
195 221 255
195 221 255
195 221 255
195 221 255
195 221 255
195 221 255
195 221 255
195 221 255
196 221 255
196 222 255
196 222 255
196 222 255
196 222 255
196 222 255
196 222 255
196 222 255
196 222 255
196 222 255
196 222 255
196 222 255
196 222 255
196 222 255
196 222 255
196 222 255
196 222 255
197 222 255
197 222 255
197 222 255
197 222 255
197 222 255
197 222 255
197 222 255
197 222 255
197 222 255
197 222 255
197 222 255
197 222 255
197 222 255
197 222 255
197 222 255
198 223 255
198 223 255
198 223 255
198 223 255
198 223 255
198 223 255
198 223 255
198 223 255
198 223 255
198 223 255
198 223 255
198 223 255
198 223 255
198 223 255
198 223 255
199 223 255
199 223 255
199 223 255
199 223 255
199 223 255
199 223 255
199 223 255
199 223 255
199 223 255
199 223 255
199 223 255
199 223 255
199 224 255
199 224 255
200 224 255
200 224 255
200 224 255
200 224 255
200 224 255
200 224 255
200 224 255
200 224 255
200 224 255
200 224 255
200 224 255
200 224 255
200 224 255
200 224 255
200 224 255
201 224 255
201 224 255
201 224 255
201 224 255
201 224 255
201 224 255
201 224 255
201 224 255
201 224 255
201 224 255
201 225 255
201 225 255
201 225 255
201 225 255
202 225 255
202 225 255
202 225 255
202 225 255
202 225 255
202 225 255
202 225 255
202 225 255
202 225 255
202 225 255
202 225 255
202 225 255
202 225 255
202 225 255
202 225 255
202 225 255
203 225 255
203 225 255
203 225 255
203 225 255
203 225 255
203 225 255
203 225 255
203 225 255
203 225 255
203 226 255
203 226 255
203 226 255
203 226 255
203 226 255
203 226 255
203 226 255
204 226 255
204 226 255
204 226 255
204 226 255
204 226 255
204 226 255
204 226 255
204 226 255
204 226 255
204 226 255
204 226 255
204 226 255
204 226 255
204 226 255
204 226 255
204 226 255
204 226 255
204 226 255
205 226 255
205 226 255
205 226 255
205 226 255
205 226 255
205 226 255
205 226 255
205 227 255
205 227 255
205 227 255
205 227 255
205 227 255
205 227 255
205 226 255
205 226 255
205 226 255
205 226 255
205 226 255
205 226 255
205 226 255
205 226 255
204 226 255
204 226 255
204 226 255
204 226 255
204 226 255
204 226 255
204 226 255
204 226 255
204 226 255
204 226 255
204 226 255
204 226 255
204 226 255
204 226 255
204 226 255
204 226 255
204 226 255
203 226 255
203 226 255
203 226 255
203 226 255
203 226 255
203 226 255
203 226 255
203 225 255
203 225 255
203 225 255
203 225 255
203 225 255
203 225 255
203 225 255
203 225 255
203 225 255
202 225 255
202 225 255
202 225 255
202 225 255
202 225 255
202 225 255
202 225 255
202 225 255
202 225 255
202 225 255
202 225 255
202 225 255
202 225 255
202 225 255
202 225 255
202 225 255
201 225 255
201 225 255
201 225 255
201 225 255
201 224 255
201 224 255
201 224 255
201 224 255
201 224 255
201 224 255
201 224 255
201 224 255
201 224 255
201 224 255
200 224 255
200 224 255
200 224 255
200 224 255
200 224 255
200 224 255
200 224 255
200 224 255
200 224 255
200 224 255
200 224 255
200 224 255
200 224 255
200 224 255
200 224 255
199 224 255
199 224 255
199 223 255
199 223 255
199 223 255
199 223 255
199 223 255
199 223 255
199 223 255
199 223 255
199 223 255
199 223 255
199 223 255
199 223 255
198 223 255
198 223 255
198 223 255
198 223 255
198 223 255
198 223 255
198 223 255
198 223 255
198 223 255
198 223 255
198 223 255
198 223 255
198 223 255
198 223 255
198 223 255
197 222 255
197 222 255
197 222 255
197 222 255
197 222 255
197 222 255
197 222 255
197 222 255
197 222 255
197 222 255
197 222 255
197 222 255
197 222 255
197 222 255
197 222 255
196 222 255
196 222 255
196 222 255
196 222 255
196 222 255
196 222 255
196 222 255
196 222 255
196 222 255
196 222 255
196 222 255
196 222 255
196 222 255
196 222 255
196 222 255
196 222 255
196 222 255
196 221 255
195 221 255
195 221 255
195 221 255
195 221 255
195 221 255
195 221 255
195 221 255
195 221 255
195 221 255
195 221 255
195 221 255
195 221 255
195 221 255
195 221 255
195 221 255
195 221 255
195 221 255
195 221 255
195 221 255
195 221 255
195 221 255
195 221 255
195 221 255
195 221 255
195 221 255
195 221 255
194 221 255
194 221 255
194 221 255
194 221 255
194 221 255
194 221 255
194 221 255
194 221 255
194 221 255
194 221 255
194 221 255
194 221 255
194 221 255
194 221 255
194 221 255
194 221 255
194 221 255
194 221 255
194 221 255
194 221 255
194 221 255
194 221 255
194 221 255
194 221 255
194 221 255
194 221 255
194 221 255
194 221 255
194 221 255
194 221 255
194 221 255
194 221 255
194 221 255
194 221 255
194 221 255
194 221 255
194 221 255
194 221 255
194 221 255
194 221 255
194 221 255
194 221 255
194 221 255
194 221 255
195 221 255
195 221 255
195 221 255
195 221 255
195 221 255
195 221 255
195 221 255
195 221 255
195 221 255
195 221 255
195 221 255
195 221 255
195 221 255
195 221 255
195 221 255
195 221 255
195 221 255
195 221 255
195 221 255
195 221 255
195 221 255
195 221 255
195 221 255
195 221 255
195 221 255
195 221 255
196 221 255
196 222 255
196 222 255
196 222 255
196 222 255
196 222 255
196 222 255
196 222 255
196 222 255
196 222 255
196 222 255
196 222 255
196 222 255
196 222 255
196 222 255
196 222 255
196 222 255
196 222 255
197 222 255
197 222 255
197 222 255
197 222 255
197 222 255
197 222 255
197 222 255
197 222 255
197 222 255
197 222 255
197 222 255
197 222 255
197 222 255
197 222 255
197 222 255
198 223 255
198 223 255
198 223 255
198 223 255
198 223 255
198 223 255
198 223 255
198 223 255
198 223 255
198 223 255
198 223 255
198 223 255
198 223 255
198 223 255
198 223 255
199 223 255
199 223 255
199 223 255
199 223 255
199 223 255
199 223 255
199 223 255
199 223 255
199 223 255
199 223 255
199 223 255
199 223 255
199 224 255
199 224 255
200 224 255
200 224 255
200 224 255
200 224 255
200 224 255
200 224 255
200 224 255
200 224 255
200 224 255
200 224 255
200 224 255
200 224 255
200 224 255
200 224 255
201 224 255
201 224 255
201 224 255
201 224 255
201 224 255
201 224 255
201 224 255
201 224 255
201 224 255
201 224 255
201 224 255
201 225 255
201 225 255
201 225 255
201 225 255
202 225 255
202 225 255
202 225 255
202 225 255
202 225 255
202 225 255
202 225 255
202 225 255
202 225 255
202 225 255
202 225 255
202 225 255
202 225 255
202 225 255
202 225 255
202 225 255
203 225 255
203 225 255
203 225 255
203 225 255
203 225 255
203 225 255
203 225 255
203 225 255
203 225 255
203 226 255
203 226 255
203 226 255
203 226 255
203 226 255
203 226 255
203 226 255
204 226 255
204 226 255
204 226 255
204 226 255
204 226 255
204 226 255
204 226 255
204 226 255
204 226 255
204 226 255
204 226 255
204 226 255
204 226 255
204 226 255
204 226 255
204 226 255
204 226 255
205 226 255
205 226 255
205 226 255
205 226 255
205 226 255
205 226 255
205 226 255
205 226 255
205 227 255
205 227 255
205 227 255
205 227 255
205 227 255
205 227 255
205 227 255
205 227 255
205 227 255
205 227 255
205 227 255
205 226 255
205 226 255
205 226 255
205 226 255
205 226 255
205 226 255
205 226 255
204 226 255
204 226 255
204 226 255
204 226 255
204 226 255
204 226 255
204 226 255
204 226 255
204 226 255
204 226 255
204 226 255
204 226 255
204 226 255
204 226 255
204 226 255
204 226 255
204 226 255
204 226 255
203 226 255
203 226 255
203 226 255
203 226 255
203 226 255
203 226 255
203 226 255
203 225 255
203 225 255
203 225 255
203 225 255
203 225 255
203 225 255
203 225 255
203 225 255
203 225 255
202 225 255
202 225 255
202 225 255
202 225 255
202 225 255
202 225 255
202 225 255
202 225 255
202 225 255
202 225 255
202 225 255
202 225 255
202 225 255
202 225 255
202 225 255
201 225 255
201 225 255
201 225 255
201 225 255
201 224 255
201 224 255
201 224 255
201 224 255
201 224 255
201 224 255
201 224 255
201 224 255
201 224 255
201 224 255
201 224 255
200 224 255
200 224 255
200 224 255
200 224 255
200 224 255
200 224 255
200 224 255
200 224 255
200 224 255
200 224 255
200 224 255
200 224 255
200 224 255
200 224 255
199 224 255
199 224 255
199 223 255
199 223 255
199 223 255
199 223 255
199 223 255
199 223 255
199 223 255
199 223 255
199 223 255
199 223 255
199 223 255
199 223 255
198 223 255
198 223 255
198 223 255
198 223 255
198 223 255
198 223 255
198 223 255
198 223 255
198 223 255
198 223 255
198 223 255
198 223 255
198 223 255
198 223 255
198 223 255
197 223 255
197 222 255
197 222 255
197 222 255
197 222 255
197 222 255
197 222 255
197 222 255
197 222 255
197 222 255
197 222 255
197 222 255
197 222 255
197 222 255
197 222 255
197 222 255
196 222 255
196 222 255
196 222 255
196 222 255
196 222 255
196 222 255
196 222 255
196 222 255
196 222 255
196 222 255
196 222 255
196 222 255
196 222 255
196 222 255
196 222 255
196 222 255
196 222 255
196 221 255
195 221 255
195 221 255
195 221 255
195 221 255
195 221 255
195 221 255
195 221 255
195 221 255
195 221 255
195 221 255
195 221 255
195 221 255
195 221 255
195 221 255
195 221 255
195 221 255
195 221 255
195 221 255
195 221 255
195 221 255
195 221 255
195 221 255
195 221 255
195 221 255
195 221 255
195 221 255
195 221 255
195 221 255
195 221 255
195 221 255
194 221 255
194 221 255
194 221 255
194 221 255
194 221 255
194 221 255
194 221 255
194 221 255
194 221 255
194 221 255
194 221 255
194 221 255
194 221 255
194 221 255
194 221 255
194 221 255
194 221 255
194 221 255
194 221 255
194 221 255
194 221 255
194 221 255
194 221 255
194 221 255
194 221 255
194 221 255
194 221 255
194 221 255
194 221 255
194 221 255
195 221 255
195 221 255
195 221 255
195 221 255
195 221 255
195 221 255
195 221 255
195 221 255
195 221 255
195 221 255
195 221 255
195 221 255
195 221 255
195 221 255
195 221 255
195 221 255
195 221 255
195 221 255
195 221 255
195 221 255
195 221 255
195 221 255
195 221 255
195 221 255
195 221 255
195 221 255
195 221 255
195 221 255
195 221 255
195 221 255
196 221 255
196 222 255
196 222 255
196 222 255
196 222 255
196 222 255
196 222 255
196 222 255
196 222 255
196 222 255
196 222 255
196 222 255
196 222 255
196 222 255
196 222 255
196 222 255
196 222 255
196 222 255
197 222 255
197 222 255
197 222 255
197 222 255
197 222 255
197 222 255
197 222 255
197 222 255
197 222 255
197 222 255
197 222 255
197 222 255
197 222 255
197 222 255
197 222 255
197 223 255
198 223 255
198 223 255
198 223 255
198 223 255
198 223 255
198 223 255
198 223 255
198 223 255
198 223 255
198 223 255
198 223 255
198 223 255
198 223 255
198 223 255
198 223 255
199 223 255
199 223 255
199 223 255
199 223 255
199 223 255
199 223 255
199 223 255
199 223 255
199 223 255
199 223 255
199 223 255
199 223 255
199 224 255
199 224 255
200 224 255
200 224 255
200 224 255
200 224 255
200 224 255
200 224 255
200 224 255
200 224 255
200 224 255
200 224 255
200 224 255
200 224 255
200 224 255
200 224 255
201 224 255
201 224 255
201 224 255
201 224 255
201 224 255
201 224 255
201 224 255
201 224 255
201 224 255
201 224 255
201 224 255
201 225 255
201 225 255
201 225 255
201 225 255
202 225 255
202 225 255
202 225 255
202 225 255
202 225 255
202 225 255
202 225 255
202 225 255
202 225 255
202 225 255
202 225 255
202 225 255
202 225 255
202 225 255
202 225 255
203 225 255
203 225 255
203 225 255
203 225 255
203 225 255
203 225 255
203 225 255
203 225 255
203 225 255
203 226 255
203 226 255
203 226 255
203 226 255
203 226 255
203 226 255
203 226 255
203 226 255
204 226 255
204 226 255
204 226 255
204 226 255
204 226 255
204 226 255
204 226 255
204 226 255
204 226 255
204 226 255
204 226 255
204 226 255
204 226 255
204 226 255
204 226 255
204 226 255
204 226 255
205 226 255
205 226 255
205 226 255
205 226 255
205 226 255
205 226 255
205 226 255
205 227 255
205 227 255
205 227 255
205 227 255
205 227 255
205 227 255
205 227 255
205 227 255
205 227 255
205 227 255
205 227 255
205 227 255
205 227 255
205 227 255
205 227 255
205 227 255
205 226 255
205 226 255
205 226 255
205 226 255
205 226 255
205 226 255
205 226 255
204 226 255
204 226 255
204 226 255
204 226 255
204 226 255
204 226 255
204 226 255
204 226 255
204 226 255
204 226 255
204 226 255
204 226 255
204 226 255
204 226 255
204 226 255
204 226 255
204 226 255
204 226 255
203 226 255
203 226 255
203 226 255
203 226 255
203 226 255
203 226 255
203 226 255
203 225 255
203 225 255
203 225 255
203 225 255
203 225 255
203 225 255
203 225 255
203 225 255
203 225 255
202 225 255
202 225 255
202 225 255
202 225 255
202 225 255
202 225 255
202 225 255
202 225 255
202 225 255
202 225 255
202 225 255
202 225 255
202 225 255
202 225 255
202 225 255
201 225 255
201 225 255
201 225 255
201 225 255
201 225 255
201 224 255
201 224 255
201 224 255
201 224 255
201 224 255
201 224 255
201 224 255
201 224 255
201 224 255
201 224 255
200 224 255
200 224 255
200 224 255
200 224 255
200 224 255
200 224 255
200 224 255
200 224 255
200 224 255
200 224 255
200 224 255
200 224 255
200 224 255
200 224 255
199 224 255
199 224 255
199 223 255
199 223 255
199 223 255
199 223 255
199 223 255
199 223 255
199 223 255
199 223 255
199 223 255
199 223 255
199 223 255
199 223 255
199 223 255
198 223 255
198 223 255
198 223 255
198 223 255
198 223 255
198 223 255
198 223 255
198 223 255
198 223 255
198 223 255
198 223 255
198 223 255
198 223 255
198 223 255
198 223 255
197 222 255
197 222 255
197 222 255
197 222 255
197 222 255
197 222 255
197 222 255
197 222 255
197 222 255
197 222 255
197 222 255
197 222 255
197 222 255
197 222 255
197 222 255
196 222 255
196 222 255
196 222 255
196 222 255
196 222 255
196 222 255
196 222 255
196 222 255
196 222 255
196 222 255
196 222 255
196 222 255
196 222 255
196 222 255
196 222 255
196 222 255
196 222 255
196 222 255
196 221 255
196 221 255
195 221 255
195 221 255
195 221 255
195 221 255
195 221 255
195 221 255
195 221 255
195 221 255
195 221 255
195 221 255
195 221 255
195 221 255
195 221 255
195 221 255
195 221 255
195 221 255
195 221 255
195 221 255
195 221 255
195 221 255
195 221 255
195 221 255
195 221 255
195 221 255
195 221 255
195 221 255
195 221 255
195 221 255
195 221 255
195 221 255
195 221 255
195 221 255
195 221 255
195 221 255
195 221 255
195 221 255
195 221 255
195 221 255
195 221 255
195 221 255
195 221 255
195 221 255
195 221 255
195 221 255
195 221 255
195 221 255
195 221 255
195 221 255
195 221 255
195 221 255
195 221 255
195 221 255
195 221 255
195 221 255
195 221 255
195 221 255
195 221 255
195 221 255
195 221 255
195 221 255
195 221 255
195 221 255
195 221 255
195 221 255
195 221 255
195 221 255
195 221 255
195 221 255
195 221 255
195 221 255
195 221 255
195 221 255
195 221 255
195 221 255
195 221 255
195 221 255
195 221 255
195 221 255
195 221 255
195 221 255
195 221 255
195 221 255
196 221 255
196 221 255
196 222 255
196 222 255
196 222 255
196 222 255
196 222 255
196 222 255
196 222 255
196 222 255
196 222 255
196 222 255
196 222 255
196 222 255
196 222 255
196 222 255
196 222 255
196 222 255
196 222 255
196 222 255
197 222 255
197 222 255
197 222 255
197 222 255
197 222 255
197 222 255
197 222 255
197 222 255
197 222 255
197 222 255
197 222 255
197 222 255
197 222 255
197 222 255
197 222 255
197 223 255
198 223 255
198 223 255
198 223 255
198 223 255
198 223 255
198 223 255
198 223 255
198 223 255
198 223 255
198 223 255
198 223 255
198 223 255
198 223 255
198 223 255
199 223 255
199 223 255
199 223 255
199 223 255
199 223 255
199 223 255
199 223 255
199 223 255
199 223 255
199 223 255
199 223 255
199 223 255
199 223 255
199 224 255
199 224 255
200 224 255
200 224 255
200 224 255
200 224 255
200 224 255
200 224 255
200 224 255
200 224 255
200 224 255
200 224 255
200 224 255
200 224 255
200 224 255
200 224 255
201 224 255
201 224 255
201 224 255
201 224 255
201 224 255
201 224 255
201 224 255
201 224 255
201 224 255
201 224 255
201 224 255
201 225 255
201 225 255
201 225 255
201 225 255
202 225 255
202 225 255
202 225 255
202 225 255
202 225 255
202 225 255
202 225 255
202 225 255
202 225 255
202 225 255
202 225 255
202 225 255
202 225 255
202 225 255
202 225 255
203 225 255
203 225 255
203 225 255
203 225 255
203 225 255
203 225 255
203 225 255
203 225 255
203 225 255
203 226 255
203 226 255
203 226 255
203 226 255
203 226 255
203 226 255
203 226 255
204 226 255
204 226 255
204 226 255
204 226 255
204 226 255
204 226 255
204 226 255
204 226 255
204 226 255
204 226 255
204 226 255
204 226 255
204 226 255
204 226 255
204 226 255
204 226 255
204 226 255
204 226 255
205 226 255
205 226 255
205 226 255
205 226 255
205 226 255
205 226 255
205 226 255
205 227 255
205 227 255
205 227 255
205 227 255
205 227 255
205 227 255
205 227 255
205 227 255
205 227 255
205 227 255
205 227 255
205 227 255
205 227 255
205 227 255
205 227 255
205 227 255
205 227 255
205 227 255
205 227 255
205 227 255
205 227 255
205 226 255
205 226 255
205 226 255
205 226 255
205 226 255
205 226 255
205 226 255
204 226 255
204 226 255
204 226 255
204 226 255
204 226 255
204 226 255
204 226 255
204 226 255
204 226 255
204 226 255
204 226 255
204 226 255
204 226 255
204 226 255
204 226 255
204 226 255
204 226 255
203 226 255
203 226 255
203 226 255
203 226 255
203 226 255
203 226 255
203 226 255
203 225 255
203 225 255
203 225 255
203 225 255
203 225 255
203 225 255
203 225 255
203 225 255
203 225 255
202 225 255
202 225 255
202 225 255
202 225 255
202 225 255
202 225 255
202 225 255
202 225 255
202 225 255
202 225 255
202 225 255
202 225 255
202 225 255
202 225 255
202 225 255
201 225 255
201 225 255
201 225 255
201 225 255
201 225 255
201 224 255
201 224 255
201 224 255
201 224 255
201 224 255
201 224 255
201 224 255
201 224 255
201 224 255
201 224 255
200 224 255
200 224 255
200 224 255
200 224 255
200 224 255
200 224 255
200 224 255
200 224 255
200 224 255
200 224 255
200 224 255
200 224 255
200 224 255
200 224 255
199 224 255
199 224 255
199 224 255
199 223 255
199 223 255
199 223 255
199 223 255
199 223 255
199 223 255
199 223 255
199 223 255
199 223 255
199 223 255
199 223 255
199 223 255
198 223 255
198 223 255
198 223 255
198 223 255
198 223 255
198 223 255
198 223 255
198 223 255
198 223 255
198 223 255
198 223 255
198 223 255
198 223 255
198 223 255
198 223 255
197 222 255
197 222 255
197 222 255
197 222 255
197 222 255
197 222 255
197 222 255
197 222 255
197 222 255
197 222 255
197 222 255
197 222 255
197 222 255
197 222 255
197 222 255
197 222 255
196 222 255
196 222 255
196 222 255
196 222 255
196 222 255
196 222 255
196 222 255
196 222 255
196 222 255
196 222 255
196 222 255
196 222 255
196 222 255
196 222 255
196 222 255
196 222 255
196 222 255
196 222 255
196 221 255
196 221 255
195 221 255
195 221 255
195 221 255
195 221 255
195 221 255
195 221 255
195 221 255
195 221 255
195 221 255
195 221 255
195 221 255
195 221 255
195 221 255
195 221 255
195 221 255
195 221 255
195 221 255
195 221 255
195 221 255
195 221 255
195 221 255
195 221 255
195 221 255
195 221 255
195 221 255
195 221 255
195 221 255
195 221 255
195 221 255
195 221 255
195 221 255
195 221 255
195 221 255
195 221 255
195 221 255
195 221 255
195 221 255
195 221 255
195 221 255
195 221 255
195 221 255
195 221 255
195 221 255
195 221 255
195 221 255
195 221 255
195 221 255
195 221 255
195 221 255
195 221 255
195 221 255
195 221 255
195 221 255
195 221 255
195 221 255
195 221 255
195 221 255
195 221 255
195 221 255
195 221 255
195 221 255
195 221 255
195 221 255
195 221 255
195 221 255
195 221 255
195 221 255
195 221 255
195 221 255
195 221 255
195 221 255
195 221 255
195 221 255
195 221 255
195 221 255
195 221 255
196 221 255
196 221 255
196 222 255
196 222 255
196 222 255
196 222 255
196 222 255
196 222 255
196 222 255
196 222 255
196 222 255
196 222 255
196 222 255
196 222 255
196 222 255
196 222 255
196 222 255
196 222 255
196 222 255
196 222 255
197 222 255
197 222 255
197 222 255
197 222 255
197 222 255
197 222 255
197 222 255
197 222 255
197 222 255
197 222 255
197 222 255
197 222 255
197 222 255
197 222 255
197 222 255
197 222 255
198 223 255
198 223 255
198 223 255
198 223 255
198 223 255
198 223 255
198 223 255
198 223 255
198 223 255
198 223 255
198 223 255
198 223 255
198 223 255
198 223 255
198 223 255
199 223 255
199 223 255
199 223 255
199 223 255
199 223 255
199 223 255
199 223 255
199 223 255
199 223 255
199 223 255
199 223 255
199 223 255
199 224 255
199 224 255
199 224 255
200 224 255
200 224 255
200 224 255
200 224 255
200 224 255
200 224 255
200 224 255
200 224 255
200 224 255
200 224 255
200 224 255
200 224 255
200 224 255
200 224 255
201 224 255
201 224 255
201 224 255
201 224 255
201 224 255
201 224 255
201 224 255
201 224 255
201 224 255
201 224 255
201 225 255
201 225 255
201 225 255
201 225 255
201 225 255
202 225 255
202 225 255
202 225 255
202 225 255
202 225 255
202 225 255
202 225 255
202 225 255
202 225 255
202 225 255
202 225 255
202 225 255
202 225 255
202 225 255
202 225 255
203 225 255
203 225 255
203 225 255
203 225 255
203 225 255
203 225 255
203 225 255
203 225 255
203 225 255
203 226 255
203 226 255
203 226 255
203 226 255
203 226 255
203 226 255
203 226 255
204 226 255
204 226 255
204 226 255
204 226 255
204 226 255
204 226 255
204 226 255
204 226 255
204 226 255
204 226 255
204 226 255
204 226 255
204 226 255
204 226 255
204 226 255
204 226 255
204 226 255
205 226 255
205 226 255
205 226 255
205 226 255
205 226 255
205 226 255
205 226 255
205 227 255
205 227 255
205 227 255
205 227 255
205 227 255
205 227 255
205 227 255
205 227 255
205 227 255
205 227 255
205 227 255
205 227 255
206 227 255
206 227 255
206 227 255
205 227 255
205 227 255
205 227 255
205 227 255
205 227 255
205 227 255
205 227 255
205 227 255
205 227 255
205 227 255
205 227 255
205 226 255
205 226 255
205 226 255
205 226 255
205 226 255
205 226 255
205 226 255
204 226 255
204 226 255
204 226 255
204 226 255
204 226 255
204 226 255
204 226 255
204 226 255
204 226 255
204 226 255
204 226 255
204 226 255
204 226 255
204 226 255
204 226 255
204 226 255
204 226 255
203 226 255
203 226 255
203 226 255
203 226 255
203 226 255
203 226 255
203 226 255
203 225 255
203 225 255
203 225 255
203 225 255
203 225 255
203 225 255
203 225 255
203 225 255
203 225 255
202 225 255
202 225 255
202 225 255
202 225 255
202 225 255
202 225 255
202 225 255
202 225 255
202 225 255
202 225 255
202 225 255
202 225 255
202 225 255
202 225 255
202 225 255
202 225 255
201 225 255
201 225 255
201 225 255
201 225 255
201 224 255
201 224 255
201 224 255
201 224 255
201 224 255
201 224 255
201 224 255
201 224 255
201 224 255
201 224 255
200 224 255
200 224 255
200 224 255
200 224 255
200 224 255
200 224 255
200 224 255
200 224 255
200 224 255
200 224 255
200 224 255
200 224 255
200 224 255
200 224 255
200 224 255
199 224 255
199 224 255
199 223 255
199 223 255
199 223 255
199 223 255
199 223 255
199 223 255
199 223 255
199 223 255
199 223 255
199 223 255
199 223 255
199 223 255
198 223 255
198 223 255
198 223 255
198 223 255
198 223 255
198 223 255
198 223 255
198 223 255
198 223 255
198 223 255
198 223 255
198 223 255
198 223 255
198 223 255
198 223 255
197 223 255
197 222 255
197 222 255
197 222 255
197 222 255
197 222 255
197 222 255
197 222 255
197 222 255
197 222 255
197 222 255
197 222 255
197 222 255
197 222 255
197 222 255
197 222 255
197 222 255
196 222 255
196 222 255
196 222 255
196 222 255
196 222 255
196 222 255
196 222 255
196 222 255
196 222 255
196 222 255
196 222 255
196 222 255
196 222 255
196 222 255
196 222 255
196 222 255
196 222 255
196 222 255
196 222 255
196 221 255
196 221 255
195 221 255
195 221 255
195 221 255
195 221 255
195 221 255
195 221 255
195 221 255
195 221 255
195 221 255
195 221 255
195 221 255
195 221 255
195 221 255
195 221 255
195 221 255
195 221 255
195 221 255
195 221 255
195 221 255
195 221 255
195 221 255
195 221 255
195 221 255
195 221 255
195 221 255
195 221 255
195 221 255
195 221 255
195 221 255
195 221 255
195 221 255
195 221 255
195 221 255
195 221 255
195 221 255
195 221 255
195 221 255
195 221 255
195 221 255
195 221 255
195 221 255
195 221 255
195 221 255
195 221 255
195 221 255
195 221 255
195 221 255
195 221 255
195 221 255
195 221 255
195 221 255
195 221 255
195 221 255
195 221 255
195 221 255
195 221 255
195 221 255
195 221 255
195 221 255
195 221 255
195 221 255
195 221 255
195 221 255
195 221 255
195 221 255
195 221 255
195 221 255
195 221 255
196 221 255
196 221 255
196 222 255
196 222 255
196 222 255
196 222 255
196 222 255
196 222 255
196 222 255
196 222 255
196 222 255
196 222 255
196 222 255
196 222 255
196 222 255
196 222 255
196 222 255
196 222 255
196 222 255
196 222 255
196 222 255
197 222 255
197 222 255
197 222 255
197 222 255
197 222 255
197 222 255
197 222 255
197 222 255
197 222 255
197 222 255
197 222 255
197 222 255
197 222 255
197 222 255
197 222 255
197 222 255
197 223 255
198 223 255
198 223 255
198 223 255
198 223 255
198 223 255
198 223 255
198 223 255
198 223 255
198 223 255
198 223 255
198 223 255
198 223 255
198 223 255
198 223 255
198 223 255
199 223 255
199 223 255
199 223 255
199 223 255
199 223 255
199 223 255
199 223 255
199 223 255
199 223 255
199 223 255
199 223 255
199 223 255
199 224 255
199 224 255
200 224 255
200 224 255
200 224 255
200 224 255
200 224 255
200 224 255
200 224 255
200 224 255
200 224 255
200 224 255
200 224 255
200 224 255
200 224 255
200 224 255
200 224 255
201 224 255
201 224 255
201 224 255
201 224 255
201 224 255
201 224 255
201 224 255
201 224 255
201 224 255
201 224 255
201 225 255
201 225 255
201 225 255
201 225 255
202 225 255
202 225 255
202 225 255
202 225 255
202 225 255
202 225 255
202 225 255
202 225 255
202 225 255
202 225 255
202 225 255
202 225 255
202 225 255
202 225 255
202 225 255
202 225 255
203 225 255
203 225 255
203 225 255
203 225 255
203 225 255
203 225 255
203 225 255
203 225 255
203 226 255
203 226 255
203 226 255
203 226 255
203 226 255
203 226 255
203 226 255
204 226 255
204 226 255
204 226 255
204 226 255
204 226 255
204 226 255
204 226 255
204 226 255
204 226 255
204 226 255
204 226 255
204 226 255
204 226 255
204 226 255
204 226 255
204 226 255
204 226 255
204 226 255
205 226 255
205 226 255
205 226 255
205 226 255
205 226 255
205 226 255
205 226 255
205 227 255
205 227 255
205 227 255
205 227 255
205 227 255
205 227 255
205 227 255
205 227 255
205 227 255
205 227 255
205 227 255
206 227 255
206 227 255
206 227 255
206 227 255
206 227 255
206 227 255
206 227 255
206 227 255
205 227 255
205 227 255
205 227 255
205 227 255
205 227 255
205 227 255
205 227 255
205 227 255
205 227 255
205 227 255
205 227 255
205 226 255
205 226 255
205 226 255
205 226 255
205 226 255
205 226 255
205 226 255
205 226 255
204 226 255
204 226 255
204 226 255
204 226 255
204 226 255
204 226 255
204 226 255
204 226 255
204 226 255
204 226 255
204 226 255
204 226 255
204 226 255
204 226 255
204 226 255
204 226 255
204 226 255
203 226 255
203 226 255
203 226 255
203 226 255
203 226 255
203 226 255
203 226 255
203 225 255
203 225 255
203 225 255
203 225 255
203 225 255
203 225 255
203 225 255
203 225 255
203 225 255
202 225 255
202 225 255
202 225 255
202 225 255
202 225 255
202 225 255
202 225 255
202 225 255
202 225 255
202 225 255
202 225 255
202 225 255
202 225 255
202 225 255
202 225 255
201 225 255
201 225 255
201 225 255
201 225 255
201 224 255
201 224 255
201 224 255
201 224 255
201 224 255
201 224 255
201 224 255
201 224 255
201 224 255
201 224 255
200 224 255
200 224 255
200 224 255
200 224 255
200 224 255
200 224 255
200 224 255
200 224 255
200 224 255
200 224 255
200 224 255
200 224 255
200 224 255
200 224 255
200 224 255
199 224 255
199 224 255
199 223 255
199 223 255
199 223 255
199 223 255
199 223 255
199 223 255
199 223 255
199 223 255
199 223 255
199 223 255
199 223 255
199 223 255
199 223 255
198 223 255
198 223 255
198 223 255
198 223 255
198 223 255
198 223 255
198 223 255
198 223 255
198 223 255
198 223 255
198 223 255
198 223 255
198 223 255
198 223 255
198 223 255
197 222 255
197 222 255
197 222 255
197 222 255
197 222 255
197 222 255
197 222 255
197 222 255
197 222 255
197 222 255
197 222 255
197 222 255
197 222 255
197 222 255
197 222 255
197 222 255
197 222 255
196 222 255
196 222 255
196 222 255
196 222 255
196 222 255
196 222 255
196 222 255
196 222 255
196 222 255
196 222 255
196 222 255
196 222 255
196 222 255
196 222 255
196 222 255
196 222 255
196 222 255
196 222 255
196 222 255
196 222 255
196 221 255
196 221 255
195 221 255
195 221 255
195 221 255
195 221 255
195 221 255
195 221 255
195 221 255
195 221 255
195 221 255
195 221 255
195 221 255
195 221 255
195 221 255
195 221 255
195 221 255
195 221 255
195 221 255
195 221 255
195 221 255
195 221 255
195 221 255
195 221 255
195 221 255
195 221 255
195 221 255
195 221 255
195 221 255
195 221 255
195 221 255
195 221 255
195 221 255
195 221 255
195 221 255
195 221 255
195 221 255
195 221 255
195 221 255
195 221 255
195 221 255
195 221 255
195 221 255
195 221 255
195 221 255
195 221 255
195 221 255
195 221 255
195 221 255
195 221 255
195 221 255
195 221 255
195 221 255
195 221 255
195 221 255
195 221 255
195 221 255
195 221 255
195 221 255
195 221 255
195 221 255
195 221 255
196 221 255
196 221 255
196 222 255
196 222 255
196 222 255
196 222 255
196 222 255
196 222 255
196 222 255
196 222 255
196 222 255
196 222 255
196 222 255
196 222 255
196 222 255
196 222 255
196 222 255
196 222 255
196 222 255
196 222 255
196 222 255
196 222 255
197 222 255
197 222 255
197 222 255
197 222 255
197 222 255
197 222 255
197 222 255
197 222 255
197 222 255
197 222 255
197 222 255
197 222 255
197 222 255
197 222 255
197 222 255
197 222 255
197 222 255
198 223 255
198 223 255
198 223 255
198 223 255
198 223 255
198 223 255
198 223 255
198 223 255
198 223 255
198 223 255
198 223 255
198 223 255
198 223 255
198 223 255
198 223 255
198 223 255
199 223 255
199 223 255
199 223 255
199 223 255
199 223 255
199 223 255
199 223 255
199 223 255
199 223 255
199 223 255
199 223 255
199 223 255
199 224 255
199 224 255
200 224 255
200 224 255
200 224 255
200 224 255
200 224 255
200 224 255
200 224 255
200 224 255
200 224 255
200 224 255
200 224 255
200 224 255
200 224 255
200 224 255
200 224 255
201 224 255
201 224 255
201 224 255
201 224 255
201 224 255
201 224 255
201 224 255
201 224 255
201 224 255
201 224 255
201 225 255
201 225 255
201 225 255
201 225 255
202 225 255
202 225 255
202 225 255
202 225 255
202 225 255
202 225 255
202 225 255
202 225 255
202 225 255
202 225 255
202 225 255
202 225 255
202 225 255
202 225 255
202 225 255
203 225 255
203 225 255
203 225 255
203 225 255
203 225 255
203 225 255
203 225 255
203 225 255
203 225 255
203 226 255
203 226 255
203 226 255
203 226 255
203 226 255
203 226 255
203 226 255
204 226 255
204 226 255
204 226 255
204 226 255
204 226 255
204 226 255
204 226 255
204 226 255
204 226 255
204 226 255
204 226 255
204 226 255
204 226 255
204 226 255
204 226 255
204 226 255
204 226 255
205 226 255
205 226 255
205 226 255
205 226 255
205 226 255
205 226 255
205 226 255
205 227 255
205 227 255
205 227 255
205 227 255
205 227 255
205 227 255
205 227 255
205 227 255
205 227 255
205 227 255
205 227 255
205 227 255
206 227 255
206 227 255
206 227 255
206 227 255
206 227 255
206 227 255
206 227 255
206 227 255
206 227 255
206 227 255
206 227 255
206 227 255
206 227 255
205 227 255
205 227 255
205 227 255
205 227 255
205 227 255
205 227 255
205 227 255
205 227 255
205 227 255
205 227 255
205 227 255
205 226 255
205 226 255
205 226 255
205 226 255
205 226 255
205 226 255
205 226 255
204 226 255
204 226 255
204 226 255
204 226 255
204 226 255
204 226 255
204 226 255
204 226 255
204 226 255
204 226 255
204 226 255
204 226 255
204 226 255
204 226 255
204 226 255
204 226 255
204 226 255
203 226 255
203 226 255
203 226 255
203 226 255
203 226 255
203 226 255
203 226 255
203 225 255
203 225 255
203 225 255
203 225 255
203 225 255
203 225 255
203 225 255
203 225 255
203 225 255
202 225 255
202 225 255
202 225 255
202 225 255
202 225 255
202 225 255
202 225 255
202 225 255
202 225 255
202 225 255
202 225 255
202 225 255
202 225 255
202 225 255
202 225 255
201 225 255
201 225 255
201 225 255
201 225 255
201 224 255
201 224 255
201 224 255
201 224 255
201 224 255
201 224 255
201 224 255
201 224 255
201 224 255
201 224 255
201 224 255
200 224 255
200 224 255
200 224 255
200 224 255
200 224 255
200 224 255
200 224 255
200 224 255
200 224 255
200 224 255
200 224 255
200 224 255
200 224 255
200 224 255
199 224 255
199 224 255
199 223 255
199 223 255
199 223 255
199 223 255
199 223 255
199 223 255
199 223 255
199 223 255
199 223 255
199 223 255
199 223 255
199 223 255
199 223 255
198 223 255
198 223 255
198 223 255
198 223 255
198 223 255
198 223 255
198 223 255
198 223 255
198 223 255
198 223 255
198 223 255
198 223 255
198 223 255
198 223 255
198 223 255
197 223 255
197 222 255
197 222 255
197 222 255
197 222 255
197 222 255
197 222 255
197 222 255
197 222 255
197 222 255
197 222 255
197 222 255
197 222 255
197 222 255
197 222 255
197 222 255
197 222 255
197 222 255
196 222 255
196 222 255
196 222 255
196 222 255
196 222 255
196 222 255
196 222 255
196 222 255
196 222 255
196 222 255
196 222 255
196 222 255
196 222 255
196 222 255
196 222 255
196 222 255
196 222 255
196 222 255
196 222 255
196 222 255
196 222 255
196 221 255
196 221 255
196 221 255
195 221 255
195 221 255
195 221 255
195 221 255
195 221 255
195 221 255
195 221 255
195 221 255
195 221 255
195 221 255
195 221 255
195 221 255
195 221 255
195 221 255
195 221 255
195 221 255
195 221 255
195 221 255
195 221 255
195 221 255
195 221 255
195 221 255
195 221 255
195 221 255
195 221 255
195 221 255
195 221 255
195 221 255
195 221 255
195 221 255
195 221 255
195 221 255
195 221 255
195 221 255
195 221 255
195 221 255
195 221 255
195 221 255
195 221 255
195 221 255
195 221 255
195 221 255
195 221 255
195 221 255
195 221 255
195 221 255
195 221 255
195 221 255
195 221 255
195 221 255
196 221 255
196 221 255
196 221 255
196 222 255
196 222 255
196 222 255
196 222 255
196 222 255
196 222 255
196 222 255
196 222 255
196 222 255
196 222 255
196 222 255
196 222 255
196 222 255
196 222 255
196 222 255
196 222 255
196 222 255
196 222 255
196 222 255
196 222 255
196 222 255
197 222 255
197 222 255
197 222 255
197 222 255
197 222 255
197 222 255
197 222 255
197 222 255
197 222 255
197 222 255
197 222 255
197 222 255
197 222 255
197 222 255
197 222 255
197 222 255
197 222 255
197 223 255
198 223 255
198 223 255
198 223 255
198 223 255
198 223 255
198 223 255
198 223 255
198 223 255
198 223 255
198 223 255
198 223 255
198 223 255
198 223 255
198 223 255
198 223 255
199 223 255
199 223 255
199 223 255
199 223 255
199 223 255
199 223 255
199 223 255
199 223 255
199 223 255
199 223 255
199 223 255
199 223 255
199 223 255
199 224 255
199 224 255
200 224 255
200 224 255
200 224 255
200 224 255
200 224 255
200 224 255
200 224 255
200 224 255
200 224 255
200 224 255
200 224 255
200 224 255
200 224 255
200 224 255
201 224 255
201 224 255
201 224 255
201 224 255
201 224 255
201 224 255
201 224 255
201 224 255
201 224 255
201 224 255
201 224 255
201 225 255
201 225 255
201 225 255
201 225 255
202 225 255
202 225 255
202 225 255
202 225 255
202 225 255
202 225 255
202 225 255
202 225 255
202 225 255
202 225 255
202 225 255
202 225 255
202 225 255
202 225 255
202 225 255
203 225 255
203 225 255
203 225 255
203 225 255
203 225 255
203 225 255
203 225 255
203 225 255
203 225 255
203 226 255
203 226 255
203 226 255
203 226 255
203 226 255
203 226 255
203 226 255
204 226 255
204 226 255
204 226 255
204 226 255
204 226 255
204 226 255
204 226 255
204 226 255
204 226 255
204 226 255
204 226 255
204 226 255
204 226 255
204 226 255
204 226 255
204 226 255
204 226 255
205 226 255
205 226 255
205 226 255
205 226 255
205 226 255
205 226 255
205 226 255
205 227 255
205 227 255
205 227 255
205 227 255
205 227 255
205 227 255
205 227 255
205 227 255
205 227 255
205 227 255
205 227 255
206 227 255
206 227 255
206 227 255
206 227 255
206 227 255
206 227 255
206 227 255
206 227 255
206 227 255
206 227 255
206 227 255
206 227 255
206 227 255
206 227 255
206 227 255
206 227 255
206 227 255
206 227 255
206 227 255
205 227 255
205 227 255
205 227 255
205 227 255
205 227 255
205 227 255
205 227 255
205 227 255
205 227 255
205 227 255
205 227 255
205 226 255
205 226 255
205 226 255
205 226 255
205 226 255
205 226 255
205 226 255
204 226 255
204 226 255
204 226 255
204 226 255
204 226 255
204 226 255
204 226 255
204 226 255
204 226 255
204 226 255
204 226 255
204 226 255
204 226 255
204 226 255
204 226 255
204 226 255
203 226 255
203 226 255
203 226 255
203 226 255
203 226 255
203 226 255
203 226 255
203 226 255
203 225 255
203 225 255
203 225 255
203 225 255
203 225 255
203 225 255
203 225 255
203 225 255
202 225 255
202 225 255
202 225 255
202 225 255
202 225 255
202 225 255
202 225 255
202 225 255
202 225 255
202 225 255
202 225 255
202 225 255
202 225 255
202 225 255
202 225 255
201 225 255
201 225 255
201 225 255
201 225 255
201 225 255
201 224 255
201 224 255
201 224 255
201 224 255
201 224 255
201 224 255
201 224 255
201 224 255
201 224 255
201 224 255
200 224 255
200 224 255
200 224 255
200 224 255
200 224 255
200 224 255
200 224 255
200 224 255
200 224 255
200 224 255
200 224 255
200 224 255
200 224 255
200 224 255
199 224 255
199 224 255
199 224 255
199 223 255
199 223 255
199 223 255
199 223 255
199 223 255
199 223 255
199 223 255
199 223 255
199 223 255
199 223 255
199 223 255
199 223 255
198 223 255
198 223 255
198 223 255
198 223 255
198 223 255
198 223 255
198 223 255
198 223 255
198 223 255
198 223 255
198 223 255
198 223 255
198 223 255
198 223 255
198 223 255
198 223 255
197 222 255
197 222 255
197 222 255
197 222 255
197 222 255
197 222 255
197 222 255
197 222 255
197 222 255
197 222 255
197 222 255
197 222 255
197 222 255
197 222 255
197 222 255
197 222 255
197 222 255
197 222 255
196 222 255
196 222 255
196 222 255
196 222 255
196 222 255
196 222 255
196 222 255
196 222 255
196 222 255
196 222 255
196 222 255
196 222 255
196 222 255
196 222 255
196 222 255
196 222 255
196 222 255
196 222 255
196 222 255
196 222 255
196 222 255
196 222 255
196 222 255
196 222 255
196 221 255
196 221 255
196 221 255
195 221 255
195 221 255
195 221 255
195 221 255
195 221 255
195 221 255
195 221 255
195 221 255
195 221 255
195 221 255
195 221 255
195 221 255
195 221 255
195 221 255
195 221 255
195 221 255
195 221 255
195 221 255
195 221 255
195 221 255
195 221 255
195 221 255
195 221 255
195 221 255
195 221 255
195 221 255
195 221 255
195 221 255
195 221 255
195 221 255
195 221 255
195 221 255
195 221 255
195 221 255
195 221 255
195 221 255
195 221 255
195 221 255
196 221 255
196 221 255
196 221 255
196 221 255
196 222 255
196 222 255
196 222 255
196 222 255
196 222 255
196 222 255
196 222 255
196 222 255
196 222 255
196 222 255
196 222 255
196 222 255
196 222 255
196 222 255
196 222 255
196 222 255
196 222 255
196 222 255
196 222 255
196 222 255
196 222 255
196 222 255
196 222 255
197 222 255
197 222 255
197 222 255
197 222 255
197 222 255
197 222 255
197 222 255
197 222 255
197 222 255
197 222 255
197 222 255
197 222 255
197 222 255
197 222 255
197 222 255
197 222 255
197 222 255
197 222 255
198 223 255
198 223 255
198 223 255
198 223 255
198 223 255
198 223 255
198 223 255
198 223 255
198 223 255
198 223 255
198 223 255
198 223 255
198 223 255
198 223 255
198 223 255
198 223 255
199 223 255
199 223 255
199 223 255
199 223 255
199 223 255
199 223 255
199 223 255
199 223 255
199 223 255
199 223 255
199 223 255
199 223 255
199 224 255
199 224 255
199 224 255
200 224 255
200 224 255
200 224 255
200 224 255
200 224 255
200 224 255
200 224 255
200 224 255
200 224 255
200 224 255
200 224 255
200 224 255
200 224 255
200 224 255
201 224 255
201 224 255
201 224 255
201 224 255
201 224 255
201 224 255
201 224 255
201 224 255
201 224 255
201 224 255
201 225 255
201 225 255
201 225 255
201 225 255
202 225 255
202 225 255
202 225 255
202 225 255
202 225 255
202 225 255
202 225 255
202 225 255
202 225 255
202 225 255
202 225 255
202 225 255
202 225 255
202 225 255
202 225 255
202 225 255
203 225 255
203 225 255
203 225 255
203 225 255
203 225 255
203 225 255
203 225 255
203 225 255
203 226 255
203 226 255
203 226 255
203 226 255
203 226 255
203 226 255
203 226 255
203 226 255
204 226 255
204 226 255
204 226 255
204 226 255
204 226 255
204 226 255
204 226 255
204 226 255
204 226 255
204 226 255
204 226 255
204 226 255
204 226 255
204 226 255
204 226 255
204 226 255
205 226 255
205 226 255
205 226 255
205 226 255
205 226 255
205 226 255
205 226 255
205 227 255
205 227 255
205 227 255
205 227 255
205 227 255
205 227 255
205 227 255
205 227 255
205 227 255
205 227 255
205 227 255
206 227 255
206 227 255
206 227 255
206 227 255
206 227 255
206 227 255
206 227 255
206 227 255
206 227 255
206 227 255
206 227 255
206 227 255
206 227 255
206 227 255
206 227 255
206 227 255
206 227 255
206 227 255
206 227 255
206 227 255
206 227 255
206 227 255
206 227 255
206 227 255
205 227 255
205 227 255
205 227 255
205 227 255
205 227 255
205 227 255
205 227 255
205 227 255
205 227 255
205 227 255
205 227 255
205 226 255
205 226 255
205 226 255
205 226 255
205 226 255
205 226 255
205 226 255
204 226 255
204 226 255
204 226 255
204 226 255
204 226 255
204 226 255
204 226 255
204 226 255
204 226 255
204 226 255
204 226 255
204 226 255
204 226 255
204 226 255
204 226 255
204 226 255
204 226 255
203 226 255
203 226 255
203 226 255
203 226 255
203 226 255
203 226 255
203 226 255
203 225 255
203 225 255
203 225 255
203 225 255
203 225 255
203 225 255
203 225 255
203 225 255
203 225 255
202 225 255
202 225 255
202 225 255
202 225 255
202 225 255
202 225 255
202 225 255
202 225 255
202 225 255
202 225 255
202 225 255
202 225 255
202 225 255
202 225 255
202 225 255
201 225 255
201 225 255
201 225 255
201 225 255
201 224 255
201 224 255
201 224 255
201 224 255
201 224 255
201 224 255
201 224 255
201 224 255
201 224 255
201 224 255
200 224 255
200 224 255
200 224 255
200 224 255
200 224 255
200 224 255
200 224 255
200 224 255
200 224 255
200 224 255
200 224 255
200 224 255
200 224 255
200 224 255
200 224 255
199 224 255
199 224 255
199 223 255
199 223 255
199 223 255
199 223 255
199 223 255
199 223 255
199 223 255
199 223 255
199 223 255
199 223 255
199 223 255
199 223 255
199 223 255
198 223 255
198 223 255
198 223 255
198 223 255
198 223 255
198 223 255
198 223 255
198 223 255
198 223 255
198 223 255
198 223 255
198 223 255
198 223 255
198 223 255
198 223 255
197 223 255
197 222 255
197 222 255
197 222 255
197 222 255
197 222 255
197 222 255
197 222 255
197 222 255
197 222 255
197 222 255
197 222 255
197 222 255
197 222 255
197 222 255
197 222 255
197 222 255
197 222 255
197 222 255
196 222 255
196 222 255
196 222 255
196 222 255
196 222 255
196 222 255
196 222 255
196 222 255
196 222 255
196 222 255
196 222 255
196 222 255
196 222 255
196 222 255
196 222 255
196 222 255
196 222 255
196 222 255
196 222 255
196 222 255
196 222 255
196 222 255
196 222 255
196 222 255
196 222 255
196 222 255
196 222 255
196 222 255
196 221 255
196 221 255
196 221 255
196 221 255
196 221 255
195 221 255
195 221 255
195 221 255
195 221 255
195 221 255
195 221 255
195 221 255
195 221 255
195 221 255
195 221 255
195 221 255
195 221 255
195 221 255
195 221 255
195 221 255
195 221 255
195 221 255
195 221 255
195 221 255
195 221 255
195 221 255
196 221 255
196 221 255
196 221 255
196 221 255
196 221 255
196 222 255
196 222 255
196 222 255
196 222 255
196 222 255
196 222 255
196 222 255
196 222 255
196 222 255
196 222 255
196 222 255
196 222 255
196 222 255
196 222 255
196 222 255
196 222 255
196 222 255
196 222 255
196 222 255
196 222 255
196 222 255
196 222 255
196 222 255
196 222 255
196 222 255
196 222 255
196 222 255
197 222 255
197 222 255
197 222 255
197 222 255
197 222 255
197 222 255
197 222 255
197 222 255
197 222 255
197 222 255
197 222 255
197 222 255
197 222 255
197 222 255
197 222 255
197 222 255
197 222 255
197 222 255
197 223 255
198 223 255
198 223 255
198 223 255
198 223 255
198 223 255
198 223 255
198 223 255
198 223 255
198 223 255
198 223 255
198 223 255
198 223 255
198 223 255
198 223 255
198 223 255
198 223 255
199 223 255
199 223 255
199 223 255
199 223 255
199 223 255
199 223 255
199 223 255
199 223 255
199 223 255
199 223 255
199 223 255
199 223 255
199 224 255
199 224 255
200 224 255
200 224 255
200 224 255
200 224 255
200 224 255
200 224 255
200 224 255
200 224 255
200 224 255
200 224 255
200 224 255
200 224 255
200 224 255
200 224 255
200 224 255
201 224 255
201 224 255
201 224 255
201 224 255
201 224 255
201 224 255
201 224 255
201 224 255
201 224 255
201 224 255
201 225 255
201 225 255
201 225 255
201 225 255
202 225 255
202 225 255
202 225 255
202 225 255
202 225 255
202 225 255
202 225 255
202 225 255
202 225 255
202 225 255
202 225 255
202 225 255
202 225 255
202 225 255
202 225 255
203 225 255
203 225 255
203 225 255
203 225 255
203 225 255
203 225 255
203 225 255
203 225 255
203 225 255
203 226 255
203 226 255
203 226 255
203 226 255
203 226 255
203 226 255
203 226 255
204 226 255
204 226 255
204 226 255
204 226 255
204 226 255
204 226 255
204 226 255
204 226 255
204 226 255
204 226 255
204 226 255
204 226 255
204 226 255
204 226 255
204 226 255
204 226 255
204 226 255
205 226 255
205 226 255
205 226 255
205 226 255
205 226 255
205 226 255
205 226 255
205 227 255
205 227 255
205 227 255
205 227 255
205 227 255
205 227 255
205 227 255
205 227 255
205 227 255
205 227 255
205 227 255
206 227 255
206 227 255
206 227 255
206 227 255
206 227 255
206 227 255
206 227 255
206 227 255
206 227 255
206 227 255
206 227 255
206 227 255
206 227 255
206 227 255
206 227 255
206 227 255
206 227 255
206 227 255
206 227 255
206 227 255
206 227 255
206 227 255
206 227 255
206 227 255
206 227 255
206 227 255
206 227 255
206 227 255
206 227 255
205 227 255
205 227 255
205 227 255
205 227 255
205 227 255
205 227 255
205 227 255
205 227 255
205 227 255
205 227 255
205 227 255
205 226 255
205 226 255
205 226 255
205 226 255
205 226 255
205 226 255
205 226 255
204 226 255
204 226 255
204 226 255
204 226 255
204 226 255
204 226 255
204 226 255
204 226 255
204 226 255
204 226 255
204 226 255
204 226 255
204 226 255
204 226 255
204 226 255
204 226 255
203 226 255
203 226 255
203 226 255
203 226 255
203 226 255
203 226 255
203 226 255
203 225 255
203 225 255
203 225 255
203 225 255
203 225 255
203 225 255
203 225 255
203 225 255
203 225 255
202 225 255
202 225 255
202 225 255
202 225 255
202 225 255
202 225 255
202 225 255
202 225 255
202 225 255
202 225 255
202 225 255
202 225 255
202 225 255
202 225 255
202 225 255
201 225 255
201 225 255
201 225 255
201 225 255
201 224 255
201 224 255
201 224 255
201 224 255
201 224 255
201 224 255
201 224 255
201 224 255
201 224 255
201 224 255
201 224 255
200 224 255
200 224 255
200 224 255
200 224 255
200 224 255
200 224 255
200 224 255
200 224 255
200 224 255
200 224 255
200 224 255
200 224 255
200 224 255
200 224 255
199 224 255
199 224 255
199 223 255
199 223 255
199 223 255
199 223 255
199 223 255
199 223 255
199 223 255
199 223 255
199 223 255
199 223 255
199 223 255
199 223 255
199 223 255
198 223 255
198 223 255
198 223 255
198 223 255
198 223 255
198 223 255
198 223 255
198 223 255
198 223 255
198 223 255
198 223 255
198 223 255
198 223 255
198 223 255
198 223 255
198 223 255
197 223 255
197 222 255
197 222 255
197 222 255
197 222 255
197 222 255
197 222 255
197 222 255
197 222 255
197 222 255
197 222 255
197 222 255
197 222 255
197 222 255
197 222 255
197 222 255
197 222 255
197 222 255
197 222 255
197 222 255
196 222 255
196 222 255
196 222 255
196 222 255
196 222 255
196 222 255
196 222 255
196 222 255
196 222 255
196 222 255
196 222 255
196 222 255
196 222 255
196 222 255
196 222 255
196 222 255
196 222 255
196 222 255
196 222 255
196 222 255
196 222 255
196 222 255
196 222 255
196 222 255
196 222 255
196 222 255
196 222 255
196 222 255
196 222 255
196 222 255
196 222 255
196 222 255
196 222 255
196 222 255
196 222 255
196 222 255
196 222 255
196 222 255
196 222 255
196 222 255
196 222 255
196 222 255
196 222 255
196 222 255
196 222 255
196 222 255
196 222 255
196 222 255
196 222 255
196 222 255
196 222 255
196 222 255
196 222 255
196 222 255
196 222 255
196 222 255
196 222 255
196 222 255
196 222 255
196 222 255
196 222 255
196 222 255
196 222 255
196 222 255
196 222 255
196 222 255
196 222 255
196 222 255
196 222 255
196 222 255
196 222 255
196 222 255
196 222 255
196 222 255
196 222 255
196 222 255
196 222 255
196 222 255
197 222 255
197 222 255
197 222 255
197 222 255
197 222 255
197 222 255
197 222 255
197 222 255
197 222 255
197 222 255
197 222 255
197 222 255
197 222 255
197 222 255
197 222 255
197 222 255
197 222 255
197 222 255
197 222 255
197 223 255
198 223 255
198 223 255
198 223 255
198 223 255
198 223 255
198 223 255
198 223 255
198 223 255
198 223 255
198 223 255
198 223 255
198 223 255
198 223 255
198 223 255
198 223 255
198 223 255
199 223 255
199 223 255
199 223 255
199 223 255
199 223 255
199 223 255
199 223 255
199 223 255
199 223 255
199 223 255
199 223 255
199 223 255
199 223 255
199 224 255
199 224 255
200 224 255
200 224 255
200 224 255
200 224 255
200 224 255
200 224 255
200 224 255
200 224 255
200 224 255
200 224 255
200 224 255
200 224 255
200 224 255
200 224 255
201 224 255
201 224 255
201 224 255
201 224 255
201 224 255
201 224 255
201 224 255
201 224 255
201 224 255
201 224 255
201 224 255
201 225 255
201 225 255
201 225 255
201 225 255
202 225 255
202 225 255
202 225 255
202 225 255
202 225 255
202 225 255
202 225 255
202 225 255
202 225 255
202 225 255
202 225 255
202 225 255
202 225 255
202 225 255
202 225 255
203 225 255
203 225 255
203 225 255
203 225 255
203 225 255
203 225 255
203 225 255
203 225 255
203 225 255
203 226 255
203 226 255
203 226 255
203 226 255
203 226 255
203 226 255
203 226 255
204 226 255
204 226 255
204 226 255
204 226 255
204 226 255
204 226 255
204 226 255
204 226 255
204 226 255
204 226 255
204 226 255
204 226 255
204 226 255
204 226 255
204 226 255
204 226 255
205 226 255
205 226 255
205 226 255
205 226 255
205 226 255
205 226 255
205 226 255
205 227 255
205 227 255
205 227 255
205 227 255
205 227 255
205 227 255
205 227 255
205 227 255
205 227 255
205 227 255
205 227 255
206 227 255
206 227 255
206 227 255
206 227 255
206 227 255
206 227 255
206 227 255
206 227 255
206 227 255
206 227 255
206 227 255
206 227 255
206 227 255
206 227 255
206 227 255
206 227 255
206 227 255
206 227 255
206 227 255
206 227 255
206 227 255
206 227 255
206 227 255
206 227 255
206 227 255
206 227 255
206 227 255
206 227 255
206 227 255
206 227 255
206 227 255
206 227 255
206 227 255
206 227 255
205 227 255
205 227 255
205 227 255
205 227 255
205 227 255
205 227 255
205 227 255
205 227 255
205 227 255
205 227 255
205 227 255
205 226 255
205 226 255
205 226 255
205 226 255
205 226 255
205 226 255
205 226 255
204 226 255
204 226 255
204 226 255
204 226 255
204 226 255
204 226 255
204 226 255
204 226 255
204 226 255
204 226 255
204 226 255
204 226 255
204 226 255
204 226 255
204 226 255
204 226 255
204 226 255
203 226 255
203 226 255
203 226 255
203 226 255
203 226 255
203 226 255
203 226 255
203 225 255
203 225 255
203 225 255
203 225 255
203 225 255
203 225 255
203 225 255
203 225 255
202 225 255
202 225 255
202 225 255
202 225 255
202 225 255
202 225 255
202 225 255
202 225 255
202 225 255
202 225 255
202 225 255
202 225 255
202 225 255
202 225 255
202 225 255
201 225 255
201 225 255
201 225 255
201 225 255
201 225 255
201 224 255
201 224 255
201 224 255
201 224 255
201 224 255
201 224 255
201 224 255
201 224 255
201 224 255
201 224 255
200 224 255
200 224 255
200 224 255
200 224 255
200 224 255
200 224 255
200 224 255
200 224 255
200 224 255
200 224 255
200 224 255
200 224 255
200 224 255
200 224 255
200 224 255
199 224 255
199 224 255
199 223 255
199 223 255
199 223 255
199 223 255
199 223 255
199 223 255
199 223 255
199 223 255
199 223 255
199 223 255
199 223 255
199 223 255
199 223 255
198 223 255
198 223 255
198 223 255
198 223 255
198 223 255
198 223 255
198 223 255
198 223 255
198 223 255
198 223 255
198 223 255
198 223 255
198 223 255
198 223 255
198 223 255
198 223 255
197 223 255
197 222 255
197 222 255
197 222 255
197 222 255
197 222 255
197 222 255
197 222 255
197 222 255
197 222 255
197 222 255
197 222 255
197 222 255
197 222 255
197 222 255
197 222 255
197 222 255
197 222 255
197 222 255
197 222 255
197 222 255
196 222 255
196 222 255
196 222 255
196 222 255
196 222 255
196 222 255
196 222 255
196 222 255
196 222 255
196 222 255
196 222 255
196 222 255
196 222 255
196 222 255
196 222 255
196 222 255
196 222 255
196 222 255
196 222 255
196 222 255
196 222 255
196 222 255
196 222 255
196 222 255
196 222 255
196 222 255
196 222 255
196 222 255
196 222 255
196 222 255
196 222 255
196 222 255
196 222 255
196 222 255
196 222 255
196 222 255
196 222 255
196 222 255
196 222 255
196 222 255
196 222 255
196 222 255
196 222 255
196 222 255
196 222 255
196 222 255
196 222 255
196 222 255
196 222 255
196 222 255
196 222 255
196 222 255
196 222 255
196 222 255
196 222 255
196 222 255
196 222 255
196 222 255
196 222 255
196 222 255
196 222 255
196 222 255
196 222 255
196 222 255
196 222 255
196 222 255
196 222 255
196 222 255
196 222 255
196 222 255
197 222 255
197 222 255
197 222 255
197 222 255
197 222 255
197 222 255
197 222 255
197 222 255
197 222 255
197 222 255
197 222 255
197 222 255
197 222 255
197 222 255
197 222 255
197 222 255
197 222 255
197 222 255
197 222 255
197 222 255
197 223 255
198 223 255
198 223 255
198 223 255
198 223 255
198 223 255
198 223 255
198 223 255
198 223 255
198 223 255
198 223 255
198 223 255
198 223 255
198 223 255
198 223 255
198 223 255
198 223 255
198 223 255
199 223 255
199 223 255
199 223 255
199 223 255
199 223 255
199 223 255
199 223 255
199 223 255
199 223 255
199 223 255
199 223 255
199 223 255
199 224 255
199 224 255
199 224 255
200 224 255
200 224 255
200 224 255
200 224 255
200 224 255
200 224 255
200 224 255
200 224 255
200 224 255
200 224 255
200 224 255
200 224 255
200 224 255
200 224 255
201 224 255
201 224 255
201 224 255
201 224 255
201 224 255
201 224 255
201 224 255
201 224 255
201 224 255
201 224 255
201 225 255
201 225 255
201 225 255
201 225 255
201 225 255
202 225 255
202 225 255
202 225 255
202 225 255
202 225 255
202 225 255
202 225 255
202 225 255
202 225 255
202 225 255
202 225 255
202 225 255
202 225 255
202 225 255
202 225 255
203 225 255
203 225 255
203 225 255
203 225 255
203 225 255
203 225 255
203 225 255
203 225 255
203 226 255
203 226 255
203 226 255
203 226 255
203 226 255
203 226 255
203 226 255
204 226 255
204 226 255
204 226 255
204 226 255
204 226 255
204 226 255
204 226 255
204 226 255
204 226 255
204 226 255
204 226 255
204 226 255
204 226 255
204 226 255
204 226 255
204 226 255
204 226 255
205 226 255
205 226 255
205 226 255
205 226 255
205 226 255
205 226 255
205 226 255
205 227 255
205 227 255
205 227 255
205 227 255
205 227 255
205 227 255
205 227 255
205 227 255
205 227 255
205 227 255
205 227 255
206 227 255
206 227 255
206 227 255
206 227 255
206 227 255
206 227 255
206 227 255
206 227 255
206 227 255
206 227 255
206 227 255
206 227 255
206 227 255
206 227 255
206 227 255
206 227 255
206 227 255
206 227 255
207 227 255
207 227 255
206 227 255
206 227 255
206 227 255
206 227 255
206 227 255
206 227 255
206 227 255
206 227 255
206 227 255
206 227 255
206 227 255
206 227 255
206 227 255
206 227 255
206 227 255
206 227 255
206 227 255
206 227 255
206 227 255
205 227 255
205 227 255
205 227 255
205 227 255
205 227 255
205 227 255
205 227 255
205 227 255
205 227 255
205 227 255
205 227 255
205 226 255
205 226 255
205 226 255
205 226 255
205 226 255
205 226 255
205 226 255
204 226 255
204 226 255
204 226 255
204 226 255
204 226 255
204 226 255
204 226 255
204 226 255
204 226 255
204 226 255
204 226 255
204 226 255
204 226 255
204 226 255
204 226 255
204 226 255
203 226 255
203 226 255
203 226 255
203 226 255
203 226 255
203 226 255
203 226 255
203 225 255
203 225 255
203 225 255
203 225 255
203 225 255
203 225 255
203 225 255
203 225 255
203 225 255
202 225 255
202 225 255
202 225 255
202 225 255
202 225 255
202 225 255
202 225 255
202 225 255
202 225 255
202 225 255
202 225 255
202 225 255
202 225 255
202 225 255
202 225 255
201 225 255
201 225 255
201 225 255
201 225 255
201 224 255
201 224 255
201 224 255
201 224 255
201 224 255
201 224 255
201 224 255
201 224 255
201 224 255
201 224 255
200 224 255
200 224 255
200 224 255
200 224 255
200 224 255
200 224 255
200 224 255
200 224 255
200 224 255
200 224 255
200 224 255
200 224 255
200 224 255
200 224 255
200 224 255
199 224 255
199 224 255
199 223 255
199 223 255
199 223 255
199 223 255
199 223 255
199 223 255
199 223 255
199 223 255
199 223 255
199 223 255
199 223 255
199 223 255
199 223 255
198 223 255
198 223 255
198 223 255
198 223 255
198 223 255
198 223 255
198 223 255
198 223 255
198 223 255
198 223 255
198 223 255
198 223 255
198 223 255
198 223 255
198 223 255
198 223 255
198 223 255
197 223 255
197 222 255
197 222 255
197 222 255
197 222 255
197 222 255
197 222 255
197 222 255
197 222 255
197 222 255
197 222 255
197 222 255
197 222 255
197 222 255
197 222 255
197 222 255
197 222 255
197 222 255
197 222 255
197 222 255
197 222 255
197 222 255
196 222 255
196 222 255
196 222 255
196 222 255
196 222 255
196 222 255
196 222 255
196 222 255
196 222 255
196 222 255
196 222 255
196 222 255
196 222 255
196 222 255
196 222 255
196 222 255
196 222 255
196 222 255
196 222 255
196 222 255
196 222 255
196 222 255
196 222 255
196 222 255
196 222 255
196 222 255
196 222 255
196 222 255
196 222 255
196 222 255
196 222 255
196 222 255
196 222 255
196 222 255
196 222 255
196 222 255
196 222 255
196 222 255
196 222 255
196 222 255
196 222 255
196 222 255
196 222 255
196 222 255
196 222 255
196 222 255
196 222 255
196 222 255
196 222 255
196 222 255
196 222 255
196 222 255
196 222 255
196 222 255
196 222 255
196 222 255
196 222 255
196 222 255
196 222 255
196 222 255
196 222 255
196 222 255
197 222 255
197 222 255
197 222 255
197 222 255
197 222 255
197 222 255
197 222 255
197 222 255
197 222 255
197 222 255
197 222 255
197 222 255
197 222 255
197 222 255
197 222 255
197 222 255
197 222 255
197 222 255
197 222 255
197 222 255
197 222 255
197 223 255
198 223 255
198 223 255
198 223 255
198 223 255
198 223 255
198 223 255
198 223 255
198 223 255
198 223 255
198 223 255
198 223 255
198 223 255
198 223 255
198 223 255
198 223 255
198 223 255
198 223 255
199 223 255
199 223 255
199 223 255
199 223 255
199 223 255
199 223 255
199 223 255
199 223 255
199 223 255
199 223 255
199 223 255
199 223 255
199 223 255
199 224 255
199 224 255
200 224 255
200 224 255
200 224 255
200 224 255
200 224 255
200 224 255
200 224 255
200 224 255
200 224 255
200 224 255
200 224 255
200 224 255
200 224 255
200 224 255
200 224 255
201 224 255
201 224 255
201 224 255
201 224 255
201 224 255
201 224 255
201 224 255
201 224 255
201 224 255
201 224 255
201 225 255
201 225 255
201 225 255
201 225 255
202 225 255
202 225 255
202 225 255
202 225 255
202 225 255
202 225 255
202 225 255
202 225 255
202 225 255
202 225 255
202 225 255
202 225 255
202 225 255
202 225 255
202 225 255
203 225 255
203 225 255
203 225 255
203 225 255
203 225 255
203 225 255
203 225 255
203 225 255
203 225 255
203 226 255
203 226 255
203 226 255
203 226 255
203 226 255
203 226 255
203 226 255
204 226 255
204 226 255
204 226 255
204 226 255
204 226 255
204 226 255
204 226 255
204 226 255
204 226 255
204 226 255
204 226 255
204 226 255
204 226 255
204 226 255
204 226 255
204 226 255
205 226 255
205 226 255
205 226 255
205 226 255
205 226 255
205 226 255
205 226 255
205 227 255
205 227 255
205 227 255
205 227 255
205 227 255
205 227 255
205 227 255
205 227 255
205 227 255
205 227 255
205 227 255
206 227 255
206 227 255
206 227 255
206 227 255
206 227 255
206 227 255
206 227 255
206 227 255
206 227 255
206 227 255
206 227 255
206 227 255
206 227 255
206 227 255
206 227 255
206 227 255
206 227 255
206 227 255
206 227 255
207 227 255
207 227 255
207 227 255
207 227 255
207 227 255
207 227 255
206 227 255
206 227 255
206 227 255
206 227 255
206 227 255
206 227 255
206 227 255
206 227 255
206 227 255
206 227 255
206 227 255
206 227 255
206 227 255
206 227 255
206 227 255
206 227 255
206 227 255
206 227 255
206 227 255
206 227 255
205 227 255
205 227 255
205 227 255
205 227 255
205 227 255
205 227 255
205 227 255
205 227 255
205 227 255
205 227 255
205 226 255
205 226 255
205 226 255
205 226 255
205 226 255
205 226 255
205 226 255
204 226 255
204 226 255
204 226 255
204 226 255
204 226 255
204 226 255
204 226 255
204 226 255
204 226 255
204 226 255
204 226 255
204 226 255
204 226 255
204 226 255
204 226 255
204 226 255
204 226 255
203 226 255
203 226 255
203 226 255
203 226 255
203 226 255
203 226 255
203 226 255
203 225 255
203 225 255
203 225 255
203 225 255
203 225 255
203 225 255
203 225 255
203 225 255
202 225 255
202 225 255
202 225 255
202 225 255
202 225 255
202 225 255
202 225 255
202 225 255
202 225 255
202 225 255
202 225 255
202 225 255
202 225 255
202 225 255
202 225 255
201 225 255
201 225 255
201 225 255
201 225 255
201 224 255
201 224 255
201 224 255
201 224 255
201 224 255
201 224 255
201 224 255
201 224 255
201 224 255
201 224 255
201 224 255
200 224 255
200 224 255
200 224 255
200 224 255
200 224 255
200 224 255
200 224 255
200 224 255
200 224 255
200 224 255
200 224 255
200 224 255
200 224 255
200 224 255
199 224 255
199 224 255
199 224 255
199 223 255
199 223 255
199 223 255
199 223 255
199 223 255
199 223 255
199 223 255
199 223 255
199 223 255
199 223 255
199 223 255
199 223 255
199 223 255
198 223 255
198 223 255
198 223 255
198 223 255
198 223 255
198 223 255
198 223 255
198 223 255
198 223 255
198 223 255
198 223 255
198 223 255
198 223 255
198 223 255
198 223 255
198 223 255
198 223 255
197 223 255
197 222 255
197 222 255
197 222 255
197 222 255
197 222 255
197 222 255
197 222 255
197 222 255
197 222 255
197 222 255
197 222 255
197 222 255
197 222 255
197 222 255
197 222 255
197 222 255
197 222 255
197 222 255
197 222 255
197 222 255
197 222 255
197 222 255
197 222 255
196 222 255
196 222 255
196 222 255
196 222 255
196 222 255
196 222 255
196 222 255
196 222 255
196 222 255
196 222 255
196 222 255
196 222 255
196 222 255
196 222 255
196 222 255
196 222 255
196 222 255
196 222 255
196 222 255
196 222 255
196 222 255
196 222 255
196 222 255
196 222 255
196 222 255
196 222 255
196 222 255
196 222 255
196 222 255
196 222 255
196 222 255
196 222 255
196 222 255
196 222 255
196 222 255
196 222 255
196 222 255
196 222 255
196 222 255
196 222 255
196 222 255
196 222 255
196 222 255
196 222 255
196 222 255
196 222 255
196 222 255
196 222 255
196 222 255
196 222 255
196 222 255
196 222 255
197 222 255
197 222 255
197 222 255
197 222 255
197 222 255
197 222 255
197 222 255
197 222 255
197 222 255
197 222 255
197 222 255
197 222 255
197 222 255
197 222 255
197 222 255
197 222 255
197 222 255
197 222 255
197 222 255
197 222 255
197 222 255
197 222 255
197 222 255
197 223 255
198 223 255
198 223 255
198 223 255
198 223 255
198 223 255
198 223 255
198 223 255
198 223 255
198 223 255
198 223 255
198 223 255
198 223 255
198 223 255
198 223 255
198 223 255
198 223 255
198 223 255
199 223 255
199 223 255
199 223 255
199 223 255
199 223 255
199 223 255
199 223 255
199 223 255
199 223 255
199 223 255
199 223 255
199 223 255
199 223 255
199 224 255
199 224 255
199 224 255
200 224 255
200 224 255
200 224 255
200 224 255
200 224 255
200 224 255
200 224 255
200 224 255
200 224 255
200 224 255
200 224 255
200 224 255
200 224 255
200 224 255
201 224 255
201 224 255
201 224 255
201 224 255
201 224 255
201 224 255
201 224 255
201 224 255
201 224 255
201 224 255
201 224 255
201 225 255
201 225 255
201 225 255
201 225 255
202 225 255
202 225 255
202 225 255
202 225 255
202 225 255
202 225 255
202 225 255
202 225 255
202 225 255
202 225 255
202 225 255
202 225 255
202 225 255
202 225 255
202 225 255
203 225 255
203 225 255
203 225 255
203 225 255
203 225 255
203 225 255
203 225 255
203 225 255
203 226 255
203 226 255
203 226 255
203 226 255
203 226 255
203 226 255
203 226 255
204 226 255
204 226 255
204 226 255
204 226 255
204 226 255
204 226 255
204 226 255
204 226 255
204 226 255
204 226 255
204 226 255
204 226 255
204 226 255
204 226 255
204 226 255
204 226 255
204 226 255
205 226 255
205 226 255
205 226 255
205 226 255
205 226 255
205 226 255
205 226 255
205 227 255
205 227 255
205 227 255
205 227 255
205 227 255
205 227 255
205 227 255
205 227 255
205 227 255
205 227 255
206 227 255
206 227 255
206 227 255
206 227 255
206 227 255
206 227 255
206 227 255
206 227 255
206 227 255
206 227 255
206 227 255
206 227 255
206 227 255
206 227 255
206 227 255
206 227 255
206 227 255
206 227 255
206 227 255
206 227 255
207 227 255
207 227 255
207 227 255
207 227 255
207 228 255
207 228 255
207 227 255
207 227 255
207 227 255
207 227 255
207 227 255
206 227 255
206 227 255
206 227 255
206 227 255
206 227 255
206 227 255
206 227 255
206 227 255
206 227 255
206 227 255
206 227 255
206 227 255
206 227 255
206 227 255
206 227 255
206 227 255
206 227 255
206 227 255
206 227 255
205 227 255
205 227 255
205 227 255
205 227 255
205 227 255
205 227 255
205 227 255
205 227 255
205 227 255
205 227 255
205 227 255
205 226 255
205 226 255
205 226 255
205 226 255
205 226 255
205 226 255
205 226 255
204 226 255
204 226 255
204 226 255
204 226 255
204 226 255
204 226 255
204 226 255
204 226 255
204 226 255
204 226 255
204 226 255
204 226 255
204 226 255
204 226 255
204 226 255
204 226 255
203 226 255
203 226 255
203 226 255
203 226 255
203 226 255
203 226 255
203 226 255
203 225 255
203 225 255
203 225 255
203 225 255
203 225 255
203 225 255
203 225 255
203 225 255
202 225 255
202 225 255
202 225 255
202 225 255
202 225 255
202 225 255
202 225 255
202 225 255
202 225 255
202 225 255
202 225 255
202 225 255
202 225 255
202 225 255
202 225 255
201 225 255
201 225 255
201 225 255
201 225 255
201 225 255
201 224 255
201 224 255
201 224 255
201 224 255
201 224 255
201 224 255
201 224 255
201 224 255
201 224 255
201 224 255
200 224 255
200 224 255
200 224 255
200 224 255
200 224 255
200 224 255
200 224 255
200 224 255
200 224 255
200 224 255
200 224 255
200 224 255
200 224 255
200 224 255
200 224 255
199 224 255
199 224 255
199 223 255
199 223 255
199 223 255
199 223 255
199 223 255
199 223 255
199 223 255
199 223 255
199 223 255
199 223 255
199 223 255
199 223 255
199 223 255
199 223 255
198 223 255
198 223 255
198 223 255
198 223 255
198 223 255
198 223 255
198 223 255
198 223 255
198 223 255
198 223 255
198 223 255
198 223 255
198 223 255
198 223 255
198 223 255
198 223 255
198 223 255
198 223 255
197 222 255
197 222 255
197 222 255
197 222 255
197 222 255
197 222 255
197 222 255
197 222 255
197 222 255
197 222 255
197 222 255
197 222 255
197 222 255
197 222 255
197 222 255
197 222 255
197 222 255
197 222 255
197 222 255
197 222 255
197 222 255
197 222 255
197 222 255
197 222 255
197 222 255
197 222 255
196 222 255
196 222 255
196 222 255
196 222 255
196 222 255
196 222 255
196 222 255
196 222 255
196 222 255
196 222 255
196 222 255
196 222 255
196 222 255
196 222 255
196 222 255
196 222 255
196 222 255
196 222 255
196 222 255
196 222 255
196 222 255
196 222 255
196 222 255
196 222 255
196 222 255
196 222 255
196 222 255
196 222 255
196 222 255
196 222 255
196 222 255
196 222 255
196 222 255
196 222 255
196 222 255
196 222 255
196 222 255
196 222 255
196 222 255
196 222 255
197 222 255
197 222 255
197 222 255
197 222 255
197 222 255
197 222 255
197 222 255
197 222 255
197 222 255
197 222 255
197 222 255
197 222 255
197 222 255
197 222 255
197 222 255
197 222 255
197 222 255
197 222 255
197 222 255
197 222 255
197 222 255
197 222 255
197 222 255
197 222 255
197 222 255
197 222 255
197 223 255
198 223 255
198 223 255
198 223 255
198 223 255
198 223 255
198 223 255
198 223 255
198 223 255
198 223 255
198 223 255
198 223 255
198 223 255
198 223 255
198 223 255
198 223 255
198 223 255
198 223 255
199 223 255
199 223 255
199 223 255
199 223 255
199 223 255
199 223 255
199 223 255
199 223 255
199 223 255
199 223 255
199 223 255
199 223 255
199 223 255
199 223 255
199 224 255
199 224 255
200 224 255
200 224 255
200 224 255
200 224 255
200 224 255
200 224 255
200 224 255
200 224 255
200 224 255
200 224 255
200 224 255
200 224 255
200 224 255
200 224 255
200 224 255
201 224 255
201 224 255
201 224 255
201 224 255
201 224 255
201 224 255
201 224 255
201 224 255
201 224 255
201 224 255
201 225 255
201 225 255
201 225 255
201 225 255
201 225 255
202 225 255
202 225 255
202 225 255
202 225 255
202 225 255
202 225 255
202 225 255
202 225 255
202 225 255
202 225 255
202 225 255
202 225 255
202 225 255
202 225 255
202 225 255
203 225 255
203 225 255
203 225 255
203 225 255
203 225 255
203 225 255
203 225 255
203 225 255
203 226 255
203 226 255
203 226 255
203 226 255
203 226 255
203 226 255
203 226 255
204 226 255
204 226 255
204 226 255
204 226 255
204 226 255
204 226 255
204 226 255
204 226 255
204 226 255
204 226 255
204 226 255
204 226 255
204 226 255
204 226 255
204 226 255
204 226 255
205 226 255
205 226 255
205 226 255
205 226 255
205 226 255
205 226 255
205 226 255
205 227 255
205 227 255
205 227 255
205 227 255
205 227 255
205 227 255
205 227 255
205 227 255
205 227 255
205 227 255
205 227 255
206 227 255
206 227 255
206 227 255
206 227 255
206 227 255
206 227 255
206 227 255
206 227 255
206 227 255
206 227 255
206 227 255
206 227 255
206 227 255
206 227 255
206 227 255
206 227 255
206 227 255
206 227 255
206 227 255
207 227 255
207 227 255
207 227 255
207 227 255
207 227 255
207 228 255
207 228 255
207 228 255
207 228 255
207 228 255
207 228 255
207 228 255
207 227 255
207 227 255
207 227 255
207 227 255
207 227 255
206 227 255
206 227 255
206 227 255
206 227 255
206 227 255
206 227 255
206 227 255
206 227 255
206 227 255
206 227 255
206 227 255
206 227 255
206 227 255
206 227 255
206 227 255
206 227 255
206 227 255
206 227 255
206 227 255
205 227 255
205 227 255
205 227 255
205 227 255
205 227 255
205 227 255
205 227 255
205 227 255
205 227 255
205 227 255
205 227 255
205 226 255
205 226 255
205 226 255
205 226 255
205 226 255
205 226 255
204 226 255
204 226 255
204 226 255
204 226 255
204 226 255
204 226 255
204 226 255
204 226 255
204 226 255
204 226 255
204 226 255
204 226 255
204 226 255
204 226 255
204 226 255
204 226 255
204 226 255
203 226 255
203 226 255
203 226 255
203 226 255
203 226 255
203 226 255
203 225 255
203 225 255
203 225 255
203 225 255
203 225 255
203 225 255
203 225 255
203 225 255
203 225 255
202 225 255
202 225 255
202 225 255
202 225 255
202 225 255
202 225 255
202 225 255
202 225 255
202 225 255
202 225 255
202 225 255
202 225 255
202 225 255
202 225 255
202 225 255
201 225 255
201 225 255
201 225 255
201 225 255
201 224 255
201 224 255
201 224 255
201 224 255
201 224 255
201 224 255
201 224 255
201 224 255
201 224 255
201 224 255
201 224 255
200 224 255
200 224 255
200 224 255
200 224 255
200 224 255
200 224 255
200 224 255
200 224 255
200 224 255
200 224 255
200 224 255
200 224 255
200 224 255
200 224 255
199 224 255
199 224 255
199 224 255
199 223 255
199 223 255
199 223 255
199 223 255
199 223 255
199 223 255
199 223 255
199 223 255
199 223 255
199 223 255
199 223 255
199 223 255
199 223 255
198 223 255
198 223 255
198 223 255
198 223 255
198 223 255
198 223 255
198 223 255
198 223 255
198 223 255
198 223 255
198 223 255
198 223 255
198 223 255
198 223 255
198 223 255
198 223 255
198 223 255
198 223 255
198 223 255
197 223 255
197 222 255
197 222 255
197 222 255
197 222 255
197 222 255
197 222 255
197 222 255
197 222 255
197 222 255
197 222 255
197 222 255
197 222 255
197 222 255
197 222 255
197 222 255
197 222 255
197 222 255
197 222 255
197 222 255
197 222 255
197 222 255
197 222 255
197 222 255
197 222 255
197 222 255
197 222 255
197 222 255
197 222 255
197 222 255
197 222 255
197 222 255
196 222 255
196 222 255
196 222 255
196 222 255
196 222 255
196 222 255
196 222 255
196 222 255
196 222 255
196 222 255
196 222 255
196 222 255
196 222 255
196 222 255
196 222 255
196 222 255
196 222 255
196 222 255
196 222 255
196 222 255
196 222 255
196 222 255
197 222 255
197 222 255
197 222 255
197 222 255
197 222 255
197 222 255
197 222 255
197 222 255
197 222 255
197 222 255
197 222 255
197 222 255
197 222 255
197 222 255
197 222 255
197 222 255
197 222 255
197 222 255
197 222 255
197 222 255
197 222 255
197 222 255
197 222 255
197 222 255
197 222 255
197 222 255
197 222 255
197 222 255
197 222 255
197 222 255
197 222 255
197 223 255
198 223 255
198 223 255
198 223 255
198 223 255
198 223 255
198 223 255
198 223 255
198 223 255
198 223 255
198 223 255
198 223 255
198 223 255
198 223 255
198 223 255
198 223 255
198 223 255
198 223 255
198 223 255
198 223 255
199 223 255
199 223 255
199 223 255
199 223 255
199 223 255
199 223 255
199 223 255
199 223 255
199 223 255
199 223 255
199 223 255
199 223 255
199 223 255
199 224 255
199 224 255
200 224 255
200 224 255
200 224 255
200 224 255
200 224 255
200 224 255
200 224 255
200 224 255
200 224 255
200 224 255
200 224 255
200 224 255
200 224 255
200 224 255
200 224 255
201 224 255
201 224 255
201 224 255
201 224 255
201 224 255
201 224 255
201 224 255
201 224 255
201 224 255
201 224 255
201 224 255
201 225 255
201 225 255
201 225 255
201 225 255
202 225 255
202 225 255
202 225 255
202 225 255
202 225 255
202 225 255
202 225 255
202 225 255
202 225 255
202 225 255
202 225 255
202 225 255
202 225 255
202 225 255
202 225 255
203 225 255
203 225 255
203 225 255
203 225 255
203 225 255
203 225 255
203 225 255
203 225 255
203 226 255
203 226 255
203 226 255
203 226 255
203 226 255
203 226 255
203 226 255
203 226 255
204 226 255
204 226 255
204 226 255
204 226 255
204 226 255
204 226 255
204 226 255
204 226 255
204 226 255
204 226 255
204 226 255
204 226 255
204 226 255
204 226 255
204 226 255
204 226 255
205 226 255
205 226 255
205 226 255
205 226 255
205 226 255
205 226 255
205 227 255
205 227 255
205 227 255
205 227 255
205 227 255
205 227 255
205 227 255
205 227 255
205 227 255
205 227 255
205 227 255
206 227 255
206 227 255
206 227 255
206 227 255
206 227 255
206 227 255
206 227 255
206 227 255
206 227 255
206 227 255
206 227 255
206 227 255
206 227 255
206 227 255
206 227 255
206 227 255
206 227 255
206 227 255
206 227 255
207 227 255
207 227 255
207 227 255
207 227 255
207 227 255
207 228 255
207 228 255
207 228 255
207 228 255
207 228 255
207 228 255
207 228 255
207 228 255
207 228 255
207 228 255
207 228 255
207 228 255
207 228 255
207 227 255
207 227 255
207 227 255
207 227 255
207 227 255
206 227 255
206 227 255
206 227 255
206 227 255
206 227 255
206 227 255
206 227 255
206 227 255
206 227 255
206 227 255
206 227 255
206 227 255
206 227 255
206 227 255
206 227 255
206 227 255
206 227 255
206 227 255
206 227 255
205 227 255
205 227 255
205 227 255
205 227 255
205 227 255
205 227 255
205 227 255
205 227 255
205 227 255
205 227 255
205 226 255
205 226 255
205 226 255
205 226 255
205 226 255
205 226 255
205 226 255
204 226 255
204 226 255
204 226 255
204 226 255
204 226 255
204 226 255
204 226 255
204 226 255
204 226 255
204 226 255
204 226 255
204 226 255
204 226 255
204 226 255
204 226 255
204 226 255
203 226 255
203 226 255
203 226 255
203 226 255
203 226 255
203 226 255
203 226 255
203 225 255
203 225 255
203 225 255
203 225 255
203 225 255
203 225 255
203 225 255
203 225 255
202 225 255
202 225 255
202 225 255
202 225 255
202 225 255
202 225 255
202 225 255
202 225 255
202 225 255
202 225 255
202 225 255
202 225 255
202 225 255
202 225 255
202 225 255
201 225 255
201 225 255
201 225 255
201 225 255
201 225 255
201 224 255
201 224 255
201 224 255
201 224 255
201 224 255
201 224 255
201 224 255
201 224 255
201 224 255
201 224 255
200 224 255
200 224 255
200 224 255
200 224 255
200 224 255
200 224 255
200 224 255
200 224 255
200 224 255
200 224 255
200 224 255
200 224 255
200 224 255
200 224 255
200 224 255
199 224 255
199 224 255
199 224 255
199 223 255
199 223 255
199 223 255
199 223 255
199 223 255
199 223 255
199 223 255
199 223 255
199 223 255
199 223 255
199 223 255
199 223 255
199 223 255
198 223 255
198 223 255
198 223 255
198 223 255
198 223 255
198 223 255
198 223 255
198 223 255
198 223 255
198 223 255
198 223 255
198 223 255
198 223 255
198 223 255
198 223 255
198 223 255
198 223 255
198 223 255
198 223 255
198 223 255
197 223 255
197 222 255
197 222 255
197 222 255
197 222 255
197 222 255
197 222 255
197 222 255
197 222 255
197 222 255
197 222 255
197 222 255
197 222 255
197 222 255
197 222 255
197 222 255
197 222 255
197 222 255
197 222 255
197 222 255
197 222 255
197 222 255
197 222 255
197 222 255
197 222 255
197 222 255
197 222 255
197 222 255
197 222 255
197 222 255
197 222 255
197 222 255
197 222 255
197 222 255
197 222 255
197 222 255
197 222 255
197 222 255
197 222 255
197 222 255
197 222 255
197 222 255
197 222 255
197 222 255
197 222 255
197 222 255
197 222 255
197 222 255
197 222 255
197 222 255
197 222 255
197 222 255
197 222 255
197 222 255
197 222 255
197 222 255
197 222 255
197 222 255
197 222 255
197 222 255
197 222 255
197 222 255
197 222 255
197 222 255
197 222 255
197 222 255
197 222 255
197 222 255
197 222 255
197 222 255
197 222 255
197 222 255
197 222 255
197 222 255
197 222 255
197 222 255
197 222 255
197 223 255
198 223 255
198 223 255
198 223 255
198 223 255
198 223 255
198 223 255
198 223 255
198 223 255
198 223 255
198 223 255
198 223 255
198 223 255
198 223 255
198 223 255
198 223 255
198 223 255
198 223 255
198 223 255
198 223 255
198 223 255
199 223 255
199 223 255
199 223 255
199 223 255
199 223 255
199 223 255
199 223 255
199 223 255
199 223 255
199 223 255
199 223 255
199 223 255
199 223 255
199 224 255
199 224 255
199 224 255
200 224 255
200 224 255
200 224 255
200 224 255
200 224 255
200 224 255
200 224 255
200 224 255
200 224 255
200 224 255
200 224 255
200 224 255
200 224 255
200 224 255
200 224 255
201 224 255
201 224 255
201 224 255
201 224 255
201 224 255
201 224 255
201 224 255
201 224 255
201 224 255
201 224 255
201 225 255
201 225 255
201 225 255
201 225 255
201 225 255
202 225 255
202 225 255
202 225 255
202 225 255
202 225 255
202 225 255
202 225 255
202 225 255
202 225 255
202 225 255
202 225 255
202 225 255
202 225 255
202 225 255
202 225 255
203 225 255
203 225 255
203 225 255
203 225 255
203 225 255
203 225 255
203 225 255
203 225 255
203 226 255
203 226 255
203 226 255
203 226 255
203 226 255
203 226 255
203 226 255
204 226 255
204 226 255
204 226 255
204 226 255
204 226 255
204 226 255
204 226 255
204 226 255
204 226 255
204 226 255
204 226 255
204 226 255
204 226 255
204 226 255
204 226 255
204 226 255
205 226 255
205 226 255
205 226 255
205 226 255
205 226 255
205 226 255
205 226 255
205 227 255
205 227 255
205 227 255
205 227 255
205 227 255
205 227 255
205 227 255
205 227 255
205 227 255
205 227 255
206 227 255
206 227 255
206 227 255
206 227 255
206 227 255
206 227 255
206 227 255
206 227 255
206 227 255
206 227 255
206 227 255
206 227 255
206 227 255
206 227 255
206 227 255
206 227 255
206 227 255
206 227 255
206 227 255
207 227 255
207 227 255
207 227 255
207 227 255
207 227 255
207 228 255
207 228 255
207 228 255
207 228 255
207 228 255
207 228 255
207 228 255
207 228 255
207 228 255
207 228 255
207 228 255
207 228 255
207 228 255
207 228 255
207 228 255
207 228 255
207 228 255
207 228 255
207 228 255
207 227 255
207 227 255
207 227 255
207 227 255
207 227 255
206 227 255
206 227 255
206 227 255
206 227 255
206 227 255
206 227 255
206 227 255
206 227 255
206 227 255
206 227 255
206 227 255
206 227 255
206 227 255
206 227 255
206 227 255
206 227 255
206 227 255
206 227 255
205 227 255
205 227 255
205 227 255
205 227 255
205 227 255
205 227 255
205 227 255
205 227 255
205 227 255
205 227 255
205 227 255
205 226 255
205 226 255
205 226 255
205 226 255
205 226 255
205 226 255
205 226 255
204 226 255
204 226 255
204 226 255
204 226 255
204 226 255
204 226 255
204 226 255
204 226 255
204 226 255
204 226 255
204 226 255
204 226 255
204 226 255
204 226 255
204 226 255
204 226 255
203 226 255
203 226 255
203 226 255
203 226 255
203 226 255
203 226 255
203 225 255
203 225 255
203 225 255
203 225 255
203 225 255
203 225 255
203 225 255
203 225 255
203 225 255
202 225 255
202 225 255
202 225 255
202 225 255
202 225 255
202 225 255
202 225 255
202 225 255
202 225 255
202 225 255
202 225 255
202 225 255
202 225 255
202 225 255
202 225 255
201 225 255
201 225 255
201 225 255
201 225 255
201 224 255
201 224 255
201 224 255
201 224 255
201 224 255
201 224 255
201 224 255
201 224 255
201 224 255
201 224 255
201 224 255
200 224 255
200 224 255
200 224 255
200 224 255
200 224 255
200 224 255
200 224 255
200 224 255
200 224 255
200 224 255
200 224 255
200 224 255
200 224 255
200 224 255
200 224 255
199 224 255
199 224 255
199 223 255
199 223 255
199 223 255
199 223 255
199 223 255
199 223 255
199 223 255
199 223 255
199 223 255
199 223 255
199 223 255
199 223 255
199 223 255
199 223 255
199 223 255
198 223 255
198 223 255
198 223 255
198 223 255
198 223 255
198 223 255
198 223 255
198 223 255
198 223 255
198 223 255
198 223 255
198 223 255
198 223 255
198 223 255
198 223 255
198 223 255
198 223 255
198 223 255
198 223 255
198 223 255
197 223 255
197 222 255
197 222 255
197 222 255
197 222 255
197 222 255
197 222 255
197 222 255
197 222 255
197 222 255
197 222 255
197 222 255
197 222 255
197 222 255
197 222 255
197 222 255
197 222 255
197 222 255
197 222 255
197 222 255
197 222 255
197 222 255
197 222 255
197 222 255
197 222 255
197 222 255
197 222 255
197 222 255
197 222 255
197 222 255
197 222 255
197 222 255
197 222 255
197 222 255
197 222 255
197 222 255
197 222 255
197 222 255
197 222 255
197 222 255
197 222 255
197 222 255
197 222 255
197 222 255
197 222 255
197 222 255
197 222 255
197 222 255
197 222 255
197 222 255
197 222 255
197 222 255
197 222 255
197 222 255
197 222 255
197 222 255
197 222 255
197 222 255
197 222 255
197 222 255
197 222 255
197 222 255
197 222 255
197 222 255
197 222 255
197 222 255
197 222 255
197 222 255
197 222 255
197 223 255
198 223 255
198 223 255
198 223 255
198 223 255
198 223 255
198 223 255
198 223 255
198 223 255
198 223 255
198 223 255
198 223 255
198 223 255
198 223 255
198 223 255
198 223 255
198 223 255
198 223 255
198 223 255
198 223 255
198 223 255
198 223 255
199 223 255
199 223 255
199 223 255
199 223 255
199 223 255
199 223 255
199 223 255
199 223 255
199 223 255
199 223 255
199 223 255
199 223 255
199 223 255
199 223 255
199 224 255
199 224 255
200 224 255
200 224 255
200 224 255
200 224 255
200 224 255
200 224 255
200 224 255
200 224 255
200 224 255
200 224 255
200 224 255
200 224 255
200 224 255
200 224 255
200 224 255
200 224 255
201 224 255
201 224 255
201 224 255
201 224 255
201 224 255
201 224 255
201 224 255
201 224 255
201 224 255
201 224 255
201 225 255
201 225 255
201 225 255
201 225 255
202 225 255
202 225 255
202 225 255
202 225 255
202 225 255
202 225 255
202 225 255
202 225 255
202 225 255
202 225 255
202 225 255
202 225 255
202 225 255
202 225 255
202 225 255
203 225 255
203 225 255
203 225 255
203 225 255
203 225 255
203 225 255
203 225 255
203 225 255
203 225 255
203 226 255
203 226 255
203 226 255
203 226 255
203 226 255
203 226 255
204 226 255
204 226 255
204 226 255
204 226 255
204 226 255
204 226 255
204 226 255
204 226 255
204 226 255
204 226 255
204 226 255
204 226 255
204 226 255
204 226 255
204 226 255
204 226 255
205 226 255
205 226 255
205 226 255
205 226 255
205 226 255
205 226 255
205 226 255
205 227 255
205 227 255
205 227 255
205 227 255
205 227 255
205 227 255
205 227 255
205 227 255
205 227 255
205 227 255
205 227 255
206 227 255
206 227 255
206 227 255
206 227 255
206 227 255
206 227 255
206 227 255
206 227 255
206 227 255
206 227 255
206 227 255
206 227 255
206 227 255
206 227 255
206 227 255
206 227 255
206 227 255
206 227 255
207 227 255
207 227 255
207 227 255
207 227 255
207 227 255
207 228 255
207 228 255
207 228 255
207 228 255
207 228 255
207 228 255
207 228 255
207 228 255
207 228 255
207 228 255
207 228 255
207 228 255
207 228 255
207 228 255
207 228 255
207 228 255
207 228 255
207 228 255
207 228 255
207 228 255
207 228 255
207 228 255
207 228 255
207 228 255
207 228 255
207 227 255
207 227 255
207 227 255
207 227 255
207 227 255
206 227 255
206 227 255
206 227 255
206 227 255
206 227 255
206 227 255
206 227 255
206 227 255
206 227 255
206 227 255
206 227 255
206 227 255
206 227 255
206 227 255
206 227 255
206 227 255
206 227 255
206 227 255
205 227 255
205 227 255
205 227 255
205 227 255
205 227 255
205 227 255
205 227 255
205 227 255
205 227 255
205 227 255
205 226 255
205 226 255
205 226 255
205 226 255
205 226 255
205 226 255
205 226 255
204 226 255
204 226 255
204 226 255
204 226 255
204 226 255
204 226 255
204 226 255
204 226 255
204 226 255
204 226 255
204 226 255
204 226 255
204 226 255
204 226 255
204 226 255
204 226 255
203 226 255
203 226 255
203 226 255
203 226 255
203 226 255
203 226 255
203 226 255
203 225 255
203 225 255
203 225 255
203 225 255
203 225 255
203 225 255
203 225 255
203 225 255
203 225 255
202 225 255
202 225 255
202 225 255
202 225 255
202 225 255
202 225 255
202 225 255
202 225 255
202 225 255
202 225 255
202 225 255
202 225 255
202 225 255
202 225 255
201 225 255
201 225 255
201 225 255
201 225 255
201 225 255
201 224 255
201 224 255
201 224 255
201 224 255
201 224 255
201 224 255
201 224 255
201 224 255
201 224 255
201 224 255
200 224 255
200 224 255
200 224 255
200 224 255
200 224 255
200 224 255
200 224 255
200 224 255
200 224 255
200 224 255
200 224 255
200 224 255
200 224 255
200 224 255
200 224 255
200 224 255
199 224 255
199 224 255
199 223 255
199 223 255
199 223 255
199 223 255
199 223 255
199 223 255
199 223 255
199 223 255
199 223 255
199 223 255
199 223 255
199 223 255
199 223 255
199 223 255
199 223 255
198 223 255
198 223 255
198 223 255
198 223 255
198 223 255
198 223 255
198 223 255
198 223 255
198 223 255
198 223 255
198 223 255
198 223 255
198 223 255
198 223 255
198 223 255
198 223 255
198 223 255
198 223 255
198 223 255
198 223 255
198 223 255
198 223 255
197 223 255
197 222 255
197 222 255
197 222 255
197 222 255
197 222 255
197 222 255
197 222 255
197 222 255
197 222 255
197 222 255
197 222 255
197 222 255
197 222 255
197 222 255
197 222 255
197 222 255
197 222 255
197 222 255
197 222 255
197 222 255
197 222 255
197 222 255
197 222 255
197 222 255
197 222 255
197 222 255
197 222 255
197 222 255
197 222 255
197 222 255
197 222 255
197 222 255
197 222 255
197 222 255
197 222 255
197 222 255
197 222 255
197 222 255
197 222 255
197 222 255
197 222 255
197 222 255
197 222 255
197 222 255
197 222 255
197 222 255
197 222 255
197 222 255
197 222 255
197 222 255
197 222 255
197 222 255
197 222 255
197 222 255
197 222 255
197 222 255
197 222 255
197 222 255
197 223 255
198 223 255
198 223 255
198 223 255
198 223 255
198 223 255
198 223 255
198 223 255
198 223 255
198 223 255
198 223 255
198 223 255
198 223 255
198 223 255
198 223 255
198 223 255
198 223 255
198 223 255
198 223 255
198 223 255
198 223 255
198 223 255
198 223 255
199 223 255
199 223 255
199 223 255
199 223 255
199 223 255
199 223 255
199 223 255
199 223 255
199 223 255
199 223 255
199 223 255
199 223 255
199 223 255
199 223 255
199 223 255
199 224 255
199 224 255
200 224 255
200 224 255
200 224 255
200 224 255
200 224 255
200 224 255
200 224 255
200 224 255
200 224 255
200 224 255
200 224 255
200 224 255
200 224 255
200 224 255
200 224 255
200 224 255
201 224 255
201 224 255
201 224 255
201 224 255
201 224 255
201 224 255
201 224 255
201 224 255
201 224 255
201 224 255
201 225 255
201 225 255
201 225 255
201 225 255
201 225 255
202 225 255
202 225 255
202 225 255
202 225 255
202 225 255
202 225 255
202 225 255
202 225 255
202 225 255
202 225 255
202 225 255
202 225 255
202 225 255
202 225 255
202 225 255
203 225 255
203 225 255
203 225 255
203 225 255
203 225 255
203 225 255
203 225 255
203 225 255
203 226 255
203 226 255
203 226 255
203 226 255
203 226 255
203 226 255
203 226 255
204 226 255
204 226 255
204 226 255
204 226 255
204 226 255
204 226 255
204 226 255
204 226 255
204 226 255
204 226 255
204 226 255
204 226 255
204 226 255
204 226 255
204 226 255
204 226 255
205 226 255
205 226 255
205 226 255
205 226 255
205 226 255
205 226 255
205 226 255
205 227 255
205 227 255
205 227 255
205 227 255
205 227 255
205 227 255
205 227 255
205 227 255
205 227 255
205 227 255
206 227 255
206 227 255
206 227 255
206 227 255
206 227 255
206 227 255
206 227 255
206 227 255
206 227 255
206 227 255
206 227 255
206 227 255
206 227 255
206 227 255
206 227 255
206 227 255
206 227 255
206 227 255
206 227 255
207 227 255
207 227 255
207 227 255
207 227 255
207 228 255
207 228 255
207 228 255
207 228 255
207 228 255
207 228 255
207 228 255
207 228 255
207 228 255
207 228 255
207 228 255
207 228 255
207 228 255
207 228 255
208 228 255
207 228 255
207 228 255
207 228 255
207 228 255
207 228 255
207 228 255
207 228 255
207 228 255
207 228 255
207 228 255
207 228 255
207 228 255
207 228 255
207 228 255
207 228 255
207 227 255
207 227 255
207 227 255
207 227 255
207 227 255
206 227 255
206 227 255
206 227 255
206 227 255
206 227 255
206 227 255
206 227 255
206 227 255
206 227 255
206 227 255
206 227 255
206 227 255
206 227 255
206 227 255
206 227 255
206 227 255
206 227 255
206 227 255
206 227 255
205 227 255
205 227 255
205 227 255
205 227 255
205 227 255
205 227 255
205 227 255
205 227 255
205 227 255
205 227 255
205 226 255
205 226 255
205 226 255
205 226 255
205 226 255
205 226 255
205 226 255
204 226 255
204 226 255
204 226 255
204 226 255
204 226 255
204 226 255
204 226 255
204 226 255
204 226 255
204 226 255
204 226 255
204 226 255
204 226 255
204 226 255
204 226 255
204 226 255
203 226 255
203 226 255
203 226 255
203 226 255
203 226 255
203 226 255
203 225 255
203 225 255
203 225 255
203 225 255
203 225 255
203 225 255
203 225 255
203 225 255
203 225 255
202 225 255
202 225 255
202 225 255
202 225 255
202 225 255
202 225 255
202 225 255
202 225 255
202 225 255
202 225 255
202 225 255
202 225 255
202 225 255
202 225 255
202 225 255
201 225 255
201 225 255
201 225 255
201 225 255
201 224 255
201 224 255
201 224 255
201 224 255
201 224 255
201 224 255
201 224 255
201 224 255
201 224 255
201 224 255
201 224 255
200 224 255
200 224 255
200 224 255
200 224 255
200 224 255
200 224 255
200 224 255
200 224 255
200 224 255
200 224 255
200 224 255
200 224 255
200 224 255
200 224 255
200 224 255
199 224 255
199 224 255
199 224 255
199 223 255
199 223 255
199 223 255
199 223 255
199 223 255
199 223 255
199 223 255
199 223 255
199 223 255
199 223 255
199 223 255
199 223 255
199 223 255
199 223 255
199 223 255
198 223 255
198 223 255
198 223 255
198 223 255
198 223 255
198 223 255
198 223 255
198 223 255
198 223 255
198 223 255
198 223 255
198 223 255
198 223 255
198 223 255
198 223 255
198 223 255
198 223 255
198 223 255
198 223 255
198 223 255
198 223 255
198 223 255
198 223 255
198 223 255
197 223 255
197 223 255
197 222 255
197 222 255
197 222 255
197 222 255
197 222 255
197 222 255
197 222 255
197 222 255
197 222 255
197 222 255
197 222 255
197 222 255
197 222 255
197 222 255
197 222 255
197 222 255
197 222 255
197 222 255
197 222 255
197 222 255
197 222 255
197 222 255
197 222 255
197 222 255
197 222 255
197 222 255
197 222 255
197 222 255
197 222 255
197 222 255
197 222 255
197 222 255
197 222 255
197 222 255
197 222 255
197 222 255
197 222 255
197 222 255
197 222 255
197 222 255
197 222 255
197 222 255
197 222 255
197 222 255
197 222 255
197 222 255
197 222 255
198 223 255
198 223 255
198 223 255
198 223 255
198 223 255
198 223 255
198 223 255
198 223 255
198 223 255
198 223 255
198 223 255
198 223 255
198 223 255
198 223 255
198 223 255
198 223 255
198 223 255
198 223 255
198 223 255
198 223 255
198 223 255
198 223 255
198 223 255
198 223 255
198 223 255
199 223 255
199 223 255
199 223 255
199 223 255
199 223 255
199 223 255
199 223 255
199 223 255
199 223 255
199 223 255
199 223 255
199 223 255
199 223 255
199 223 255
199 223 255
199 224 255
199 224 255
200 224 255
200 224 255
200 224 255
200 224 255
200 224 255
200 224 255
200 224 255
200 224 255
200 224 255
200 224 255
200 224 255
200 224 255
200 224 255
200 224 255
200 224 255
200 224 255
201 224 255
201 224 255
201 224 255
201 224 255
201 224 255
201 224 255
201 224 255
201 224 255
201 224 255
201 224 255
201 224 255
201 225 255
201 225 255
201 225 255
201 225 255
202 225 255
202 225 255
202 225 255
202 225 255
202 225 255
202 225 255
202 225 255
202 225 255
202 225 255
202 225 255
202 225 255
202 225 255
202 225 255
202 225 255
202 225 255
203 225 255
203 225 255
203 225 255
203 225 255
203 225 255
203 225 255
203 225 255
203 225 255
203 226 255
203 226 255
203 226 255
203 226 255
203 226 255
203 226 255
203 226 255
204 226 255
204 226 255
204 226 255
204 226 255
204 226 255
204 226 255
204 226 255
204 226 255
204 226 255
204 226 255
204 226 255
204 226 255
204 226 255
204 226 255
204 226 255
204 226 255
205 226 255
205 226 255
205 226 255
205 226 255
205 226 255
205 226 255
205 226 255
205 227 255
205 227 255
205 227 255
205 227 255
205 227 255
205 227 255
205 227 255
205 227 255
205 227 255
205 227 255
206 227 255
206 227 255
206 227 255
206 227 255
206 227 255
206 227 255
206 227 255
206 227 255
206 227 255
206 227 255
206 227 255
206 227 255
206 227 255
206 227 255
206 227 255
206 227 255
206 227 255
206 227 255
206 227 255
207 227 255
207 227 255
207 227 255
207 227 255
207 228 255
207 228 255
207 228 255
207 228 255
207 228 255
207 228 255
207 228 255
207 228 255
207 228 255
207 228 255
207 228 255
207 228 255
207 228 255
207 228 255
207 228 255
207 228 255
208 228 255
208 228 255
208 228 255
208 228 255
208 228 255
207 228 255
207 228 255
207 228 255
207 228 255
207 228 255
207 228 255
207 228 255
207 228 255
207 228 255
207 228 255
207 228 255
207 228 255
207 228 255
207 228 255
207 228 255
207 228 255
207 227 255
207 227 255
207 227 255
207 227 255
206 227 255
206 227 255
206 227 255
206 227 255
206 227 255
206 227 255
206 227 255
206 227 255
206 227 255
206 227 255
206 227 255
206 227 255
206 227 255
206 227 255
206 227 255
206 227 255
206 227 255
206 227 255
205 227 255
205 227 255
205 227 255
205 227 255
205 227 255
205 227 255
205 227 255
205 227 255
205 227 255
205 227 255
205 227 255
205 226 255
205 226 255
205 226 255
205 226 255
205 226 255
205 226 255
204 226 255
204 226 255
204 226 255
204 226 255
204 226 255
204 226 255
204 226 255
204 226 255
204 226 255
204 226 255
204 226 255
204 226 255
204 226 255
204 226 255
204 226 255
204 226 255
203 226 255
203 226 255
203 226 255
203 226 255
203 226 255
203 226 255
203 226 255
203 225 255
203 225 255
203 225 255
203 225 255
203 225 255
203 225 255
203 225 255
203 225 255
203 225 255
202 225 255
202 225 255
202 225 255
202 225 255
202 225 255
202 225 255
202 225 255
202 225 255
202 225 255
202 225 255
202 225 255
202 225 255
202 225 255
202 225 255
202 225 255
201 225 255
201 225 255
201 225 255
201 225 255
201 224 255
201 224 255
201 224 255
201 224 255
201 224 255
201 224 255
201 224 255
201 224 255
201 224 255
201 224 255
201 224 255
200 224 255
200 224 255
200 224 255
200 224 255
200 224 255
200 224 255
200 224 255
200 224 255
200 224 255
200 224 255
200 224 255
200 224 255
200 224 255
200 224 255
200 224 255
199 224 255
199 224 255
199 224 255
199 223 255
199 223 255
199 223 255
199 223 255
199 223 255
199 223 255
199 223 255
199 223 255
199 223 255
199 223 255
199 223 255
199 223 255
199 223 255
199 223 255
199 223 255
199 223 255
198 223 255
198 223 255
198 223 255
198 223 255
198 223 255
198 223 255
198 223 255
198 223 255
198 223 255
198 223 255
198 223 255
198 223 255
198 223 255
198 223 255
198 223 255
198 223 255
198 223 255
198 223 255
198 223 255
198 223 255
198 223 255
198 223 255
198 223 255
198 223 255
198 223 255
198 223 255
198 223 255
198 223 255
197 223 255
197 222 255
197 222 255
197 222 255
197 222 255
197 222 255
197 222 255
197 222 255
197 222 255
197 222 255
197 222 255
197 222 255
197 222 255
197 222 255
197 222 255
197 222 255
197 222 255
197 222 255
197 222 255
197 222 255
197 222 255
197 222 255
197 222 255
197 222 255
197 222 255
197 222 255
197 222 255
197 222 255
197 222 255
197 222 255
197 222 255
197 222 255
197 222 255
197 223 255
198 223 255
198 223 255
198 223 255
198 223 255
198 223 255
198 223 255
198 223 255
198 223 255
198 223 255
198 223 255
198 223 255
198 223 255
198 223 255
198 223 255
198 223 255
198 223 255
198 223 255
198 223 255
198 223 255
198 223 255
198 223 255
198 223 255
198 223 255
198 223 255
198 223 255
198 223 255
198 223 255
198 223 255
199 223 255
199 223 255
199 223 255
199 223 255
199 223 255
199 223 255
199 223 255
199 223 255
199 223 255
199 223 255
199 223 255
199 223 255
199 223 255
199 223 255
199 223 255
199 223 255
199 224 255
199 224 255
200 224 255
200 224 255
200 224 255
200 224 255
200 224 255
200 224 255
200 224 255
200 224 255
200 224 255
200 224 255
200 224 255
200 224 255
200 224 255
200 224 255
200 224 255
200 224 255
201 224 255
201 224 255
201 224 255
201 224 255
201 224 255
201 224 255
201 224 255
201 224 255
201 224 255
201 224 255
201 224 255
201 225 255
201 225 255
201 225 255
201 225 255
201 225 255
202 225 255
202 225 255
202 225 255
202 225 255
202 225 255
202 225 255
202 225 255
202 225 255
202 225 255
202 225 255
202 225 255
202 225 255
202 225 255
202 225 255
202 225 255
203 225 255
203 225 255
203 225 255
203 225 255
203 225 255
203 225 255
203 225 255
203 225 255
203 226 255
203 226 255
203 226 255
203 226 255
203 226 255
203 226 255
203 226 255
204 226 255
204 226 255
204 226 255
204 226 255
204 226 255
204 226 255
204 226 255
204 226 255
204 226 255
204 226 255
204 226 255
204 226 255
204 226 255
204 226 255
204 226 255
205 226 255
205 226 255
205 226 255
205 226 255
205 226 255
205 226 255
205 226 255
205 227 255
205 227 255
205 227 255
205 227 255
205 227 255
205 227 255
205 227 255
205 227 255
205 227 255
205 227 255
206 227 255
206 227 255
206 227 255
206 227 255
206 227 255
206 227 255
206 227 255
206 227 255
206 227 255
206 227 255
206 227 255
206 227 255
206 227 255
206 227 255
206 227 255
206 227 255
206 227 255
206 227 255
206 227 255
207 227 255
207 227 255
207 227 255
207 227 255
207 228 255
207 228 255
207 228 255
207 228 255
207 228 255
207 228 255
207 228 255
207 228 255
207 228 255
207 228 255
207 228 255
207 228 255
207 228 255
207 228 255
207 228 255
207 228 255
208 228 255
208 228 255
208 228 255
208 228 255
208 228 255
208 228 255
208 228 255
208 228 255
208 228 255
208 228 255
208 228 255
207 228 255
207 228 255
207 228 255
207 228 255
207 228 255
207 228 255
207 228 255
207 228 255
207 228 255
207 228 255
207 228 255
207 228 255
207 228 255
207 228 255
207 228 255
207 227 255
207 227 255
207 227 255
207 227 255
207 227 255
206 227 255
206 227 255
206 227 255
206 227 255
206 227 255
206 227 255
206 227 255
206 227 255
206 227 255
206 227 255
206 227 255
206 227 255
206 227 255
206 227 255
206 227 255
206 227 255
206 227 255
206 227 255
205 227 255
205 227 255
205 227 255
205 227 255
205 227 255
205 227 255
205 227 255
205 227 255
205 227 255
205 227 255
205 226 255
205 226 255
205 226 255
205 226 255
205 226 255
205 226 255
205 226 255
204 226 255
204 226 255
204 226 255
204 226 255
204 226 255
204 226 255
204 226 255
204 226 255
204 226 255
204 226 255
204 226 255
204 226 255
204 226 255
204 226 255
204 226 255
204 226 255
203 226 255
203 226 255
203 226 255
203 226 255
203 226 255
203 226 255
203 226 255
203 225 255
203 225 255
203 225 255
203 225 255
203 225 255
203 225 255
203 225 255
203 225 255
202 225 255
202 225 255
202 225 255
202 225 255
202 225 255
202 225 255
202 225 255
202 225 255
202 225 255
202 225 255
202 225 255
202 225 255
202 225 255
202 225 255
202 225 255
201 225 255
201 225 255
201 225 255
201 225 255
201 225 255
201 224 255
201 224 255
201 224 255
201 224 255
201 224 255
201 224 255
201 224 255
201 224 255
201 224 255
201 224 255
200 224 255
200 224 255
200 224 255
200 224 255
200 224 255
200 224 255
200 224 255
200 224 255
200 224 255
200 224 255
200 224 255
200 224 255
200 224 255
200 224 255
200 224 255
200 224 255
200 224 255
199 224 255
199 224 255
199 224 255
199 223 255
199 223 255
199 223 255
199 223 255
199 223 255
199 223 255
199 223 255
199 223 255
199 223 255
199 223 255
199 223 255
199 223 255
199 223 255
199 223 255
199 223 255
199 223 255
198 223 255
198 223 255
198 223 255
198 223 255
198 223 255
198 223 255
198 223 255
198 223 255
198 223 255
198 223 255
198 223 255
198 223 255
198 223 255
198 223 255
198 223 255
198 223 255
198 223 255
198 223 255
198 223 255
198 223 255
198 223 255
198 223 255
198 223 255
198 223 255
198 223 255
198 223 255
198 223 255
198 223 255
198 223 255
198 223 255
198 223 255
198 223 255
198 223 255
198 223 255
198 223 255
198 223 255
198 223 255
198 223 255
198 223 255
197 223 255
198 223 255
197 223 255
197 223 255
198 223 255
198 223 255
198 223 255
198 223 255
198 223 255
198 223 255
198 223 255
198 223 255
198 223 255
198 223 255
198 223 255
198 223 255
198 223 255
198 223 255
198 223 255
198 223 255
198 223 255
198 223 255
198 223 255
198 223 255
198 223 255
198 223 255
198 223 255
198 223 255
198 223 255
198 223 255
198 223 255
198 223 255
198 223 255
198 223 255
198 223 255
198 223 255
198 223 255
198 223 255
198 223 255
198 223 255
198 223 255
198 223 255
198 223 255
199 223 255
199 223 255
199 223 255
199 223 255
199 223 255
199 223 255
199 223 255
199 223 255
199 223 255
199 223 255
199 223 255
199 223 255
199 223 255
199 223 255
199 223 255
199 223 255
199 223 255
199 224 255
199 224 255
199 224 255
200 224 255
200 224 255
200 224 255
200 224 255
200 224 255
200 224 255
200 224 255
200 224 255
200 224 255
200 224 255
200 224 255
200 224 255
200 224 255
200 224 255
200 224 255
200 224 255
201 224 255
201 224 255
201 224 255
201 224 255
201 224 255
201 224 255
201 224 255
201 224 255
201 224 255
201 224 255
201 225 255
201 225 255
201 225 255
201 225 255
201 225 255
202 225 255
202 225 255
202 225 255
202 225 255
202 225 255
202 225 255
202 225 255
202 225 255
202 225 255
202 225 255
202 225 255
202 225 255
202 225 255
202 225 255
202 225 255
203 225 255
203 225 255
203 225 255
203 225 255
203 225 255
203 225 255
203 225 255
203 225 255
203 226 255
203 226 255
203 226 255
203 226 255
203 226 255
203 226 255
203 226 255
204 226 255
204 226 255
204 226 255
204 226 255
204 226 255
204 226 255
204 226 255
204 226 255
204 226 255
204 226 255
204 226 255
204 226 255
204 226 255
204 226 255
204 226 255
204 226 255
205 226 255
205 226 255
205 226 255
205 226 255
205 226 255
205 226 255
205 226 255
205 227 255
205 227 255
205 227 255
205 227 255
205 227 255
205 227 255
205 227 255
205 227 255
205 227 255
205 227 255
206 227 255
206 227 255
206 227 255
206 227 255
206 227 255
206 227 255
206 227 255
206 227 255
206 227 255
206 227 255
206 227 255
206 227 255
206 227 255
206 227 255
206 227 255
206 227 255
206 227 255
206 227 255
207 227 255
207 227 255
207 227 255
207 227 255
207 227 255
207 228 255
207 228 255
207 228 255
207 228 255
207 228 255
207 228 255
207 228 255
207 228 255
207 228 255
207 228 255
207 228 255
207 228 255
207 228 255
207 228 255
207 228 255
208 228 255
208 228 255
208 228 255
208 228 255
208 228 255
208 228 255
208 228 255
208 228 255
208 228 255
208 228 255
208 228 255
208 228 255
208 228 255
208 228 255
208 228 255
208 228 255
208 228 255
207 228 255
207 228 255
207 228 255
207 228 255
207 228 255
207 228 255
207 228 255
207 228 255
207 228 255
207 228 255
207 228 255
207 228 255
207 228 255
207 228 255
207 228 255
207 227 255
207 227 255
207 227 255
207 227 255
207 227 255
206 227 255
206 227 255
206 227 255
206 227 255
206 227 255
206 227 255
206 227 255
206 227 255
206 227 255
206 227 255
206 227 255
206 227 255
206 227 255
206 227 255
206 227 255
206 227 255
206 227 255
206 227 255
205 227 255
205 227 255
205 227 255
205 227 255
205 227 255
205 227 255
205 227 255
205 227 255
205 227 255
205 227 255
205 226 255
205 226 255
205 226 255
205 226 255
205 226 255
205 226 255
205 226 255
204 226 255
204 226 255
204 226 255
204 226 255
204 226 255
204 226 255
204 226 255
204 226 255
204 226 255
204 226 255
204 226 255
204 226 255
204 226 255
204 226 255
204 226 255
203 226 255
203 226 255
203 226 255
203 226 255
203 226 255
203 226 255
203 226 255
203 225 255
203 225 255
203 225 255
203 225 255
203 225 255
203 225 255
203 225 255
203 225 255
203 225 255
202 225 255
202 225 255
202 225 255
202 225 255
202 225 255
202 225 255
202 225 255
202 225 255
202 225 255
202 225 255
202 225 255
202 225 255
202 225 255
202 225 255
202 225 255
201 225 255
201 225 255
201 225 255
201 225 255
201 224 255
201 224 255
201 224 255
201 224 255
201 224 255
201 224 255
201 224 255
201 224 255
201 224 255
201 224 255
201 224 255
200 224 255
200 224 255
200 224 255
200 224 255
200 224 255
200 224 255
200 224 255
200 224 255
200 224 255
200 224 255
200 224 255
200 224 255
200 224 255
200 224 255
200 224 255
200 224 255
200 224 255
199 224 255
199 224 255
199 224 255
199 223 255
199 223 255
199 223 255
199 223 255
199 223 255
199 223 255
199 223 255
199 223 255
199 223 255
199 223 255
199 223 255
199 223 255
199 223 255
199 223 255
199 223 255
199 223 255
199 223 255
198 223 255
198 223 255
198 223 255
198 223 255
198 223 255
198 223 255
198 223 255
198 223 255
198 223 255
198 223 255
198 223 255
198 223 255
198 223 255
198 223 255
198 223 255
198 223 255
198 223 255
198 223 255
198 223 255
198 223 255
198 223 255
198 223 255
198 223 255
198 223 255
198 223 255
198 223 255
198 223 255
198 223 255
198 223 255
198 223 255
198 223 255
198 223 255
198 223 255
198 223 255
198 223 255
198 223 255
198 223 255
198 223 255
198 223 255
198 223 255
198 223 255
198 223 255
198 223 255
198 223 255
198 223 255
198 223 255
198 223 255
198 223 255
198 223 255
198 223 255
198 223 255
198 223 255
198 223 255
198 223 255
198 223 255
198 223 255
198 223 255
198 223 255
198 223 255
198 223 255
198 223 255
198 223 255
198 223 255
198 223 255
198 223 255
198 223 255
198 223 255
198 223 255
198 223 255
198 223 255
198 223 255
198 223 255
198 223 255
198 223 255
199 223 255
199 223 255
199 223 255
199 223 255
199 223 255
199 223 255
199 223 255
199 223 255
199 223 255
199 223 255
199 223 255
199 223 255
199 223 255
199 223 255
199 223 255
199 223 255
199 223 255
199 224 255
199 224 255
199 224 255
200 224 255
200 224 255
200 224 255
200 224 255
200 224 255
200 224 255
200 224 255
200 224 255
200 224 255
200 224 255
200 224 255
200 224 255
200 224 255
200 224 255
200 224 255
200 224 255
200 224 255
201 224 255
201 224 255
201 224 255
201 224 255
201 224 255
201 224 255
201 224 255
201 224 255
201 224 255
201 224 255
201 224 255
201 225 255
201 225 255
201 225 255
201 225 255
202 225 255
202 225 255
202 225 255
202 225 255
202 225 255
202 225 255
202 225 255
202 225 255
202 225 255
202 225 255
202 225 255
202 225 255
202 225 255
202 225 255
202 225 255
203 225 255
203 225 255
203 225 255
203 225 255
203 225 255
203 225 255
203 225 255
203 225 255
203 225 255
203 226 255
203 226 255
203 226 255
203 226 255
203 226 255
203 226 255
204 226 255
204 226 255
204 226 255
204 226 255
204 226 255
204 226 255
204 226 255
204 226 255
204 226 255
204 226 255
204 226 255
204 226 255
204 226 255
204 226 255
204 226 255
204 226 255
205 226 255
205 226 255
205 226 255
205 226 255
205 226 255
205 226 255
205 226 255
205 227 255
205 227 255
205 227 255
205 227 255
205 227 255
205 227 255
205 227 255
205 227 255
205 227 255
205 227 255
206 227 255
206 227 255
206 227 255
206 227 255
206 227 255
206 227 255
206 227 255
206 227 255
206 227 255
206 227 255
206 227 255
206 227 255
206 227 255
206 227 255
206 227 255
206 227 255
206 227 255
206 227 255
207 227 255
207 227 255
207 227 255
207 227 255
207 227 255
207 228 255
207 228 255
207 228 255
207 228 255
207 228 255
207 228 255
207 228 255
207 228 255
207 228 255
207 228 255
207 228 255
207 228 255
207 228 255
207 228 255
207 228 255
208 228 255
208 228 255
208 228 255
208 228 255
208 228 255
208 228 255
208 228 255
208 228 255
208 228 255
208 228 255
208 228 255
208 228 255
208 228 255
208 228 255
208 228 255
208 228 255
208 228 255
208 228 255
208 228 255
208 228 255
208 228 255
208 228 255
208 228 255
207 228 255
207 228 255
207 228 255
207 228 255
207 228 255
207 228 255
207 228 255
207 228 255
207 228 255
207 228 255
207 228 255
207 228 255
207 228 255
207 228 255
207 228 255
207 227 255
207 227 255
207 227 255
207 227 255
207 227 255
206 227 255
206 227 255
206 227 255
206 227 255
206 227 255
206 227 255
206 227 255
206 227 255
206 227 255
206 227 255
206 227 255
206 227 255
206 227 255
206 227 255
206 227 255
206 227 255
206 227 255
206 227 255
205 227 255
205 227 255
205 227 255
205 227 255
205 227 255
205 227 255
205 227 255
205 227 255
205 227 255
205 227 255
205 226 255
205 226 255
205 226 255
205 226 255
205 226 255
205 226 255
204 226 255
204 226 255
204 226 255
204 226 255
204 226 255
204 226 255
204 226 255
204 226 255
204 226 255
204 226 255
204 226 255
204 226 255
204 226 255
204 226 255
204 226 255
204 226 255
203 226 255
203 226 255
203 226 255
203 226 255
203 226 255
203 226 255
203 226 255
203 225 255
203 225 255
203 225 255
203 225 255
203 225 255
203 225 255
203 225 255
203 225 255
202 225 255
202 225 255
202 225 255
202 225 255
202 225 255
202 225 255
202 225 255
202 225 255
202 225 255
202 225 255
202 225 255
202 225 255
202 225 255
202 225 255
202 225 255
202 225 255
201 225 255
201 225 255
201 225 255
201 225 255
201 224 255
201 224 255
201 224 255
201 224 255
201 224 255
201 224 255
201 224 255
201 224 255
201 224 255
201 224 255
201 224 255
200 224 255
200 224 255
200 224 255
200 224 255
200 224 255
200 224 255
200 224 255
200 224 255
200 224 255
200 224 255
200 224 255
200 224 255
200 224 255
200 224 255
200 224 255
200 224 255
200 224 255
199 224 255
199 224 255
199 224 255
199 223 255
199 223 255
199 223 255
199 223 255
199 223 255
199 223 255
199 223 255
199 223 255
199 223 255
199 223 255
199 223 255
199 223 255
199 223 255
199 223 255
199 223 255
199 223 255
199 223 255
199 223 255
199 223 255
198 223 255
198 223 255
198 223 255
198 223 255
198 223 255
198 223 255
198 223 255
198 223 255
198 223 255
198 223 255
198 223 255
198 223 255
198 223 255
198 223 255
198 223 255
198 223 255
198 223 255
198 223 255
198 223 255
198 223 255
198 223 255
198 223 255
198 223 255
198 223 255
198 223 255
198 223 255
198 223 255
198 223 255
198 223 255
198 223 255
198 223 255
198 223 255
198 223 255
198 223 255
198 223 255
198 223 255
198 223 255
198 223 255
198 223 255
198 223 255
198 223 255
198 223 255
198 223 255
198 223 255
198 223 255
198 223 255
198 223 255
198 223 255
198 223 255
198 223 255
198 223 255
198 223 255
198 223 255
198 223 255
198 223 255
198 223 255
198 223 255
198 223 255
198 223 255
198 223 255
198 223 255
198 223 255
198 223 255
198 223 255
198 223 255
199 223 255
199 223 255
199 223 255
199 223 255
199 223 255
199 223 255
199 223 255
199 223 255
199 223 255
199 223 255
199 223 255
199 223 255
199 223 255
199 223 255
199 223 255
199 223 255
199 223 255
199 223 255
199 224 255
199 224 255
199 224 255
200 224 255
200 224 255
200 224 255
200 224 255
200 224 255
200 224 255
200 224 255
200 224 255
200 224 255
200 224 255
200 224 255
200 224 255
200 224 255
200 224 255
200 224 255
200 224 255
200 224 255
201 224 255
201 224 255
201 224 255
201 224 255
201 224 255
201 224 255
201 224 255
201 224 255
201 224 255
201 224 255
201 224 255
201 225 255
201 225 255
201 225 255
201 225 255
202 225 255
202 225 255
202 225 255
202 225 255
202 225 255
202 225 255
202 225 255
202 225 255
202 225 255
202 225 255
202 225 255
202 225 255
202 225 255
202 225 255
202 225 255
203 225 255
203 225 255
203 225 255
203 225 255
203 225 255
203 225 255
203 225 255
203 225 255
203 225 255
203 226 255
203 226 255
203 226 255
203 226 255
203 226 255
203 226 255
203 226 255
204 226 255
204 226 255
204 226 255
204 226 255
204 226 255
204 226 255
204 226 255
204 226 255
204 226 255
204 226 255
204 226 255
204 226 255
204 226 255
204 226 255
204 226 255
204 226 255
205 226 255
205 226 255
205 226 255
205 226 255
205 226 255
205 226 255
205 227 255
205 227 255
205 227 255
205 227 255
205 227 255
205 227 255
205 227 255
205 227 255
205 227 255
205 227 255
206 227 255
206 227 255
206 227 255
206 227 255
206 227 255
206 227 255
206 227 255
206 227 255
206 227 255
206 227 255
206 227 255
206 227 255
206 227 255
206 227 255
206 227 255
206 227 255
206 227 255
206 227 255
207 227 255
207 227 255
207 227 255
207 227 255
207 227 255
207 228 255
207 228 255
207 228 255
207 228 255
207 228 255
207 228 255
207 228 255
207 228 255
207 228 255
207 228 255
207 228 255
207 228 255
207 228 255
207 228 255
207 228 255
208 228 255
208 228 255
208 228 255
208 228 255
208 228 255
208 228 255
208 228 255
208 228 255
208 228 255
208 228 255
208 228 255
208 228 255
208 228 255
208 228 255
208 228 255
208 228 255
208 228 255
208 228 255
208 228 255
208 228 255
208 228 255
208 228 255
208 228 255
208 228 255
208 228 255
208 228 255
208 228 255
208 228 255
208 228 255
207 228 255
207 228 255
207 228 255
207 228 255
207 228 255
207 228 255
207 228 255
207 228 255
207 228 255
207 228 255
207 228 255
207 228 255
207 228 255
207 228 255
207 228 255
207 227 255
207 227 255
207 227 255
207 227 255
207 227 255
206 227 255
206 227 255
206 227 255
206 227 255
206 227 255
206 227 255
206 227 255
206 227 255
206 227 255
206 227 255
206 227 255
206 227 255
206 227 255
206 227 255
206 227 255
206 227 255
206 227 255
206 227 255
205 227 255
205 227 255
205 227 255
205 227 255
205 227 255
205 227 255
205 227 255
205 227 255
205 227 255
205 227 255
205 226 255
205 226 255
205 226 255
205 226 255
205 226 255
205 226 255
204 226 255
204 226 255
204 226 255
204 226 255
204 226 255
204 226 255
204 226 255
204 226 255
204 226 255
204 226 255
204 226 255
204 226 255
204 226 255
204 226 255
204 226 255
204 226 255
203 226 255
203 226 255
203 226 255
203 226 255
203 226 255
203 226 255
203 226 255
203 225 255
203 225 255
203 225 255
203 225 255
203 225 255
203 225 255
203 225 255
203 225 255
202 225 255
202 225 255
202 225 255
202 225 255
202 225 255
202 225 255
202 225 255
202 225 255
202 225 255
202 225 255
202 225 255
202 225 255
202 225 255
202 225 255
202 225 255
201 225 255
201 225 255
201 225 255
201 225 255
201 225 255
201 224 255
201 224 255
201 224 255
201 224 255
201 224 255
201 224 255
201 224 255
201 224 255
201 224 255
201 224 255
201 224 255
200 224 255
200 224 255
200 224 255
200 224 255
200 224 255
200 224 255
200 224 255
200 224 255
200 224 255
200 224 255
200 224 255
200 224 255
200 224 255
200 224 255
200 224 255
200 224 255
200 224 255
200 224 255
199 224 255
199 224 255
199 224 255
199 223 255
199 223 255
199 223 255
199 223 255
199 223 255
199 223 255
199 223 255
199 223 255
199 223 255
199 223 255
199 223 255
199 223 255
199 223 255
199 223 255
199 223 255
199 223 255
199 223 255
199 223 255
199 223 255
199 223 255
198 223 255
198 223 255
198 223 255
198 223 255
198 223 255
198 223 255
198 223 255
198 223 255
198 223 255
198 223 255
198 223 255
198 223 255
198 223 255
198 223 255
198 223 255
198 223 255
198 223 255
198 223 255
198 223 255
198 223 255
198 223 255
198 223 255
198 223 255
198 223 255
198 223 255
198 223 255
198 223 255
198 223 255
198 223 255
198 223 255
198 223 255
198 223 255
198 223 255
198 223 255
198 223 255
198 223 255
198 223 255
198 223 255
198 223 255
198 223 255
198 223 255
198 223 255
198 223 255
198 223 255
198 223 255
198 223 255
198 223 255
198 223 255
198 223 255
198 223 255
198 223 255
198 223 255
198 223 255
198 223 255
199 223 255
199 223 255
199 223 255
199 223 255
199 223 255
199 223 255
199 223 255
199 223 255
199 223 255
199 223 255
199 223 255
199 223 255
199 223 255
199 223 255
199 223 255
199 223 255
199 223 255
199 223 255
199 223 255
199 223 255
199 224 255
199 224 255
199 224 255
200 224 255
200 224 255
200 224 255
200 224 255
200 224 255
200 224 255
200 224 255
200 224 255
200 224 255
200 224 255
200 224 255
200 224 255
200 224 255
200 224 255
200 224 255
200 224 255
200 224 255
200 224 255
201 224 255
201 224 255
201 224 255
201 224 255
201 224 255
201 224 255
201 224 255
201 224 255
201 224 255
201 224 255
201 224 255
201 225 255
201 225 255
201 225 255
201 225 255
201 225 255
202 225 255
202 225 255
202 225 255
202 225 255
202 225 255
202 225 255
202 225 255
202 225 255
202 225 255
202 225 255
202 225 255
202 225 255
202 225 255
202 225 255
202 225 255
203 225 255
203 225 255
203 225 255
203 225 255
203 225 255
203 225 255
203 225 255
203 225 255
203 226 255
203 226 255
203 226 255
203 226 255
203 226 255
203 226 255
203 226 255
204 226 255
204 226 255
204 226 255
204 226 255
204 226 255
204 226 255
204 226 255
204 226 255
204 226 255
204 226 255
204 226 255
204 226 255
204 226 255
204 226 255
204 226 255
204 226 255
205 226 255
205 226 255
205 226 255
205 226 255
205 226 255
205 226 255
205 226 255
205 227 255
205 227 255
205 227 255
205 227 255
205 227 255
205 227 255
205 227 255
205 227 255
205 227 255
206 227 255
206 227 255
206 227 255
206 227 255
206 227 255
206 227 255
206 227 255
206 227 255
206 227 255
206 227 255
206 227 255
206 227 255
206 227 255
206 227 255
206 227 255
206 227 255
206 227 255
206 227 255
207 227 255
207 227 255
207 227 255
207 227 255
207 227 255
207 228 255
207 228 255
207 228 255
207 228 255
207 228 255
207 228 255
207 228 255
207 228 255
207 228 255
207 228 255
207 228 255
207 228 255
207 228 255
207 228 255
207 228 255
208 228 255
208 228 255
208 228 255
208 228 255
208 228 255
208 228 255
208 228 255
208 228 255
208 228 255
208 228 255
208 228 255
208 228 255
208 228 255
208 228 255
208 228 255
208 228 255
208 228 255
208 228 255
208 228 255
208 228 255
208 228 255
208 228 255
208 228 255
208 228 255
208 228 255
208 228 255
208 228 255
208 228 255
208 228 255
208 228 255
208 228 255
208 228 255
208 228 255
208 228 255
208 228 255
207 228 255
207 228 255
207 228 255
207 228 255
207 228 255
207 228 255
207 228 255
207 228 255
207 228 255
207 228 255
207 228 255
207 228 255
207 228 255
207 228 255
207 228 255
207 227 255
207 227 255
207 227 255
207 227 255
207 227 255
206 227 255
206 227 255
206 227 255
206 227 255
206 227 255
206 227 255
206 227 255
206 227 255
206 227 255
206 227 255
206 227 255
206 227 255
206 227 255
206 227 255
206 227 255
206 227 255
206 227 255
206 227 255
205 227 255
205 227 255
205 227 255
205 227 255
205 227 255
205 227 255
205 227 255
205 227 255
205 227 255
205 226 255
205 226 255
205 226 255
205 226 255
205 226 255
205 226 255
205 226 255
204 226 255
204 226 255
204 226 255
204 226 255
204 226 255
204 226 255
204 226 255
204 226 255
204 226 255
204 226 255
204 226 255
204 226 255
204 226 255
204 226 255
204 226 255
203 226 255
203 226 255
203 226 255
203 226 255
203 226 255
203 226 255
203 226 255
203 226 255
203 225 255
203 225 255
203 225 255
203 225 255
203 225 255
203 225 255
203 225 255
203 225 255
202 225 255
202 225 255
202 225 255
202 225 255
202 225 255
202 225 255
202 225 255
202 225 255
202 225 255
202 225 255
202 225 255
202 225 255
202 225 255
202 225 255
202 225 255
201 225 255
201 225 255
201 225 255
201 225 255
201 225 255
201 224 255
201 224 255
201 224 255
201 224 255
201 224 255
201 224 255
201 224 255
201 224 255
201 224 255
201 224 255
201 224 255
200 224 255
200 224 255
200 224 255
200 224 255
200 224 255
200 224 255
200 224 255
200 224 255
200 224 255
200 224 255
200 224 255
200 224 255
200 224 255
200 224 255
200 224 255
200 224 255
200 224 255
200 224 255
199 224 255
199 224 255
199 224 255
199 224 255
199 223 255
199 223 255
199 223 255
199 223 255
199 223 255
199 223 255
199 223 255
199 223 255
199 223 255
199 223 255
199 223 255
199 223 255
199 223 255
199 223 255
199 223 255
199 223 255
199 223 255
199 223 255
199 223 255
199 223 255
199 223 255
199 223 255
199 223 255
198 223 255
198 223 255
198 223 255
198 223 255
198 223 255
198 223 255
198 223 255
198 223 255
198 223 255
198 223 255
198 223 255
198 223 255
198 223 255
198 223 255
198 223 255
198 223 255
198 223 255
198 223 255
198 223 255
198 223 255
198 223 255
198 223 255
198 223 255
198 223 255
198 223 255
198 223 255
198 223 255
198 223 255
198 223 255
198 223 255
198 223 255
198 223 255
198 223 255
198 223 255
198 223 255
198 223 255
198 223 255
198 223 255
198 223 255
198 223 255
198 223 255
199 223 255
199 223 255
199 223 255
199 223 255
199 223 255
199 223 255
199 223 255
199 223 255
199 223 255
199 223 255
199 223 255
199 223 255
199 223 255
199 223 255
199 223 255
199 223 255
199 223 255
199 223 255
199 223 255
199 223 255
199 223 255
199 223 255
199 224 255
199 224 255
199 224 255
199 224 255
200 224 255
200 224 255
200 224 255
200 224 255
200 224 255
200 224 255
200 224 255
200 224 255
200 224 255
200 224 255
200 224 255
200 224 255
200 224 255
200 224 255
200 224 255
200 224 255
200 224 255
200 224 255
201 224 255
201 224 255
201 224 255
201 224 255
201 224 255
201 224 255
201 224 255
201 224 255
201 224 255
201 224 255
201 224 255
201 225 255
201 225 255
201 225 255
201 225 255
201 225 255
202 225 255
202 225 255
202 225 255
202 225 255
202 225 255
202 225 255
202 225 255
202 225 255
202 225 255
202 225 255
202 225 255
202 225 255
202 225 255
202 225 255
202 225 255
203 225 255
203 225 255
203 225 255
203 225 255
203 225 255
203 225 255
203 225 255
203 225 255
203 225 255
203 226 255
203 226 255
203 226 255
203 226 255
203 226 255
203 226 255
204 226 255
204 226 255
204 226 255
204 226 255
204 226 255
204 226 255
204 226 255
204 226 255
204 226 255
204 226 255
204 226 255
204 226 255
204 226 255
204 226 255
204 226 255
204 226 255
205 226 255
205 226 255
205 226 255
205 226 255
205 226 255
205 226 255
205 227 255
205 227 255
205 227 255
205 227 255
205 227 255
205 227 255
205 227 255
205 227 255
205 227 255
205 227 255
205 227 255
206 227 255
206 227 255
206 227 255
206 227 255
206 227 255
206 227 255
206 227 255
206 227 255
206 227 255
206 227 255
206 227 255
206 227 255
206 227 255
206 227 255
206 227 255
206 227 255
206 227 255
207 227 255
207 227 255
207 227 255
207 227 255
207 227 255
207 228 255
207 228 255
207 228 255
207 228 255
207 228 255
207 228 255
207 228 255
207 228 255
207 228 255
207 228 255
207 228 255
207 228 255
207 228 255
207 228 255
207 228 255
208 228 255
208 228 255
208 228 255
208 228 255
208 228 255
208 228 255
208 228 255
208 228 255
208 228 255
208 228 255
208 228 255
208 228 255
208 228 255
208 228 255
208 228 255
208 228 255
208 228 255
208 228 255
208 228 255
209 228 255
208 228 255
208 228 255
208 228 255
208 228 255
208 228 255
208 228 255
208 228 255
208 228 255
208 228 255
208 228 255
208 228 255
208 228 255
208 228 255
208 228 255
208 228 255
208 228 255
208 228 255
208 228 255
208 228 255
208 228 255
208 228 255
207 228 255
207 228 255
207 228 255
207 228 255
207 228 255
207 228 255
207 228 255
207 228 255
207 228 255
207 228 255
207 228 255
207 228 255
207 228 255
207 228 255
207 228 255
207 227 255
207 227 255
207 227 255
207 227 255
206 227 255
206 227 255
206 227 255
206 227 255
206 227 255
206 227 255
206 227 255
206 227 255
206 227 255
206 227 255
206 227 255
206 227 255
206 227 255
206 227 255
206 227 255
206 227 255
206 227 255
206 227 255
205 227 255
205 227 255
205 227 255
205 227 255
205 227 255
205 227 255
205 227 255
205 227 255
205 227 255
205 227 255
205 226 255
205 226 255
205 226 255
205 226 255
205 226 255
205 226 255
205 226 255
204 226 255
204 226 255
204 226 255
204 226 255
204 226 255
204 226 255
204 226 255
204 226 255
204 226 255
204 226 255
204 226 255
204 226 255
204 226 255
204 226 255
204 226 255
203 226 255
203 226 255
203 226 255
203 226 255
203 226 255
203 226 255
203 226 255
203 225 255
203 225 255
203 225 255
203 225 255
203 225 255
203 225 255
203 225 255
203 225 255
203 225 255
202 225 255
202 225 255
202 225 255
202 225 255
202 225 255
202 225 255
202 225 255
202 225 255
202 225 255
202 225 255
202 225 255
202 225 255
202 225 255
202 225 255
202 225 255
201 225 255
201 225 255
201 225 255
201 225 255
201 225 255
201 224 255
201 224 255
201 224 255
201 224 255
201 224 255
201 224 255
201 224 255
201 224 255
201 224 255
201 224 255
201 224 255
201 224 255
200 224 255
200 224 255
200 224 255
200 224 255
200 224 255
200 224 255
200 224 255
200 224 255
200 224 255
200 224 255
200 224 255
200 224 255
200 224 255
200 224 255
200 224 255
200 224 255
200 224 255
200 224 255
199 224 255
199 224 255
199 224 255
199 224 255
199 223 255
199 223 255
199 223 255
199 223 255
199 223 255
199 223 255
199 223 255
199 223 255
199 223 255
199 223 255
199 223 255
199 223 255
199 223 255
199 223 255
199 223 255
199 223 255
199 223 255
199 223 255
199 223 255
199 223 255
199 223 255
199 223 255
199 223 255
199 223 255
199 223 255
199 223 255
199 223 255
199 223 255
199 223 255
198 223 255
198 223 255
198 223 255
198 223 255
198 223 255
198 223 255
198 223 255
198 223 255
198 223 255
198 223 255
198 223 255
198 223 255
198 223 255
198 223 255
198 223 255
198 223 255
198 223 255
198 223 255
198 223 255
199 223 255
199 223 255
199 223 255
199 223 255
199 223 255
199 223 255
199 223 255
199 223 255
199 223 255
199 223 255
199 223 255
199 223 255
199 223 255
199 223 255
199 223 255
199 223 255
199 223 255
199 223 255
199 223 255
199 223 255
199 223 255
199 223 255
199 223 255
199 223 255
199 223 255
199 223 255
199 223 255
199 223 255
199 223 255
199 223 255
199 224 255
199 224 255
199 224 255
200 224 255
200 224 255
200 224 255
200 224 255
200 224 255
200 224 255
200 224 255
200 224 255
200 224 255
200 224 255
200 224 255
200 224 255
200 224 255
200 224 255
200 224 255
200 224 255
200 224 255
200 224 255
200 224 255
200 224 255
201 224 255
201 224 255
201 224 255
201 224 255
201 224 255
201 224 255
201 224 255
201 224 255
201 224 255
201 224 255
201 224 255
201 225 255
201 225 255
201 225 255
201 225 255
201 225 255
202 225 255
202 225 255
202 225 255
202 225 255
202 225 255
202 225 255
202 225 255
202 225 255
202 225 255
202 225 255
202 225 255
202 225 255
202 225 255
202 225 255
202 225 255
203 225 255
203 225 255
203 225 255
203 225 255
203 225 255
203 225 255
203 225 255
203 225 255
203 225 255
203 226 255
203 226 255
203 226 255
203 226 255
203 226 255
203 226 255
203 226 255
204 226 255
204 226 255
204 226 255
204 226 255
204 226 255
204 226 255
204 226 255
204 226 255
204 226 255
204 226 255
204 226 255
204 226 255
204 226 255
204 226 255
204 226 255
205 226 255
205 226 255
205 226 255
205 226 255
205 226 255
205 226 255
205 226 255
205 227 255
205 227 255
205 227 255
205 227 255
205 227 255
205 227 255
205 227 255
205 227 255
205 227 255
205 227 255
206 227 255
206 227 255
206 227 255
206 227 255
206 227 255
206 227 255
206 227 255
206 227 255
206 227 255
206 227 255
206 227 255
206 227 255
206 227 255
206 227 255
206 227 255
206 227 255
206 227 255
207 227 255
207 227 255
207 227 255
207 227 255
207 227 255
207 228 255
207 228 255
207 228 255
207 228 255
207 228 255
207 228 255
207 228 255
207 228 255
207 228 255
207 228 255
207 228 255
207 228 255
207 228 255
207 228 255
207 228 255
208 228 255
208 228 255
208 228 255
208 228 255
208 228 255
208 228 255
208 228 255
208 228 255
208 228 255
208 228 255
208 228 255
208 228 255
208 228 255
208 228 255
208 228 255
208 228 255
208 228 255
208 228 255
208 228 255
208 228 255
208 228 255
209 228 255
209 229 255
209 229 255
209 229 255
209 228 255
208 228 255
208 228 255
208 228 255
208 228 255
208 228 255
208 228 255
208 228 255
208 228 255
208 228 255
208 228 255
208 228 255
208 228 255
208 228 255
208 228 255
208 228 255
208 228 255
208 228 255
208 228 255
208 228 255
208 228 255
208 228 255
207 228 255
207 228 255
207 228 255
207 228 255
207 228 255
207 228 255
207 228 255
207 228 255
207 228 255
207 228 255
207 228 255
207 228 255
207 228 255
207 228 255
207 228 255
207 227 255
207 227 255
207 227 255
207 227 255
206 227 255
206 227 255
206 227 255
206 227 255
206 227 255
206 227 255
206 227 255
206 227 255
206 227 255
206 227 255
206 227 255
206 227 255
206 227 255
206 227 255
206 227 255
206 227 255
206 227 255
206 227 255
205 227 255
205 227 255
205 227 255
205 227 255
205 227 255
205 227 255
205 227 255
205 227 255
205 227 255
205 227 255
205 226 255
205 226 255
205 226 255
205 226 255
205 226 255
205 226 255
204 226 255
204 226 255
204 226 255
204 226 255
204 226 255
204 226 255
204 226 255
204 226 255
204 226 255
204 226 255
204 226 255
204 226 255
204 226 255
204 226 255
204 226 255
204 226 255
203 226 255
203 226 255
203 226 255
203 226 255
203 226 255
203 226 255
203 226 255
203 225 255
203 225 255
203 225 255
203 225 255
203 225 255
203 225 255
203 225 255
203 225 255
203 225 255
202 225 255
202 225 255
202 225 255
202 225 255
202 225 255
202 225 255
202 225 255
202 225 255
202 225 255
202 225 255
202 225 255
202 225 255
202 225 255
202 225 255
202 225 255
201 225 255
201 225 255
201 225 255
201 225 255
201 225 255
201 224 255
201 224 255
201 224 255
201 224 255
201 224 255
201 224 255
201 224 255
201 224 255
201 224 255
201 224 255
201 224 255
201 224 255
200 224 255
200 224 255
200 224 255
200 224 255
200 224 255
200 224 255
200 224 255
200 224 255
200 224 255
200 224 255
200 224 255
200 224 255
200 224 255
200 224 255
200 224 255
200 224 255
200 224 255
200 224 255
200 224 255
200 224 255
199 224 255
199 224 255
199 224 255
199 224 255
199 223 255
199 223 255
199 223 255
199 223 255
199 223 255
199 223 255
199 223 255
199 223 255
199 223 255
199 223 255
199 223 255
199 223 255
199 223 255
199 223 255
199 223 255
199 223 255
199 223 255
199 223 255
199 223 255
199 223 255
199 223 255
199 223 255
199 223 255
199 223 255
199 223 255
199 223 255
199 223 255
199 223 255
199 223 255
199 223 255
199 223 255
199 223 255
199 223 255
199 223 255
199 223 255
199 223 255
199 223 255
199 223 255
199 223 255
199 223 255
199 223 255
199 223 255
199 223 255
199 223 255
199 223 255
199 223 255
199 223 255
199 223 255
199 223 255
199 223 255
199 223 255
199 223 255
199 223 255
199 223 255
199 223 255
199 223 255
199 223 255
199 223 255
199 223 255
199 223 255
199 223 255
199 223 255
199 223 255
199 223 255
199 223 255
199 223 255
199 223 255
199 223 255
199 224 255
199 224 255
199 224 255
199 224 255
200 224 255
200 224 255
200 224 255
200 224 255
200 224 255
200 224 255
200 224 255
200 224 255
200 224 255
200 224 255
200 224 255
200 224 255
200 224 255
200 224 255
200 224 255
200 224 255
200 224 255
200 224 255
200 224 255
200 224 255
201 224 255
201 224 255
201 224 255
201 224 255
201 224 255
201 224 255
201 224 255
201 224 255
201 224 255
201 224 255
201 224 255
201 224 255
201 225 255
201 225 255
201 225 255
201 225 255
201 225 255
202 225 255
202 225 255
202 225 255
202 225 255
202 225 255
202 225 255
202 225 255
202 225 255
202 225 255
202 225 255
202 225 255
202 225 255
202 225 255
202 225 255
202 225 255
202 225 255
203 225 255
203 225 255
203 225 255
203 225 255
203 225 255
203 225 255
203 225 255
203 225 255
203 226 255
203 226 255
203 226 255
203 226 255
203 226 255
203 226 255
203 226 255
204 226 255
204 226 255
204 226 255
204 226 255
204 226 255
204 226 255
204 226 255
204 226 255
204 226 255
204 226 255
204 226 255
204 226 255
204 226 255
204 226 255
204 226 255
205 226 255
205 226 255
205 226 255
205 226 255
205 226 255
205 226 255
205 226 255
205 227 255
205 227 255
205 227 255
205 227 255
205 227 255
205 227 255
205 227 255
205 227 255
205 227 255
205 227 255
206 227 255
206 227 255
206 227 255
206 227 255
206 227 255
206 227 255
206 227 255
206 227 255
206 227 255
206 227 255
206 227 255
206 227 255
206 227 255
206 227 255
206 227 255
206 227 255
206 227 255
206 227 255
207 227 255
207 227 255
207 227 255
207 227 255
207 228 255
207 228 255
207 228 255
207 228 255
207 228 255
207 228 255
207 228 255
207 228 255
207 228 255
207 228 255
207 228 255
207 228 255
207 228 255
207 228 255
208 228 255
208 228 255
208 228 255
208 228 255
208 228 255
208 228 255
208 228 255
208 228 255
208 228 255
208 228 255
208 228 255
208 228 255
208 228 255
208 228 255
208 228 255
208 228 255
208 228 255
208 228 255
208 228 255
208 228 255
208 228 255
208 228 255
209 228 255
209 229 255
209 229 255
209 229 255
209 229 255
209 229 255
209 229 255
209 229 255
209 229 255
209 229 255
209 228 255
208 228 255
208 228 255
208 228 255
208 228 255
208 228 255
208 228 255
208 228 255
208 228 255
208 228 255
208 228 255
208 228 255
208 228 255
208 228 255
208 228 255
208 228 255
208 228 255
208 228 255
208 228 255
208 228 255
208 228 255
208 228 255
208 228 255
207 228 255
207 228 255
207 228 255
207 228 255
207 228 255
207 228 255
207 228 255
207 228 255
207 228 255
207 228 255
207 228 255
207 228 255
207 228 255
207 228 255
207 227 255
207 227 255
207 227 255
207 227 255
206 227 255
206 227 255
206 227 255
206 227 255
206 227 255
206 227 255
206 227 255
206 227 255
206 227 255
206 227 255
206 227 255
206 227 255
206 227 255
206 227 255
206 227 255
206 227 255
206 227 255
206 227 255
205 227 255
205 227 255
205 227 255
205 227 255
205 227 255
205 227 255
205 227 255
205 227 255
205 227 255
205 227 255
205 226 255
205 226 255
205 226 255
205 226 255
205 226 255
205 226 255
204 226 255
204 226 255
204 226 255
204 226 255
204 226 255
204 226 255
204 226 255
204 226 255
204 226 255
204 226 255
204 226 255
204 226 255
204 226 255
204 226 255
204 226 255
204 226 255
203 226 255
203 226 255
203 226 255
203 226 255
203 226 255
203 226 255
203 226 255
203 225 255
203 225 255
203 225 255
203 225 255
203 225 255
203 225 255
203 225 255
203 225 255
203 225 255
202 225 255
202 225 255
202 225 255
202 225 255
202 225 255
202 225 255
202 225 255
202 225 255
202 225 255
202 225 255
202 225 255
202 225 255
202 225 255
202 225 255
202 225 255
201 225 255
201 225 255
201 225 255
201 225 255
201 225 255
201 224 255
201 224 255
201 224 255
201 224 255
201 224 255
201 224 255
201 224 255
201 224 255
201 224 255
201 224 255
201 224 255
201 224 255
200 224 255
200 224 255
200 224 255
200 224 255
200 224 255
200 224 255
200 224 255
200 224 255
200 224 255
200 224 255
200 224 255
200 224 255
200 224 255
200 224 255
200 224 255
200 224 255
200 224 255
200 224 255
200 224 255
200 224 255
200 224 255
200 224 255
199 224 255
199 224 255
199 224 255
199 224 255
199 223 255
199 223 255
199 223 255
199 223 255
199 223 255
199 223 255
199 223 255
199 223 255
199 223 255
199 223 255
199 223 255
199 223 255
199 223 255
199 223 255
199 223 255
199 223 255
199 223 255
199 223 255
199 223 255
199 223 255
199 223 255
199 223 255
199 223 255
199 223 255
199 223 255
199 223 255
199 223 255
199 223 255
199 223 255
199 223 255
199 223 255
199 223 255
199 223 255
199 223 255
199 223 255
199 223 255
199 223 255
199 223 255
199 223 255
199 223 255
199 223 255
199 223 255
199 223 255
199 223 255
199 223 255
199 223 255
199 223 255
199 223 255
199 223 255
199 223 255
199 223 255
199 223 255
199 223 255
199 223 255
199 223 255
199 223 255
199 223 255
199 224 255
199 224 255
199 224 255
199 224 255
199 224 255
199 224 255
200 224 255
200 224 255
200 224 255
200 224 255
200 224 255
200 224 255
200 224 255
200 224 255
200 224 255
200 224 255
200 224 255
200 224 255
200 224 255
200 224 255
200 224 255
200 224 255
200 224 255
200 224 255
200 224 255
200 224 255
200 224 255
201 224 255
201 224 255
201 224 255
201 224 255
201 224 255
201 224 255
201 224 255
201 224 255
201 224 255
201 224 255
201 224 255
201 224 255
201 225 255
201 225 255
201 225 255
201 225 255
201 225 255
202 225 255
202 225 255
202 225 255
202 225 255
202 225 255
202 225 255
202 225 255
202 225 255
202 225 255
202 225 255
202 225 255
202 225 255
202 225 255
202 225 255
202 225 255
202 225 255
203 225 255
203 225 255
203 225 255
203 225 255
203 225 255
203 225 255
203 225 255
203 225 255
203 226 255
203 226 255
203 226 255
203 226 255
203 226 255
203 226 255
203 226 255
204 226 255
204 226 255
204 226 255
204 226 255
204 226 255
204 226 255
204 226 255
204 226 255
204 226 255
204 226 255
204 226 255
204 226 255
204 226 255
204 226 255
204 226 255
204 226 255
205 226 255
205 226 255
205 226 255
205 226 255
205 226 255
205 226 255
205 227 255
205 227 255
205 227 255
205 227 255
205 227 255
205 227 255
205 227 255
205 227 255
205 227 255
205 227 255
206 227 255
206 227 255
206 227 255
206 227 255
206 227 255
206 227 255
206 227 255
206 227 255
206 227 255
206 227 255
206 227 255
206 227 255
206 227 255
206 227 255
206 227 255
206 227 255
206 227 255
207 227 255
207 227 255
207 227 255
207 227 255
207 227 255
207 228 255
207 228 255
207 228 255
207 228 255
207 228 255
207 228 255
207 228 255
207 228 255
207 228 255
207 228 255
207 228 255
207 228 255
207 228 255
207 228 255
208 228 255
208 228 255
208 228 255
208 228 255
208 228 255
208 228 255
208 228 255
208 228 255
208 228 255
208 228 255
208 228 255
208 228 255
208 228 255
208 228 255
208 228 255
208 228 255
208 228 255
208 228 255
208 228 255
208 228 255
208 228 255
209 228 255
209 228 255
209 229 255
209 229 255
209 229 255
209 229 255
209 229 255
209 229 255
209 229 255
209 229 255
209 229 255
209 229 255
209 229 255
209 229 255
209 229 255
209 229 255
209 229 255
209 228 255
209 228 255
208 228 255
208 228 255
208 228 255
208 228 255
208 228 255
208 228 255
208 228 255
208 228 255
208 228 255
208 228 255
208 228 255
208 228 255
208 228 255
208 228 255
208 228 255
208 228 255
208 228 255
208 228 255
208 228 255
208 228 255
208 228 255
207 228 255
207 228 255
207 228 255
207 228 255
207 228 255
207 228 255
207 228 255
207 228 255
207 228 255
207 228 255
207 228 255
207 228 255
207 228 255
207 228 255
207 227 255
207 227 255
207 227 255
207 227 255
206 227 255
206 227 255
206 227 255
206 227 255
206 227 255
206 227 255
206 227 255
206 227 255
206 227 255
206 227 255
206 227 255
206 227 255
206 227 255
206 227 255
206 227 255
206 227 255
206 227 255
206 227 255
205 227 255
205 227 255
205 227 255
205 227 255
205 227 255
205 227 255
205 227 255
205 227 255
205 227 255
205 227 255
205 226 255
205 226 255
205 226 255
205 226 255
205 226 255
205 226 255
204 226 255
204 226 255
204 226 255
204 226 255
204 226 255
204 226 255
204 226 255
204 226 255
204 226 255
204 226 255
204 226 255
204 226 255
204 226 255
204 226 255
204 226 255
204 226 255
203 226 255
203 226 255
203 226 255
203 226 255
203 226 255
203 226 255
203 226 255
203 225 255
203 225 255
203 225 255
203 225 255
203 225 255
203 225 255
203 225 255
203 225 255
203 225 255
202 225 255
202 225 255
202 225 255
202 225 255
202 225 255
202 225 255
202 225 255
202 225 255
202 225 255
202 225 255
202 225 255
202 225 255
202 225 255
202 225 255
202 225 255
202 225 255
201 225 255
201 225 255
201 225 255
201 225 255
201 224 255
201 224 255
201 224 255
201 224 255
201 224 255
201 224 255
201 224 255
201 224 255
201 224 255
201 224 255
201 224 255
201 224 255
201 224 255
200 224 255
200 224 255
200 224 255
200 224 255
200 224 255
200 224 255
200 224 255
200 224 255
200 224 255
200 224 255
200 224 255
200 224 255
200 224 255
200 224 255
200 224 255
200 224 255
200 224 255
200 224 255
200 224 255
200 224 255
200 224 255
200 224 255
200 224 255
200 224 255
199 224 255
199 224 255
199 224 255
199 224 255
199 224 255
199 223 255
199 223 255
199 223 255
199 223 255
199 223 255
199 223 255
199 223 255
199 223 255
199 223 255
199 223 255
199 223 255
199 223 255
199 223 255
199 223 255
199 223 255
199 223 255
199 223 255
199 223 255
199 223 255
199 223 255
199 223 255
199 223 255
199 223 255
199 223 255
199 223 255
199 223 255
199 223 255
199 223 255
199 223 255
199 223 255
199 223 255
199 223 255
199 223 255
199 223 255
199 223 255
199 223 255
199 223 255
199 223 255
199 223 255
199 223 255
199 223 255
199 223 255
199 223 255
199 223 255
199 224 255
199 224 255
199 224 255
199 224 255
199 224 255
199 224 255
200 224 255
200 224 255
200 224 255
200 224 255
200 224 255
200 224 255
200 224 255
200 224 255
200 224 255
200 224 255
200 224 255
200 224 255
200 224 255
200 224 255
200 224 255
200 224 255
200 224 255
200 224 255
200 224 255
200 224 255
200 224 255
200 224 255
200 224 255
201 224 255
201 224 255
201 224 255
201 224 255
201 224 255
201 224 255
201 224 255
201 224 255
201 224 255
201 224 255
201 224 255
201 224 255
201 224 255
201 225 255
201 225 255
201 225 255
201 225 255
201 225 255
202 225 255
202 225 255
202 225 255
202 225 255
202 225 255
202 225 255
202 225 255
202 225 255
202 225 255
202 225 255
202 225 255
202 225 255
202 225 255
202 225 255
202 225 255
203 225 255
203 225 255
203 225 255
203 225 255
203 225 255
203 225 255
203 225 255
203 225 255
203 225 255
203 226 255
203 226 255
203 226 255
203 226 255
203 226 255
203 226 255
203 226 255
204 226 255
204 226 255
204 226 255
204 226 255
204 226 255
204 226 255
204 226 255
204 226 255
204 226 255
204 226 255
204 226 255
204 226 255
204 226 255
204 226 255
204 226 255
204 226 255
205 226 255
205 226 255
205 226 255
205 226 255
205 226 255
205 226 255
205 227 255
205 227 255
205 227 255
205 227 255
205 227 255
205 227 255
205 227 255
205 227 255
205 227 255
205 227 255
206 227 255
206 227 255
206 227 255
206 227 255
206 227 255
206 227 255
206 227 255
206 227 255
206 227 255
206 227 255
206 227 255
206 227 255
206 227 255
206 227 255
206 227 255
206 227 255
206 227 255
206 227 255
207 227 255
207 227 255
207 227 255
207 227 255
207 228 255
207 228 255
207 228 255
207 228 255
207 228 255
207 228 255
207 228 255
207 228 255
207 228 255
207 228 255
207 228 255
207 228 255
207 228 255
207 228 255
208 228 255
208 228 255
208 228 255
208 228 255
208 228 255
208 228 255
208 228 255
208 228 255
208 228 255
208 228 255
208 228 255
208 228 255
208 228 255
208 228 255
208 228 255
208 228 255
208 228 255
208 228 255
208 228 255
208 228 255
208 228 255
209 228 255
209 228 255
209 229 255
209 229 255
209 229 255
209 229 255
209 229 255
209 229 255
209 229 255
209 229 255
209 229 255
209 229 255
209 229 255
209 229 255
209 229 255
209 229 255
209 229 255
209 229 255
209 229 255
209 229 255
209 229 255
209 229 255
209 229 255
209 228 255
209 228 255
208 228 255
208 228 255
208 228 255
208 228 255
208 228 255
208 228 255
208 228 255
208 228 255
208 228 255
208 228 255
208 228 255
208 228 255
208 228 255
208 228 255
208 228 255
208 228 255
208 228 255
208 228 255
208 228 255
208 228 255
208 228 255
207 228 255
207 228 255
207 228 255
207 228 255
207 228 255
207 228 255
207 228 255
207 228 255
207 228 255
207 228 255
207 228 255
207 228 255
207 228 255
207 228 255
207 227 255
207 227 255
207 227 255
207 227 255
206 227 255
206 227 255
206 227 255
206 227 255
206 227 255
206 227 255
206 227 255
206 227 255
206 227 255
206 227 255
206 227 255
206 227 255
206 227 255
206 227 255
206 227 255
206 227 255
206 227 255
206 227 255
205 227 255
205 227 255
205 227 255
205 227 255
205 227 255
205 227 255
205 227 255
205 227 255
205 227 255
205 227 255
205 226 255
205 226 255
205 226 255
205 226 255
205 226 255
205 226 255
204 226 255
204 226 255
204 226 255
204 226 255
204 226 255
204 226 255
204 226 255
204 226 255
204 226 255
204 226 255
204 226 255
204 226 255
204 226 255
204 226 255
204 226 255
204 226 255
203 226 255
203 226 255
203 226 255
203 226 255
203 226 255
203 226 255
203 226 255
203 225 255
203 225 255
203 225 255
203 225 255
203 225 255
203 225 255
203 225 255
203 225 255
202 225 255
202 225 255
202 225 255
202 225 255
202 225 255
202 225 255
202 225 255
202 225 255
202 225 255
202 225 255
202 225 255
202 225 255
202 225 255
202 225 255
202 225 255
202 225 255
202 225 255
201 225 255
201 225 255
201 225 255
201 225 255
201 225 255
201 224 255
201 224 255
201 224 255
201 224 255
201 224 255
201 224 255
201 224 255
201 224 255
201 224 255
201 224 255
201 224 255
201 224 255
201 224 255
200 224 255
200 224 255
200 224 255
200 224 255
200 224 255
200 224 255
200 224 255
200 224 255
200 224 255
200 224 255
200 224 255
200 224 255
200 224 255
200 224 255
200 224 255
200 224 255
200 224 255
200 224 255
200 224 255
200 224 255
200 224 255
200 224 255
200 224 255
200 224 255
200 224 255
200 224 255
200 224 255
199 224 255
199 224 255
199 224 255
199 224 255
199 224 255
199 224 255
199 224 255
199 224 255
199 223 255
199 223 255
199 223 255
199 223 255
199 223 255
199 223 255
199 223 255
199 223 255
199 223 255
199 223 255
199 223 255
199 223 255
199 223 255
199 223 255
199 223 255
199 223 255
199 223 255
199 223 255
199 223 255
199 223 255
199 223 255
199 223 255
199 223 255
199 223 255
199 223 255
199 224 255
199 224 255
199 224 255
199 224 255
199 224 255
199 224 255
199 224 255
200 224 255
200 224 255
200 224 255
200 224 255
200 224 255
200 224 255
200 224 255
200 224 255
200 224 255
200 224 255
200 224 255
200 224 255
200 224 255
200 224 255
200 224 255
200 224 255
200 224 255
200 224 255
200 224 255
200 224 255
200 224 255
200 224 255
200 224 255
200 224 255
200 224 255
200 224 255
200 224 255
201 224 255
201 224 255
201 224 255
201 224 255
201 224 255
201 224 255
201 224 255
201 224 255
201 224 255
201 224 255
201 224 255
201 224 255
201 224 255
201 225 255
201 225 255
201 225 255
201 225 255
201 225 255
202 225 255
202 225 255
202 225 255
202 225 255
202 225 255
202 225 255
202 225 255
202 225 255
202 225 255
202 225 255
202 225 255
202 225 255
202 225 255
202 225 255
202 225 255
202 225 255
203 225 255
203 225 255
203 225 255
203 225 255
203 225 255
203 225 255
203 225 255
203 225 255
203 225 255
203 226 255
203 226 255
203 226 255
203 226 255
203 226 255
203 226 255
203 226 255
204 226 255
204 226 255
204 226 255
204 226 255
204 226 255
204 226 255
204 226 255
204 226 255
204 226 255
204 226 255
204 226 255
204 226 255
204 226 255
204 226 255
204 226 255
204 226 255
205 226 255
205 226 255
205 226 255
205 226 255
205 226 255
205 226 255
205 227 255
205 227 255
205 227 255
205 227 255
205 227 255
205 227 255
205 227 255
205 227 255
205 227 255
205 227 255
206 227 255
206 227 255
206 227 255
206 227 255
206 227 255
206 227 255
206 227 255
206 227 255
206 227 255
206 227 255
206 227 255
206 227 255
206 227 255
206 227 255
206 227 255
206 227 255
206 227 255
206 227 255
207 227 255
207 227 255
207 227 255
207 227 255
207 228 255
207 228 255
207 228 255
207 228 255
207 228 255
207 228 255
207 228 255
207 228 255
207 228 255
207 228 255
207 228 255
207 228 255
207 228 255
207 228 255
208 228 255
208 228 255
208 228 255
208 228 255
208 228 255
208 228 255
208 228 255
208 228 255
208 228 255
208 228 255
208 228 255
208 228 255
208 228 255
208 228 255
208 228 255
208 228 255
208 228 255
208 228 255
208 228 255
208 228 255
208 228 255
209 228 255
209 228 255
209 229 255
209 229 255
209 229 255
209 229 255
209 229 255
209 229 255
209 229 255
209 229 255
209 229 255
209 229 255
209 229 255
209 229 255
209 229 255
209 229 255
209 229 255
209 229 255
209 229 255
209 229 255
209 229 255
209 229 255
209 229 255
209 229 255
209 229 255
209 229 255
209 229 255
209 229 255
209 229 255
209 229 255
209 228 255
208 228 255
208 228 255
208 228 255
208 228 255
208 228 255
208 228 255
208 228 255
208 228 255
208 228 255
208 228 255
208 228 255
208 228 255
208 228 255
208 228 255
208 228 255
208 228 255
208 228 255
208 228 255
208 228 255
208 228 255
208 228 255
207 228 255
207 228 255
207 228 255
207 228 255
207 228 255
207 228 255
207 228 255
207 228 255
207 228 255
207 228 255
207 228 255
207 228 255
207 228 255
207 228 255
207 227 255
207 227 255
207 227 255
207 227 255
206 227 255
206 227 255
206 227 255
206 227 255
206 227 255
206 227 255
206 227 255
206 227 255
206 227 255
206 227 255
206 227 255
206 227 255
206 227 255
206 227 255
206 227 255
206 227 255
206 227 255
206 227 255
205 227 255
205 227 255
205 227 255
205 227 255
205 227 255
205 227 255
205 227 255
205 227 255
205 227 255
205 226 255
205 226 255
205 226 255
205 226 255
205 226 255
205 226 255
205 226 255
204 226 255
204 226 255
204 226 255
204 226 255
204 226 255
204 226 255
204 226 255
204 226 255
204 226 255
204 226 255
204 226 255
204 226 255
204 226 255
204 226 255
204 226 255
204 226 255
203 226 255
203 226 255
203 226 255
203 226 255
203 226 255
203 226 255
203 226 255
203 225 255
203 225 255
203 225 255
203 225 255
203 225 255
203 225 255
203 225 255
203 225 255
203 225 255
202 225 255
202 225 255
202 225 255
202 225 255
202 225 255
202 225 255
202 225 255
202 225 255
202 225 255
202 225 255
202 225 255
202 225 255
202 225 255
202 225 255
202 225 255
202 225 255
201 225 255
201 225 255
201 225 255
201 225 255
201 225 255
201 224 255
201 224 255
201 224 255
201 224 255
201 224 255
201 224 255
201 224 255
201 224 255
201 224 255
201 224 255
201 224 255
201 224 255
201 224 255
201 224 255
200 224 255
200 224 255
200 224 255
200 224 255
200 224 255
200 224 255
200 224 255
200 224 255
200 224 255
200 224 255
200 224 255
200 224 255
200 224 255
200 224 255
200 224 255
200 224 255
200 224 255
200 224 255
200 224 255
200 224 255
200 224 255
200 224 255
200 224 255
200 224 255
200 224 255
200 224 255
200 224 255
200 224 255
200 224 255
200 224 255
200 224 255
200 224 255
200 224 255
200 224 255
199 224 255
199 224 255
199 224 255
199 224 255
199 224 255
199 224 255
199 224 255
199 224 255
199 224 255
199 224 255
199 224 255
199 224 255
199 224 255
199 224 255
199 224 255
199 224 255
199 224 255
199 224 255
200 224 255
200 224 255
200 224 255
200 224 255
200 224 255
200 224 255
200 224 255
200 224 255
200 224 255
200 224 255
200 224 255
200 224 255
200 224 255
200 224 255
200 224 255
200 224 255
200 224 255
200 224 255
200 224 255
200 224 255
200 224 255
200 224 255
200 224 255
200 224 255
200 224 255
200 224 255
200 224 255
200 224 255
200 224 255
200 224 255
200 224 255
200 224 255
200 224 255
201 224 255
201 224 255
201 224 255
201 224 255
201 224 255
201 224 255
201 224 255
201 224 255
201 224 255
201 224 255
201 224 255
201 224 255
201 224 255
201 224 255
201 224 255
201 225 255
201 225 255
201 225 255
201 225 255
201 225 255
202 225 255
202 225 255
202 225 255
202 225 255
202 225 255
202 225 255
202 225 255
202 225 255
202 225 255
202 225 255
202 225 255
202 225 255
202 225 255
202 225 255
202 225 255
202 225 255
203 225 255
203 225 255
203 225 255
203 225 255
203 225 255
203 225 255
203 225 255
203 225 255
203 225 255
203 226 255
203 226 255
203 226 255
203 226 255
203 226 255
203 226 255
203 226 255
204 226 255
204 226 255
204 226 255
204 226 255
204 226 255
204 226 255
204 226 255
204 226 255
204 226 255
204 226 255
204 226 255
204 226 255
204 226 255
204 226 255
204 226 255
204 226 255
205 226 255
205 226 255
205 226 255
205 226 255
205 226 255
205 226 255
205 227 255
205 227 255
205 227 255
205 227 255
205 227 255
205 227 255
205 227 255
205 227 255
205 227 255
205 227 255
206 227 255
206 227 255
206 227 255
206 227 255
206 227 255
206 227 255
206 227 255
206 227 255
206 227 255
206 227 255
206 227 255
206 227 255
206 227 255
206 227 255
206 227 255
206 227 255
206 227 255
207 227 255
207 227 255
207 227 255
207 227 255
207 227 255
207 228 255
207 228 255
207 228 255
207 228 255
207 228 255
207 228 255
207 228 255
207 228 255
207 228 255
207 228 255
207 228 255
207 228 255
207 228 255
207 228 255
208 228 255
208 228 255
208 228 255
208 228 255
208 228 255
208 228 255
208 228 255
208 228 255
208 228 255
208 228 255
208 228 255
208 228 255
208 228 255
208 228 255
208 228 255
208 228 255
208 228 255
208 228 255
208 228 255
208 228 255
208 228 255
209 228 255
209 229 255
209 229 255
209 229 255
209 229 255
209 229 255
209 229 255
209 229 255
209 229 255
209 229 255
209 229 255
209 229 255
209 229 255
209 229 255
209 229 255
209 229 255
209 229 255
209 229 255
209 229 255
209 229 255
209 229 255
209 229 255
209 229 255
209 229 255
209 229 255
209 229 255
209 229 255
209 229 255
209 229 255
209 229 255
209 229 255
209 229 255
209 229 255
209 229 255
209 229 255
209 229 255
209 228 255
209 228 255
208 228 255
208 228 255
208 228 255
208 228 255
208 228 255
208 228 255
208 228 255
208 228 255
208 228 255
208 228 255
208 228 255
208 228 255
208 228 255
208 228 255
208 228 255
208 228 255
208 228 255
208 228 255
208 228 255
208 228 255
207 228 255
207 228 255
207 228 255
207 228 255
207 228 255
207 228 255
207 228 255
207 228 255
207 228 255
207 228 255
207 228 255
207 228 255
207 228 255
207 228 255
207 227 255
207 227 255
207 227 255
207 227 255
207 227 255
206 227 255
206 227 255
206 227 255
206 227 255
206 227 255
206 227 255
206 227 255
206 227 255
206 227 255
206 227 255
206 227 255
206 227 255
206 227 255
206 227 255
206 227 255
206 227 255
206 227 255
205 227 255
205 227 255
205 227 255
205 227 255
205 227 255
205 227 255
205 227 255
205 227 255
205 227 255
205 226 255
205 226 255
205 226 255
205 226 255
205 226 255
205 226 255
205 226 255
204 226 255
204 226 255
204 226 255
204 226 255
204 226 255
204 226 255
204 226 255
204 226 255
204 226 255
204 226 255
204 226 255
204 226 255
204 226 255
204 226 255
204 226 255
204 226 255
203 226 255
203 226 255
203 226 255
203 226 255
203 226 255
203 226 255
203 226 255
203 225 255
203 225 255
203 225 255
203 225 255
203 225 255
203 225 255
203 225 255
203 225 255
203 225 255
202 225 255
202 225 255
202 225 255
202 225 255
202 225 255
202 225 255
202 225 255
202 225 255
202 225 255
202 225 255
202 225 255
202 225 255
202 225 255
202 225 255
202 225 255
202 225 255
202 225 255
201 225 255
201 225 255
201 225 255
201 225 255
201 225 255
201 224 255
201 224 255
201 224 255
201 224 255
201 224 255
201 224 255
201 224 255
201 224 255
201 224 255
201 224 255
201 224 255
201 224 255
201 224 255
201 224 255
201 224 255
200 224 255
200 224 255
200 224 255
200 224 255
200 224 255
200 224 255
200 224 255
200 224 255
200 224 255
200 224 255
200 224 255
200 224 255
200 224 255
200 224 255
200 224 255
200 224 255
200 224 255
200 224 255
200 224 255
200 224 255
200 224 255
200 224 255
200 224 255
200 224 255
200 224 255
200 224 255
200 224 255
200 224 255
200 224 255
200 224 255
200 224 255
200 224 255
200 224 255
200 224 255
200 224 255
200 224 255
200 224 255
200 224 255
200 224 255
200 224 255
200 224 255
200 224 255
200 224 255
200 224 255
200 224 255
200 224 255
200 224 255
200 224 255
200 224 255
200 224 255
200 224 255
200 224 255
200 224 255
200 224 255
200 224 255
200 224 255
200 224 255
200 224 255
200 224 255
200 224 255
200 224 255
200 224 255
200 224 255
200 224 255
200 224 255
200 224 255
200 224 255
200 224 255
200 224 255
200 224 255
200 224 255
200 224 255
200 224 255
200 224 255
200 224 255
200 224 255
201 224 255
201 224 255
201 224 255
201 224 255
201 224 255
201 224 255
201 224 255
201 224 255
201 224 255
201 224 255
201 224 255
201 224 255
201 224 255
201 224 255
201 224 255
201 225 255
201 225 255
201 225 255
201 225 255
201 225 255
202 225 255
202 225 255
202 225 255
202 225 255
202 225 255
202 225 255
202 225 255
202 225 255
202 225 255
202 225 255
202 225 255
202 225 255
202 225 255
202 225 255
202 225 255
202 225 255
202 225 255
203 225 255
203 225 255
203 225 255
203 225 255
203 225 255
203 225 255
203 225 255
203 225 255
203 225 255
203 226 255
203 226 255
203 226 255
203 226 255
203 226 255
203 226 255
203 226 255
204 226 255
204 226 255
204 226 255
204 226 255
204 226 255
204 226 255
204 226 255
204 226 255
204 226 255
204 226 255
204 226 255
204 226 255
204 226 255
204 226 255
204 226 255
204 226 255
205 226 255
205 226 255
205 226 255
205 226 255
205 226 255
205 226 255
205 227 255
205 227 255
205 227 255
205 227 255
205 227 255
205 227 255
205 227 255
205 227 255
205 227 255
205 227 255
206 227 255
206 227 255
206 227 255
206 227 255
206 227 255
206 227 255
206 227 255
206 227 255
206 227 255
206 227 255
206 227 255
206 227 255
206 227 255
206 227 255
206 227 255
206 227 255
206 227 255
207 227 255
207 227 255
207 227 255
207 227 255
207 227 255
207 228 255
207 228 255
207 228 255
207 228 255
207 228 255
207 228 255
207 228 255
207 228 255
207 228 255
207 228 255
207 228 255
207 228 255
207 228 255
207 228 255
208 228 255
208 228 255
208 228 255
208 228 255
208 228 255
208 228 255
208 228 255
208 228 255
208 228 255
208 228 255
208 228 255
208 228 255
208 228 255
208 228 255
208 228 255
208 228 255
208 228 255
208 228 255
208 228 255
208 228 255
209 228 255
209 228 255
209 229 255
209 229 255
209 229 255
209 229 255
209 229 255
209 229 255
209 229 255
209 229 255
209 229 255
209 229 255
209 229 255
209 229 255
209 229 255
209 229 255
209 229 255
209 229 255
209 229 255
209 229 255
209 229 255
210 229 255
209 229 255
209 229 255
209 229 255
209 229 255
209 229 255
209 229 255
209 229 255
209 229 255
209 229 255
209 229 255
209 229 255
209 229 255
209 229 255
209 229 255
209 229 255
209 229 255
209 229 255
209 229 255
209 229 255
209 229 255
209 229 255
209 228 255
209 228 255
208 228 255
208 228 255
208 228 255
208 228 255
208 228 255
208 228 255
208 228 255
208 228 255
208 228 255
208 228 255
208 228 255
208 228 255
208 228 255
208 228 255
208 228 255
208 228 255
208 228 255
208 228 255
208 228 255
208 228 255
207 228 255
207 228 255
207 228 255
207 228 255
207 228 255
207 228 255
207 228 255
207 228 255
207 228 255
207 228 255
207 228 255
207 228 255
207 228 255
207 228 255
207 227 255
207 227 255
207 227 255
207 227 255
207 227 255
206 227 255
206 227 255
206 227 255
206 227 255
206 227 255
206 227 255
206 227 255
206 227 255
206 227 255
206 227 255
206 227 255
206 227 255
206 227 255
206 227 255
206 227 255
206 227 255
206 227 255
205 227 255
205 227 255
205 227 255
205 227 255
205 227 255
205 227 255
205 227 255
205 227 255
205 227 255
205 227 255
205 226 255
205 226 255
205 226 255
205 226 255
205 226 255
205 226 255
204 226 255
204 226 255
204 226 255
204 226 255
204 226 255
204 226 255
204 226 255
204 226 255
204 226 255
204 226 255
204 226 255
204 226 255
204 226 255
204 226 255
204 226 255
204 226 255
203 226 255
203 226 255
203 226 255
203 226 255
203 226 255
203 226 255
203 226 255
203 225 255
203 225 255
203 225 255
203 225 255
203 225 255
203 225 255
203 225 255
203 225 255
203 225 255
202 225 255
202 225 255
202 225 255
202 225 255
202 225 255
202 225 255
202 225 255
202 225 255
202 225 255
202 225 255
202 225 255
202 225 255
202 225 255
202 225 255
202 225 255
202 225 255
202 225 255
202 225 255
201 225 255
201 225 255
201 225 255
201 225 255
201 225 255
201 224 255
201 224 255
201 224 255
201 224 255
201 224 255
201 224 255
201 224 255
201 224 255
201 224 255
201 224 255
201 224 255
201 224 255
201 224 255
201 224 255
201 224 255
201 224 255
200 224 255
200 224 255
200 224 255
200 224 255
200 224 255
200 224 255
200 224 255
200 224 255
200 224 255
200 224 255
200 224 255
200 224 255
200 224 255
200 224 255
200 224 255
200 224 255
200 224 255
200 224 255
200 224 255
200 224 255
200 224 255
200 224 255
200 224 255
200 224 255
200 224 255
200 224 255
200 224 255
200 224 255
200 224 255
200 224 255
200 224 255
200 224 255
200 224 255
200 224 255
200 224 255
200 224 255
200 224 255
200 224 255
200 224 255
200 224 255
200 224 255
200 224 255
200 224 255
200 224 255
200 224 255
200 224 255
200 224 255
200 224 255
200 224 255
200 224 255
200 224 255
200 224 255
200 224 255
200 224 255
200 224 255
200 224 255
200 224 255
200 224 255
200 224 255
200 224 255
200 224 255
200 224 255
200 224 255
200 224 255
200 224 255
200 224 255
201 224 255
201 224 255
201 224 255
201 224 255
201 224 255
201 224 255
201 224 255
201 224 255
201 224 255
201 224 255
201 224 255
201 224 255
201 224 255
201 224 255
201 224 255
201 225 255
201 225 255
201 225 255
201 225 255
201 225 255
201 225 255
201 225 255
202 225 255
202 225 255
202 225 255
202 225 255
202 225 255
202 225 255
202 225 255
202 225 255
202 225 255
202 225 255
202 225 255
202 225 255
202 225 255
202 225 255
202 225 255
202 225 255
202 225 255
203 225 255
203 225 255
203 225 255
203 225 255
203 225 255
203 225 255
203 225 255
203 225 255
203 225 255
203 226 255
203 226 255
203 226 255
203 226 255
203 226 255
203 226 255
203 226 255
204 226 255
204 226 255
204 226 255
204 226 255
204 226 255
204 226 255
204 226 255
204 226 255
204 226 255
204 226 255
204 226 255
204 226 255
204 226 255
204 226 255
204 226 255
204 226 255
205 226 255
205 226 255
205 226 255
205 226 255
205 226 255
205 226 255
205 226 255
205 227 255
205 227 255
205 227 255
205 227 255
205 227 255
205 227 255
205 227 255
205 227 255
205 227 255
206 227 255
206 227 255
206 227 255
206 227 255
206 227 255
206 227 255
206 227 255
206 227 255
206 227 255
206 227 255
206 227 255
206 227 255
206 227 255
206 227 255
206 227 255
206 227 255
206 227 255
207 227 255
207 227 255
207 227 255
207 227 255
207 227 255
207 228 255
207 228 255
207 228 255
207 228 255
207 228 255
207 228 255
207 228 255
207 228 255
207 228 255
207 228 255
207 228 255
207 228 255
207 228 255
207 228 255
208 228 255
208 228 255
208 228 255
208 228 255
208 228 255
208 228 255
208 228 255
208 228 255
208 228 255
208 228 255
208 228 255
208 228 255
208 228 255
208 228 255
208 228 255
208 228 255
208 228 255
208 228 255
208 228 255
208 228 255
209 228 255
209 229 255
209 229 255
209 229 255
209 229 255
209 229 255
209 229 255
209 229 255
209 229 255
209 229 255
209 229 255
209 229 255
209 229 255
209 229 255
209 229 255
209 229 255
209 229 255
209 229 255
209 229 255
209 229 255
209 229 255
209 229 255
209 229 255
210 229 255
210 229 255
210 229 255
210 229 255
210 229 255
210 229 255
209 229 255
209 229 255
209 229 255
209 229 255
209 229 255
209 229 255
209 229 255
209 229 255
209 229 255
209 229 255
209 229 255
209 229 255
209 229 255
209 229 255
209 229 255
209 229 255
209 229 255
209 229 255
209 229 255
209 229 255
209 229 255
209 228 255
208 228 255
208 228 255
208 228 255
208 228 255
208 228 255
208 228 255
208 228 255
208 228 255
208 228 255
208 228 255
208 228 255
208 228 255
208 228 255
208 228 255
208 228 255
208 228 255
208 228 255
208 228 255
208 228 255
208 228 255
207 228 255
207 228 255
207 228 255
207 228 255
207 228 255
207 228 255
207 228 255
207 228 255
207 228 255
207 228 255
207 228 255
207 228 255
207 228 255
207 228 255
207 227 255
207 227 255
207 227 255
207 227 255
207 227 255
206 227 255
206 227 255
206 227 255
206 227 255
206 227 255
206 227 255
206 227 255
206 227 255
206 227 255
206 227 255
206 227 255
206 227 255
206 227 255
206 227 255
206 227 255
206 227 255
206 227 255
205 227 255
205 227 255
205 227 255
205 227 255
205 227 255
205 227 255
205 227 255
205 227 255
205 227 255
205 227 255
205 226 255
205 226 255
205 226 255
205 226 255
205 226 255
205 226 255
204 226 255
204 226 255
204 226 255
204 226 255
204 226 255
204 226 255
204 226 255
204 226 255
204 226 255
204 226 255
204 226 255
204 226 255
204 226 255
204 226 255
204 226 255
204 226 255
203 226 255
203 226 255
203 226 255
203 226 255
203 226 255
203 226 255
203 226 255
203 225 255
203 225 255
203 225 255
203 225 255
203 225 255
203 225 255
203 225 255
203 225 255
203 225 255
203 225 255
202 225 255
202 225 255
202 225 255
202 225 255
202 225 255
202 225 255
202 225 255
202 225 255
202 225 255
202 225 255
202 225 255
202 225 255
202 225 255
202 225 255
202 225 255
202 225 255
202 225 255
202 225 255
201 225 255
201 225 255
201 225 255
201 225 255
201 225 255
201 225 255
201 224 255
201 224 255
201 224 255
201 224 255
201 224 255
201 224 255
201 224 255
201 224 255
201 224 255
201 224 255
201 224 255
201 224 255
201 224 255
201 224 255
201 224 255
201 224 255
201 224 255
201 224 255
200 224 255
200 224 255
200 224 255
200 224 255
200 224 255
200 224 255
200 224 255
200 224 255
200 224 255
200 224 255
200 224 255
200 224 255
200 224 255
200 224 255
200 224 255
200 224 255
200 224 255
200 224 255
200 224 255
200 224 255
200 224 255
200 224 255
200 224 255
200 224 255
200 224 255
200 224 255
200 224 255
200 224 255
200 224 255
200 224 255
200 224 255
200 224 255
200 224 255
200 224 255
200 224 255
200 224 255
200 224 255
200 224 255
200 224 255
200 224 255
200 224 255
200 224 255
200 224 255
200 224 255
200 224 255
200 224 255
200 224 255
200 224 255
200 224 255
200 224 255
200 224 255
200 224 255
201 224 255
201 224 255
201 224 255
201 224 255
201 224 255
201 224 255
201 224 255
201 224 255
201 224 255
201 224 255
201 224 255
201 224 255
201 224 255
201 224 255
201 224 255
201 224 255
201 224 255
201 224 255
201 225 255
201 225 255
201 225 255
201 225 255
201 225 255
201 225 255
202 225 255
202 225 255
202 225 255
202 225 255
202 225 255
202 225 255
202 225 255
202 225 255
202 225 255
202 225 255
202 225 255
202 225 255
202 225 255
202 225 255
202 225 255
202 225 255
202 225 255
202 225 255
202 225 255
203 225 255
203 225 255
203 225 255
203 225 255
203 225 255
203 225 255
203 225 255
203 225 255
203 225 255
203 226 255
203 226 255
203 226 255
203 226 255
203 226 255
203 226 255
203 226 255
204 226 255
204 226 255
204 226 255
204 226 255
204 226 255
204 226 255
204 226 255
204 226 255
204 226 255
204 226 255
204 226 255
204 226 255
204 226 255
204 226 255
204 226 255
204 226 255
205 226 255
205 226 255
205 226 255
205 226 255
205 226 255
205 226 255
205 227 255
205 227 255
205 227 255
205 227 255
205 227 255
205 227 255
205 227 255
205 227 255
205 227 255
205 227 255
206 227 255
206 227 255
206 227 255
206 227 255
206 227 255
206 227 255
206 227 255
206 227 255
206 227 255
206 227 255
206 227 255
206 227 255
206 227 255
206 227 255
206 227 255
206 227 255
206 227 255
207 227 255
207 227 255
207 227 255
207 227 255
207 227 255
207 228 255
207 228 255
207 228 255
207 228 255
207 228 255
207 228 255
207 228 255
207 228 255
207 228 255
207 228 255
207 228 255
207 228 255
207 228 255
207 228 255
208 228 255
208 228 255
208 228 255
208 228 255
208 228 255
208 228 255
208 228 255
208 228 255
208 228 255
208 228 255
208 228 255
208 228 255
208 228 255
208 228 255
208 228 255
208 228 255
208 228 255
208 228 255
208 228 255
209 228 255
209 228 255
209 229 255
209 229 255
209 229 255
209 229 255
209 229 255
209 229 255
209 229 255
209 229 255
209 229 255
209 229 255
209 229 255
209 229 255
209 229 255
209 229 255
209 229 255
209 229 255
209 229 255
209 229 255
209 229 255
209 229 255
209 229 255
210 229 255
210 229 255
210 229 255
210 229 255
210 229 255
210 229 255
210 229 255
210 229 255
210 229 255
210 229 255
210 229 255
210 229 255
210 229 255
210 229 255
209 229 255
209 229 255
209 229 255
209 229 255
209 229 255
209 229 255
209 229 255
209 229 255
209 229 255
209 229 255
209 229 255
209 229 255
209 229 255
209 229 255
209 229 255
209 229 255
209 229 255
209 229 255
209 229 255
209 229 255
209 228 255
209 228 255
208 228 255
208 228 255
208 228 255
208 228 255
208 228 255
208 228 255
208 228 255
208 228 255
208 228 255
208 228 255
208 228 255
208 228 255
208 228 255
208 228 255
208 228 255
208 228 255
208 228 255
208 228 255
208 228 255
208 228 255
207 228 255
207 228 255
207 228 255
207 228 255
207 228 255
207 228 255
207 228 255
207 228 255
207 228 255
207 228 255
207 228 255
207 228 255
207 228 255
207 228 255
207 227 255
207 227 255
207 227 255
207 227 255
206 227 255
206 227 255
206 227 255
206 227 255
206 227 255
206 227 255
206 227 255
206 227 255
206 227 255
206 227 255
206 227 255
206 227 255
206 227 255
206 227 255
206 227 255
206 227 255
206 227 255
205 227 255
205 227 255
205 227 255
205 227 255
205 227 255
205 227 255
205 227 255
205 227 255
205 227 255
205 227 255
205 226 255
205 226 255
205 226 255
205 226 255
205 226 255
205 226 255
204 226 255
204 226 255
204 226 255
204 226 255
204 226 255
204 226 255
204 226 255
204 226 255
204 226 255
204 226 255
204 226 255
204 226 255
204 226 255
204 226 255
204 226 255
204 226 255
203 226 255
203 226 255
203 226 255
203 226 255
203 226 255
203 226 255
203 226 255
203 226 255
203 225 255
203 225 255
203 225 255
203 225 255
203 225 255
203 225 255
203 225 255
203 225 255
203 225 255
202 225 255
202 225 255
202 225 255
202 225 255
202 225 255
202 225 255
202 225 255
202 225 255
202 225 255
202 225 255
202 225 255
202 225 255
202 225 255
202 225 255
202 225 255
202 225 255
202 225 255
202 225 255
202 225 255
201 225 255
201 225 255
201 225 255
201 225 255
201 225 255
201 225 255
201 225 255
201 224 255
201 224 255
201 224 255
201 224 255
201 224 255
201 224 255
201 224 255
201 224 255
201 224 255
201 224 255
201 224 255
201 224 255
201 224 255
201 224 255
201 224 255
201 224 255
201 224 255
201 224 255
201 224 255
201 224 255
201 224 255
200 224 255
200 224 255
200 224 255
200 224 255
200 224 255
200 224 255
200 224 255
200 224 255
200 224 255
200 224 255
200 224 255
200 224 255
200 224 255
200 224 255
200 224 255
200 224 255
200 224 255
200 224 255
200 224 255
200 224 255
200 224 255
200 224 255
200 224 255
200 224 255
200 224 255
200 224 255
200 224 255
200 224 255
200 224 255
200 224 255
200 224 255
200 224 255
200 224 255
200 224 255
200 224 255
200 224 255
201 224 255
201 224 255
201 224 255
201 224 255
201 224 255
201 224 255
201 224 255
201 224 255
201 224 255
201 224 255
201 224 255
201 224 255
201 224 255
201 224 255
201 224 255
201 224 255
201 224 255
201 224 255
201 224 255
201 224 255
201 224 255
201 224 255
201 225 255
201 225 255
201 225 255
201 225 255
201 225 255
201 225 255
202 225 255
202 225 255
202 225 255
202 225 255
202 225 255
202 225 255
202 225 255
202 225 255
202 225 255
202 225 255
202 225 255
202 225 255
202 225 255
202 225 255
202 225 255
202 225 255
202 225 255
202 225 255
202 225 255
203 225 255
203 225 255
203 225 255
203 225 255
203 225 255
203 225 255
203 225 255
203 225 255
203 225 255
203 226 255
203 226 255
203 226 255
203 226 255
203 226 255
203 226 255
203 226 255
203 226 255
204 226 255
204 226 255
204 226 255
204 226 255
204 226 255
204 226 255
204 226 255
204 226 255
204 226 255
204 226 255
204 226 255
204 226 255
204 226 255
204 226 255
204 226 255
204 226 255
205 226 255
205 226 255
205 226 255
205 226 255
205 226 255
205 226 255
205 227 255
205 227 255
205 227 255
205 227 255
205 227 255
205 227 255
205 227 255
205 227 255
205 227 255
205 227 255
206 227 255
206 227 255
206 227 255
206 227 255
206 227 255
206 227 255
206 227 255
206 227 255
206 227 255
206 227 255
206 227 255
206 227 255
206 227 255
206 227 255
206 227 255
206 227 255
206 227 255
207 227 255
207 227 255
207 227 255
207 227 255
207 228 255
207 228 255
207 228 255
207 228 255
207 228 255
207 228 255
207 228 255
207 228 255
207 228 255
207 228 255
207 228 255
207 228 255
207 228 255
207 228 255
208 228 255
208 228 255
208 228 255
208 228 255
208 228 255
208 228 255
208 228 255
208 228 255
208 228 255
208 228 255
208 228 255
208 228 255
208 228 255
208 228 255
208 228 255
208 228 255
208 228 255
208 228 255
208 228 255
208 228 255
209 228 255
209 228 255
209 229 255
209 229 255
209 229 255
209 229 255
209 229 255
209 229 255
209 229 255
209 229 255
209 229 255
209 229 255
209 229 255
209 229 255
209 229 255
209 229 255
209 229 255
209 229 255
209 229 255
209 229 255
209 229 255
209 229 255
209 229 255
210 229 255
210 229 255
210 229 255
210 229 255
210 229 255
210 229 255
210 229 255
210 229 255
210 229 255
210 229 255
210 229 255
210 229 255
210 229 255
210 229 255
210 229 255
210 229 255
210 229 255
210 229 255
210 229 255
210 229 255
209 229 255
209 229 255
209 229 255
209 229 255
209 229 255
209 229 255
209 229 255
209 229 255
209 229 255
209 229 255
209 229 255
209 229 255
209 229 255
209 229 255
209 229 255
209 229 255
209 229 255
209 229 255
209 229 255
209 229 255
209 229 255
209 228 255
208 228 255
208 228 255
208 228 255
208 228 255
208 228 255
208 228 255
208 228 255
208 228 255
208 228 255
208 228 255
208 228 255
208 228 255
208 228 255
208 228 255
208 228 255
208 228 255
208 228 255
208 228 255
208 228 255
208 228 255
207 228 255
207 228 255
207 228 255
207 228 255
207 228 255
207 228 255
207 228 255
207 228 255
207 228 255
207 228 255
207 228 255
207 228 255
207 228 255
207 228 255
207 227 255
207 227 255
207 227 255
207 227 255
206 227 255
206 227 255
206 227 255
206 227 255
206 227 255
206 227 255
206 227 255
206 227 255
206 227 255
206 227 255
206 227 255
206 227 255
206 227 255
206 227 255
206 227 255
206 227 255
206 227 255
205 227 255
205 227 255
205 227 255
205 227 255
205 227 255
205 227 255
205 227 255
205 227 255
205 227 255
205 227 255
205 226 255
205 226 255
205 226 255
205 226 255
205 226 255
205 226 255
204 226 255
204 226 255
204 226 255
204 226 255
204 226 255
204 226 255
204 226 255
204 226 255
204 226 255
204 226 255
204 226 255
204 226 255
204 226 255
204 226 255
204 226 255
204 226 255
204 226 255
203 226 255
203 226 255
203 226 255
203 226 255
203 226 255
203 226 255
203 226 255
203 225 255
203 225 255
203 225 255
203 225 255
203 225 255
203 225 255
203 225 255
203 225 255
203 225 255
203 225 255
202 225 255
202 225 255
202 225 255
202 225 255
202 225 255
202 225 255
202 225 255
202 225 255
202 225 255
202 225 255
202 225 255
202 225 255
202 225 255
202 225 255
202 225 255
202 225 255
202 225 255
202 225 255
202 225 255
202 225 255
201 225 255
201 225 255
201 225 255
201 225 255
201 225 255
201 225 255
201 225 255
201 224 255
201 224 255
201 224 255
201 224 255
201 224 255
201 224 255
201 224 255
201 224 255
201 224 255
201 224 255
201 224 255
201 224 255
201 224 255
201 224 255
201 224 255
201 224 255
201 224 255
201 224 255
201 224 255
201 224 255
201 224 255
201 224 255
201 224 255
201 224 255
201 224 255
201 224 255
201 224 255
201 224 255
201 224 255
201 224 255
201 224 255
201 224 255
201 224 255
201 224 255
201 224 255
201 224 255
201 224 255
201 224 255
201 224 255
201 224 255
201 224 255
201 224 255
201 224 255
201 224 255
201 224 255
201 224 255
201 224 255
201 224 255
201 224 255
201 224 255
201 224 255
201 224 255
201 224 255
201 224 255
201 224 255
201 224 255
201 224 255
201 224 255
201 224 255
201 224 255
201 224 255
201 224 255
201 224 255
201 224 255
201 224 255
201 224 255
201 224 255
201 224 255
201 225 255
201 225 255
201 225 255
201 225 255
201 225 255
201 225 255
201 225 255
202 225 255
202 225 255
202 225 255
202 225 255
202 225 255
202 225 255
202 225 255
202 225 255
202 225 255
202 225 255
202 225 255
202 225 255
202 225 255
202 225 255
202 225 255
202 225 255
202 225 255
202 225 255
202 225 255
202 225 255
203 225 255
203 225 255
203 225 255
203 225 255
203 225 255
203 225 255
203 225 255
203 225 255
203 225 255
203 225 255
203 226 255
203 226 255
203 226 255
203 226 255
203 226 255
203 226 255
203 226 255
204 226 255
204 226 255
204 226 255
204 226 255
204 226 255
204 226 255
204 226 255
204 226 255
204 226 255
204 226 255
204 226 255
204 226 255
204 226 255
204 226 255
204 226 255
204 226 255
204 226 255
205 226 255
205 226 255
205 226 255
205 226 255
205 226 255
205 226 255
205 227 255
205 227 255
205 227 255
205 227 255
205 227 255
205 227 255
205 227 255
205 227 255
205 227 255
205 227 255
206 227 255
206 227 255
206 227 255
206 227 255
206 227 255
206 227 255
206 227 255
206 227 255
206 227 255
206 227 255
206 227 255
206 227 255
206 227 255
206 227 255
206 227 255
206 227 255
206 227 255
207 227 255
207 227 255
207 227 255
207 227 255
207 228 255
207 228 255
207 228 255
207 228 255
207 228 255
207 228 255
207 228 255
207 228 255
207 228 255
207 228 255
207 228 255
207 228 255
207 228 255
207 228 255
208 228 255
208 228 255
208 228 255
208 228 255
208 228 255
208 228 255
208 228 255
208 228 255
208 228 255
208 228 255
208 228 255
208 228 255
208 228 255
208 228 255
208 228 255
208 228 255
208 228 255
208 228 255
208 228 255
208 228 255
209 228 255
209 228 255
209 229 255
209 229 255
209 229 255
209 229 255
209 229 255
209 229 255
209 229 255
209 229 255
209 229 255
209 229 255
209 229 255
209 229 255
209 229 255
209 229 255
209 229 255
209 229 255
209 229 255
209 229 255
209 229 255
209 229 255
210 229 255
210 229 255
210 229 255
210 229 255
210 229 255
210 229 255
210 229 255
210 229 255
210 229 255
210 229 255
210 229 255
210 229 255
210 229 255
210 229 255
210 229 255
210 229 255
210 229 255
210 229 255
210 229 255
210 229 255
210 229 255
210 229 255
210 229 255
210 229 255
210 229 255
210 229 255
210 229 255
210 229 255
209 229 255
209 229 255
209 229 255
209 229 255
209 229 255
209 229 255
209 229 255
209 229 255
209 229 255
209 229 255
209 229 255
209 229 255
209 229 255
209 229 255
209 229 255
209 229 255
209 229 255
209 229 255
209 229 255
209 229 255
209 228 255
209 228 255
208 228 255
208 228 255
208 228 255
208 228 255
208 228 255
208 228 255
208 228 255
208 228 255
208 228 255
208 228 255
208 228 255
208 228 255
208 228 255
208 228 255
208 228 255
208 228 255
208 228 255
208 228 255
208 228 255
207 228 255
207 228 255
207 228 255
207 228 255
207 228 255
207 228 255
207 228 255
207 228 255
207 228 255
207 228 255
207 228 255
207 228 255
207 228 255
207 228 255
207 227 255
207 227 255
207 227 255
207 227 255
206 227 255
206 227 255
206 227 255
206 227 255
206 227 255
206 227 255
206 227 255
206 227 255
206 227 255
206 227 255
206 227 255
206 227 255
206 227 255
206 227 255
206 227 255
206 227 255
206 227 255
205 227 255
205 227 255
205 227 255
205 227 255
205 227 255
205 227 255
205 227 255
205 227 255
205 227 255
205 227 255
205 226 255
205 226 255
205 226 255
205 226 255
205 226 255
205 226 255
205 226 255
204 226 255
204 226 255
204 226 255
204 226 255
204 226 255
204 226 255
204 226 255
204 226 255
204 226 255
204 226 255
204 226 255
204 226 255
204 226 255
204 226 255
204 226 255
204 226 255
203 226 255
203 226 255
203 226 255
203 226 255
203 226 255
203 226 255
203 226 255
203 226 255
203 225 255
203 225 255
203 225 255
203 225 255
203 225 255
203 225 255
203 225 255
203 225 255
203 225 255
202 225 255
202 225 255
202 225 255
202 225 255
202 225 255
202 225 255
202 225 255
202 225 255
202 225 255
202 225 255
202 225 255
202 225 255
202 225 255
202 225 255
202 225 255
202 225 255
202 225 255
202 225 255
202 225 255
202 225 255
202 225 255
202 225 255
201 225 255
201 225 255
201 225 255
201 225 255
201 225 255
201 225 255
201 225 255
201 225 255
201 224 255
201 224 255
201 224 255
201 224 255
201 224 255
201 224 255
201 224 255
201 224 255
201 224 255
201 224 255
201 224 255
201 224 255
201 224 255
201 224 255
201 224 255
201 224 255
201 224 255
201 224 255
201 224 255
201 224 255
201 224 255
201 224 255
201 224 255
201 224 255
201 224 255
201 224 255
201 224 255
201 224 255
201 224 255
201 224 255
201 224 255
201 224 255
201 224 255
201 224 255
201 224 255
201 224 255
201 224 255
201 224 255
201 224 255
201 224 255
201 224 255
201 224 255
201 224 255
201 224 255
201 224 255
201 224 255
201 224 255
201 224 255
201 224 255
201 224 255
201 224 255
201 224 255
201 224 255
201 224 255
201 224 255
201 224 255
201 225 255
201 225 255
201 225 255
201 225 255
201 225 255
201 225 255
201 225 255
201 225 255
202 225 255
202 225 255
202 225 255
202 225 255
202 225 255
202 225 255
202 225 255
202 225 255
202 225 255
202 225 255
202 225 255
202 225 255
202 225 255
202 225 255
202 225 255
202 225 255
202 225 255
202 225 255
202 225 255
202 225 255
202 225 255
203 225 255
203 225 255
203 225 255
203 225 255
203 225 255
203 225 255
203 225 255
203 225 255
203 225 255
203 225 255
203 226 255
203 226 255
203 226 255
203 226 255
203 226 255
203 226 255
203 226 255
203 226 255
204 226 255
204 226 255
204 226 255
204 226 255
204 226 255
204 226 255
204 226 255
204 226 255
204 226 255
204 226 255
204 226 255
204 226 255
204 226 255
204 226 255
204 226 255
204 226 255
205 226 255
205 226 255
205 226 255
205 226 255
205 226 255
205 226 255
205 226 255
205 227 255
205 227 255
205 227 255
205 227 255
205 227 255
205 227 255
205 227 255
205 227 255
205 227 255
205 227 255
206 227 255
206 227 255
206 227 255
206 227 255
206 227 255
206 227 255
206 227 255
206 227 255
206 227 255
206 227 255
206 227 255
206 227 255
206 227 255
206 227 255
206 227 255
206 227 255
206 227 255
207 227 255
207 227 255
207 227 255
207 227 255
207 228 255
207 228 255
207 228 255
207 228 255
207 228 255
207 228 255
207 228 255
207 228 255
207 228 255
207 228 255
207 228 255
207 228 255
207 228 255
207 228 255
208 228 255
208 228 255
208 228 255
208 228 255
208 228 255
208 228 255
208 228 255
208 228 255
208 228 255
208 228 255
208 228 255
208 228 255
208 228 255
208 228 255
208 228 255
208 228 255
208 228 255
208 228 255
208 228 255
208 228 255
209 228 255
209 229 255
209 229 255
209 229 255
209 229 255
209 229 255
209 229 255
209 229 255
209 229 255
209 229 255
209 229 255
209 229 255
209 229 255
209 229 255
209 229 255
209 229 255
209 229 255
209 229 255
209 229 255
209 229 255
209 229 255
209 229 255
210 229 255
210 229 255
210 229 255
210 229 255
210 229 255
210 229 255
210 229 255
210 229 255
210 229 255
210 229 255
210 229 255
210 229 255
210 229 255
210 229 255
210 229 255
210 229 255
210 229 255
210 229 255
210 229 255
210 229 255
210 229 255
210 229 255
210 229 255
210 229 255
210 229 255
210 229 255
210 229 255
210 229 255
210 229 255
210 229 255
210 229 255
210 229 255
210 229 255
210 229 255
209 229 255
209 229 255
209 229 255
209 229 255
209 229 255
209 229 255
209 229 255
209 229 255
209 229 255
209 229 255
209 229 255
209 229 255
209 229 255
209 229 255
209 229 255
209 229 255
209 229 255
209 229 255
209 229 255
209 229 255
209 228 255
209 228 255
208 228 255
208 228 255
208 228 255
208 228 255
208 228 255
208 228 255
208 228 255
208 228 255
208 228 255
208 228 255
208 228 255
208 228 255
208 228 255
208 228 255
208 228 255
208 228 255
208 228 255
208 228 255
208 228 255
208 228 255
207 228 255
207 228 255
207 228 255
207 228 255
207 228 255
207 228 255
207 228 255
207 228 255
207 228 255
207 228 255
207 228 255
207 228 255
207 228 255
207 227 255
207 227 255
207 227 255
207 227 255
207 227 255
206 227 255
206 227 255
206 227 255
206 227 255
206 227 255
206 227 255
206 227 255
206 227 255
206 227 255
206 227 255
206 227 255
206 227 255
206 227 255
206 227 255
206 227 255
206 227 255
205 227 255
205 227 255
205 227 255
205 227 255
205 227 255
205 227 255
205 227 255
205 227 255
205 227 255
205 227 255
205 226 255
205 226 255
205 226 255
205 226 255
205 226 255
205 226 255
205 226 255
204 226 255
204 226 255
204 226 255
204 226 255
204 226 255
204 226 255
204 226 255
204 226 255
204 226 255
204 226 255
204 226 255
204 226 255
204 226 255
204 226 255
204 226 255
204 226 255
204 226 255
203 226 255
203 226 255
203 226 255
203 226 255
203 226 255
203 226 255
203 226 255
203 225 255
203 225 255
203 225 255
203 225 255
203 225 255
203 225 255
203 225 255
203 225 255
203 225 255
203 225 255
203 225 255
202 225 255
202 225 255
202 225 255
202 225 255
202 225 255
202 225 255
202 225 255
202 225 255
202 225 255
202 225 255
202 225 255
202 225 255
202 225 255
202 225 255
202 225 255
202 225 255
202 225 255
202 225 255
202 225 255
202 225 255
202 225 255
202 225 255
202 225 255
201 225 255
201 225 255
201 225 255
201 225 255
201 225 255
201 225 255
201 225 255
201 225 255
201 225 255
201 225 255
201 224 255
201 224 255
201 224 255
201 224 255
201 224 255
201 224 255
201 224 255
201 224 255
201 224 255
201 224 255
201 224 255
201 224 255
201 224 255
201 224 255
201 224 255
201 224 255
201 224 255
201 224 255
201 224 255
201 224 255
201 224 255
201 224 255
201 224 255
201 224 255
201 224 255
201 224 255
201 224 255
201 224 255
201 224 255
201 224 255
201 224 255
201 224 255
201 224 255
201 224 255
201 224 255
201 224 255
201 224 255
201 224 255
201 224 255
201 224 255
201 225 255
201 225 255
201 225 255
201 225 255
201 225 255
201 225 255
201 225 255
201 225 255
201 225 255
201 225 255
202 225 255
202 225 255
202 225 255
202 225 255
202 225 255
202 225 255
202 225 255
202 225 255
202 225 255
202 225 255
202 225 255
202 225 255
202 225 255
202 225 255
202 225 255
202 225 255
202 225 255
202 225 255
202 225 255
202 225 255
202 225 255
202 225 255
202 225 255
203 225 255
203 225 255
203 225 255
203 225 255
203 225 255
203 225 255
203 225 255
203 225 255
203 225 255
203 225 255
203 225 255
203 226 255
203 226 255
203 226 255
203 226 255
203 226 255
203 226 255
203 226 255
204 226 255
204 226 255
204 226 255
204 226 255
204 226 255
204 226 255
204 226 255
204 226 255
204 226 255
204 226 255
204 226 255
204 226 255
204 226 255
204 226 255
204 226 255
204 226 255
204 226 255
205 226 255
205 226 255
205 226 255
205 226 255
205 226 255
205 226 255
205 226 255
205 227 255
205 227 255
205 227 255
205 227 255
205 227 255
205 227 255
205 227 255
205 227 255
205 227 255
206 227 255
206 227 255
206 227 255
206 227 255
206 227 255
206 227 255
206 227 255
206 227 255
206 227 255
206 227 255
206 227 255
206 227 255
206 227 255
206 227 255
206 227 255
206 227 255
206 227 255
207 227 255
207 227 255
207 227 255
207 227 255
207 227 255
207 228 255
207 228 255
207 228 255
207 228 255
207 228 255
207 228 255
207 228 255
207 228 255
207 228 255
207 228 255
207 228 255
207 228 255
207 228 255
207 228 255
208 228 255
208 228 255
208 228 255
208 228 255
208 228 255
208 228 255
208 228 255
208 228 255
208 228 255
208 228 255
208 228 255
208 228 255
208 228 255
208 228 255
208 228 255
208 228 255
208 228 255
208 228 255
208 228 255
209 228 255
209 229 255
209 229 255
209 229 255
209 229 255
209 229 255
209 229 255
209 229 255
209 229 255
209 229 255
209 229 255
209 229 255
209 229 255
209 229 255
209 229 255
209 229 255
209 229 255
209 229 255
209 229 255
209 229 255
209 229 255
209 229 255
210 229 255
210 229 255
210 229 255
210 229 255
210 229 255
210 229 255
210 229 255
210 229 255
210 229 255
210 229 255
210 229 255
210 229 255
210 229 255
210 229 255
210 229 255
210 229 255
210 229 255
210 229 255
210 229 255
210 230 255
210 229 255
210 229 255
210 229 255
210 229 255
210 229 255
210 229 255
210 229 255
210 229 255
210 229 255
210 229 255
210 229 255
210 229 255
210 229 255
210 229 255
210 229 255
210 229 255
210 229 255
210 229 255
210 229 255
210 229 255
210 229 255
210 229 255
209 229 255
209 229 255
209 229 255
209 229 255
209 229 255
209 229 255
209 229 255
209 229 255
209 229 255
209 229 255
209 229 255
209 229 255
209 229 255
209 229 255
209 229 255
209 229 255
209 229 255
209 229 255
209 229 255
209 229 255
209 228 255
209 228 255
208 228 255
208 228 255
208 228 255
208 228 255
208 228 255
208 228 255
208 228 255
208 228 255
208 228 255
208 228 255
208 228 255
208 228 255
208 228 255
208 228 255
208 228 255
208 228 255
208 228 255
208 228 255
208 228 255
207 228 255
207 228 255
207 228 255
207 228 255
207 228 255
207 228 255
207 228 255
207 228 255
207 228 255
207 228 255
207 228 255
207 228 255
207 228 255
207 228 255
207 227 255
207 227 255
207 227 255
207 227 255
206 227 255
206 227 255
206 227 255
206 227 255
206 227 255
206 227 255
206 227 255
206 227 255
206 227 255
206 227 255
206 227 255
206 227 255
206 227 255
206 227 255
206 227 255
206 227 255
206 227 255
205 227 255
205 227 255
205 227 255
205 227 255
205 227 255
205 227 255
205 227 255
205 227 255
205 227 255
205 227 255
205 226 255
205 226 255
205 226 255
205 226 255
205 226 255
205 226 255
204 226 255
204 226 255
204 226 255
204 226 255
204 226 255
204 226 255
204 226 255
204 226 255
204 226 255
204 226 255
204 226 255
204 226 255
204 226 255
204 226 255
204 226 255
204 226 255
204 226 255
203 226 255
203 226 255
203 226 255
203 226 255
203 226 255
203 226 255
203 226 255
203 226 255
203 225 255
203 225 255
203 225 255
203 225 255
203 225 255
203 225 255
203 225 255
203 225 255
203 225 255
203 225 255
203 225 255
202 225 255
202 225 255
202 225 255
202 225 255
202 225 255
202 225 255
202 225 255
202 225 255
202 225 255
202 225 255
202 225 255
202 225 255
202 225 255
202 225 255
202 225 255
202 225 255
202 225 255
202 225 255
202 225 255
202 225 255
202 225 255
202 225 255
202 225 255
202 225 255
202 225 255
202 225 255
201 225 255
201 225 255
201 225 255
201 225 255
201 225 255
201 225 255
201 225 255
201 225 255
201 225 255
201 225 255
201 225 255
201 225 255
201 225 255
201 225 255
201 225 255
201 225 255
201 225 255
201 224 255
201 225 255
201 224 255
201 224 255
201 224 255
201 224 255
201 224 255
201 224 255
201 224 255
201 224 255
201 224 255
201 224 255
201 225 255
201 225 255
201 225 255
201 225 255
201 225 255
201 225 255
201 225 255
201 225 255
201 225 255
201 225 255
201 225 255
201 225 255
201 225 255
201 225 255
201 225 255
201 225 255
201 225 255
202 225 255
202 225 255
202 225 255
202 225 255
202 225 255
202 225 255
202 225 255
202 225 255
202 225 255
202 225 255
202 225 255
202 225 255
202 225 255
202 225 255
202 225 255
202 225 255
202 225 255
202 225 255
202 225 255
202 225 255
202 225 255
202 225 255
202 225 255
202 225 255
202 225 255
202 225 255
203 225 255
203 225 255
203 225 255
203 225 255
203 225 255
203 225 255
203 225 255
203 225 255
203 225 255
203 225 255
203 226 255
203 226 255
203 226 255
203 226 255
203 226 255
203 226 255
203 226 255
203 226 255
203 226 255
204 226 255
204 226 255
204 226 255
204 226 255
204 226 255
204 226 255
204 226 255
204 226 255
204 226 255
204 226 255
204 226 255
204 226 255
204 226 255
204 226 255
204 226 255
204 226 255
204 226 255
205 226 255
205 226 255
205 226 255
205 226 255
205 226 255
205 226 255
205 227 255
205 227 255
205 227 255
205 227 255
205 227 255
205 227 255
205 227 255
205 227 255
205 227 255
205 227 255
206 227 255
206 227 255
206 227 255
206 227 255
206 227 255
206 227 255
206 227 255
206 227 255
206 227 255
206 227 255
206 227 255
206 227 255
206 227 255
206 227 255
206 227 255
206 227 255
206 227 255
207 227 255
207 227 255
207 227 255
207 227 255
207 228 255
207 228 255
207 228 255
207 228 255
207 228 255
207 228 255
207 228 255
207 228 255
207 228 255
207 228 255
207 228 255
207 228 255
207 228 255
207 228 255
208 228 255
208 228 255
208 228 255
208 228 255
208 228 255
208 228 255
208 228 255
208 228 255
208 228 255
208 228 255
208 228 255
208 228 255
208 228 255
208 228 255
208 228 255
208 228 255
208 228 255
208 228 255
208 228 255
209 228 255
209 228 255
209 229 255
209 229 255
209 229 255
209 229 255
209 229 255
209 229 255
209 229 255
209 229 255
209 229 255
209 229 255
209 229 255
209 229 255
209 229 255
209 229 255
209 229 255
209 229 255
209 229 255
209 229 255
209 229 255
209 229 255
210 229 255
210 229 255
210 229 255
210 229 255
210 229 255
210 229 255
210 229 255
210 229 255
210 229 255
210 229 255
210 229 255
210 229 255
210 229 255
210 229 255
210 229 255
210 229 255
210 229 255
210 229 255
210 229 255
210 229 255
210 229 255
210 229 255
210 230 255
211 230 255
211 230 255
210 230 255
210 230 255
210 230 255
210 229 255
210 229 255
210 229 255
210 229 255
210 229 255
210 229 255
210 229 255
210 229 255
210 229 255
210 229 255
210 229 255
210 229 255
210 229 255
210 229 255
210 229 255
210 229 255
210 229 255
210 229 255
210 229 255
210 229 255
210 229 255
210 229 255
209 229 255
209 229 255
209 229 255
209 229 255
209 229 255
209 229 255
209 229 255
209 229 255
209 229 255
209 229 255
209 229 255
209 229 255
209 229 255
209 229 255
209 229 255
209 229 255
209 229 255
209 229 255
209 229 255
209 229 255
209 228 255
208 228 255
208 228 255
208 228 255
208 228 255
208 228 255
208 228 255
208 228 255
208 228 255
208 228 255
208 228 255
208 228 255
208 228 255
208 228 255
208 228 255
208 228 255
208 228 255
208 228 255
208 228 255
208 228 255
207 228 255
207 228 255
207 228 255
207 228 255
207 228 255
207 228 255
207 228 255
207 228 255
207 228 255
207 228 255
207 228 255
207 228 255
207 228 255
207 228 255
207 227 255
207 227 255
207 227 255
207 227 255
206 227 255
206 227 255
206 227 255
206 227 255
206 227 255
206 227 255
206 227 255
206 227 255
206 227 255
206 227 255
206 227 255
206 227 255
206 227 255
206 227 255
206 227 255
206 227 255
206 227 255
205 227 255
205 227 255
205 227 255
205 227 255
205 227 255
205 227 255
205 227 255
205 227 255
205 227 255
205 227 255
205 226 255
205 226 255
205 226 255
205 226 255
205 226 255
205 226 255
205 226 255
204 226 255
204 226 255
204 226 255
204 226 255
204 226 255
204 226 255
204 226 255
204 226 255
204 226 255
204 226 255
204 226 255
204 226 255
204 226 255
204 226 255
204 226 255
204 226 255
204 226 255
203 226 255
203 226 255
203 226 255
203 226 255
203 226 255
203 226 255
203 226 255
203 226 255
203 225 255
203 225 255
203 225 255
203 225 255
203 225 255
203 225 255
203 225 255
203 225 255
203 225 255
203 225 255
203 225 255
203 225 255
202 225 255
202 225 255
202 225 255
202 225 255
202 225 255
202 225 255
202 225 255
202 225 255
202 225 255
202 225 255
202 225 255
202 225 255
202 225 255
202 225 255
202 225 255
202 225 255
202 225 255
202 225 255
202 225 255
202 225 255
202 225 255
202 225 255
202 225 255
202 225 255
202 225 255
202 225 255
202 225 255
202 225 255
202 225 255
202 225 255
202 225 255
202 225 255
201 225 255
201 225 255
201 225 255
201 225 255
201 225 255
201 225 255
201 225 255
201 225 255
201 225 255
201 225 255
201 225 255
201 225 255
201 225 255
201 225 255
201 225 255
201 225 255
201 225 255
201 225 255
201 225 255
201 225 255
201 225 255
201 225 255
201 225 255
202 225 255
202 225 255
202 225 255
202 225 255
202 225 255
202 225 255
202 225 255
202 225 255
202 225 255
202 225 255
202 225 255
202 225 255
202 225 255
202 225 255
202 225 255
202 225 255
202 225 255
202 225 255
202 225 255
202 225 255
202 225 255
202 225 255
202 225 255
202 225 255
202 225 255
202 225 255
202 225 255
202 225 255
202 225 255
202 225 255
202 225 255
202 225 255
202 225 255
203 225 255
203 225 255
203 225 255
203 225 255
203 225 255
203 225 255
203 225 255
203 225 255
203 225 255
203 225 255
203 225 255
203 226 255
203 226 255
203 226 255
203 226 255
203 226 255
203 226 255
203 226 255
203 226 255
203 226 255
204 226 255
204 226 255
204 226 255
204 226 255
204 226 255
204 226 255
204 226 255
204 226 255
204 226 255
204 226 255
204 226 255
204 226 255
204 226 255
204 226 255
204 226 255
204 226 255
204 226 255
205 226 255
205 226 255
205 226 255
205 226 255
205 226 255
205 226 255
205 226 255
205 227 255
205 227 255
205 227 255
205 227 255
205 227 255
205 227 255
205 227 255
205 227 255
205 227 255
205 227 255
206 227 255
206 227 255
206 227 255
206 227 255
206 227 255
206 227 255
206 227 255
206 227 255
206 227 255
206 227 255
206 227 255
206 227 255
206 227 255
206 227 255
206 227 255
206 227 255
206 227 255
207 227 255
207 227 255
207 227 255
207 227 255
207 228 255
207 228 255
207 228 255
207 228 255
207 228 255
207 228 255
207 228 255
207 228 255
207 228 255
207 228 255
207 228 255
207 228 255
207 228 255
207 228 255
208 228 255
208 228 255
208 228 255
208 228 255
208 228 255
208 228 255
208 228 255
208 228 255
208 228 255
208 228 255
208 228 255
208 228 255
208 228 255
208 228 255
208 228 255
208 228 255
208 228 255
208 228 255
208 228 255
209 228 255
209 229 255
209 229 255
209 229 255
209 229 255
209 229 255
209 229 255
209 229 255
209 229 255
209 229 255
209 229 255
209 229 255
209 229 255
209 229 255
209 229 255
209 229 255
209 229 255
209 229 255
209 229 255
209 229 255
209 229 255
210 229 255
210 229 255
210 229 255
210 229 255
210 229 255
210 229 255
210 229 255
210 229 255
210 229 255
210 229 255
210 229 255
210 229 255
210 229 255
210 229 255
210 229 255
210 229 255
210 229 255
210 229 255
210 229 255
210 229 255
210 229 255
210 229 255
210 230 255
210 230 255
210 230 255
211 230 255
211 230 255
211 230 255
211 230 255
211 230 255
211 230 255
211 230 255
211 230 255
210 230 255
210 230 255
210 230 255
210 229 255
210 229 255
210 229 255
210 229 255
210 229 255
210 229 255
210 229 255
210 229 255
210 229 255
210 229 255
210 229 255
210 229 255
210 229 255
210 229 255
210 229 255
210 229 255
210 229 255
210 229 255
210 229 255
210 229 255
210 229 255
209 229 255
209 229 255
209 229 255
209 229 255
209 229 255
209 229 255
209 229 255
209 229 255
209 229 255
209 229 255
209 229 255
209 229 255
209 229 255
209 229 255
209 229 255
209 229 255
209 229 255
209 229 255
209 229 255
209 229 255
209 228 255
209 228 255
208 228 255
208 228 255
208 228 255
208 228 255
208 228 255
208 228 255
208 228 255
208 228 255
208 228 255
208 228 255
208 228 255
208 228 255
208 228 255
208 228 255
208 228 255
208 228 255
208 228 255
208 228 255
208 228 255
207 228 255
207 228 255
207 228 255
207 228 255
207 228 255
207 228 255
207 228 255
207 228 255
207 228 255
207 228 255
207 228 255
207 228 255
207 228 255
207 227 255
207 227 255
207 227 255
207 227 255
206 227 255
206 227 255
206 227 255
206 227 255
206 227 255
206 227 255
206 227 255
206 227 255
206 227 255
206 227 255
206 227 255
206 227 255
206 227 255
206 227 255
206 227 255
206 227 255
206 227 255
206 227 255
205 227 255
205 227 255
205 227 255
205 227 255
205 227 255
205 227 255
205 227 255
205 227 255
205 227 255
205 226 255
205 226 255
205 226 255
205 226 255
205 226 255
205 226 255
205 226 255
205 226 255
204 226 255
204 226 255
204 226 255
204 226 255
204 226 255
204 226 255
204 226 255
204 226 255
204 226 255
204 226 255
204 226 255
204 226 255
204 226 255
204 226 255
204 226 255
204 226 255
204 226 255
203 226 255
203 226 255
203 226 255
203 226 255
203 226 255
203 226 255
203 226 255
203 226 255
203 226 255
203 225 255
203 225 255
203 225 255
203 225 255
203 225 255
203 225 255
203 225 255
203 225 255
203 225 255
203 225 255
203 225 255
203 225 255
202 225 255
202 225 255
202 225 255
202 225 255
202 225 255
202 225 255
202 225 255
202 225 255
202 225 255
202 225 255
202 225 255
202 225 255
202 225 255
202 225 255
202 225 255
202 225 255
202 225 255
202 225 255
202 225 255
202 225 255
202 225 255
202 225 255
202 225 255
202 225 255
202 225 255
202 225 255
202 225 255
202 225 255
202 225 255
202 225 255
202 225 255
202 225 255
202 225 255
202 225 255
202 225 255
202 225 255
202 225 255
202 225 255
202 225 255
202 225 255
202 225 255
202 225 255
202 225 255
202 225 255
202 225 255
202 225 255
202 225 255
202 225 255
202 225 255
202 225 255
202 225 255
202 225 255
202 225 255
202 225 255
202 225 255
202 225 255
202 225 255
202 225 255
202 225 255
202 225 255
202 225 255
202 225 255
202 225 255
202 225 255
202 225 255
202 225 255
202 225 255
202 225 255
202 225 255
202 225 255
202 225 255
202 225 255
202 225 255
202 225 255
202 225 255
202 225 255
202 225 255
202 225 255
203 225 255
203 225 255
203 225 255
203 225 255
203 225 255
203 225 255
203 225 255
203 225 255
203 225 255
203 225 255
203 225 255
203 225 255
203 226 255
203 226 255
203 226 255
203 226 255
203 226 255
203 226 255
203 226 255
203 226 255
203 226 255
204 226 255
204 226 255
204 226 255
204 226 255
204 226 255
204 226 255
204 226 255
204 226 255
204 226 255
204 226 255
204 226 255
204 226 255
204 226 255
204 226 255
204 226 255
204 226 255
204 226 255
205 226 255
205 226 255
205 226 255
205 226 255
205 226 255
205 226 255
205 226 255
205 227 255
205 227 255
205 227 255
205 227 255
205 227 255
205 227 255
205 227 255
205 227 255
205 227 255
205 227 255
206 227 255
206 227 255
206 227 255
206 227 255
206 227 255
206 227 255
206 227 255
206 227 255
206 227 255
206 227 255
206 227 255
206 227 255
206 227 255
206 227 255
206 227 255
206 227 255
206 227 255
207 227 255
207 227 255
207 227 255
207 227 255
207 227 255
207 228 255
207 228 255
207 228 255
207 228 255
207 228 255
207 228 255
207 228 255
207 228 255
207 228 255
207 228 255
207 228 255
207 228 255
207 228 255
208 228 255
208 228 255
208 228 255
208 228 255
208 228 255
208 228 255
208 228 255
208 228 255
208 228 255
208 228 255
208 228 255
208 228 255
208 228 255
208 228 255
208 228 255
208 228 255
208 228 255
208 228 255
208 228 255
209 228 255
209 228 255
209 229 255
209 229 255
209 229 255
209 229 255
209 229 255
209 229 255
209 229 255
209 229 255
209 229 255
209 229 255
209 229 255
209 229 255
209 229 255
209 229 255
209 229 255
209 229 255
209 229 255
209 229 255
209 229 255
209 229 255
210 229 255
210 229 255
210 229 255
210 229 255
210 229 255
210 229 255
210 229 255
210 229 255
210 229 255
210 229 255
210 229 255
210 229 255
210 229 255
210 229 255
210 229 255
210 229 255
210 229 255
210 229 255
210 229 255
210 229 255
210 229 255
210 230 255
210 230 255
210 230 255
211 230 255
211 230 255
211 230 255
211 230 255
211 230 255
211 230 255
211 230 255
211 230 255
211 230 255
211 230 255
211 230 255
211 230 255
211 230 255
211 230 255
211 230 255
211 230 255
210 230 255
210 230 255
210 230 255
210 229 255
210 229 255
210 229 255
210 229 255
210 229 255
210 229 255
210 229 255
210 229 255
210 229 255
210 229 255
210 229 255
210 229 255
210 229 255
210 229 255
210 229 255
210 229 255
210 229 255
210 229 255
210 229 255
210 229 255
210 229 255
209 229 255
209 229 255
209 229 255
209 229 255
207 227 253
205 225 251
193 211 236
198 217 243
191 209 234
194 213 238
191 209 234
188 207 232
183 201 225
189 208 234
181 198 222
178 196 220
191 210 236
191 210 236
181 199 224
190 209 234
180 198 223
190 209 235
187 205 230
201 220 247
196 215 241
204 224 251
200 220 246
208 228 255
208 228 255
208 228 255
208 228 255
208 228 255
208 228 255
208 228 255
208 228 255
208 228 255
208 228 255
208 228 255
208 228 255
208 228 255
207 228 255
207 228 255
207 228 255
207 228 255
207 228 255
207 228 255
207 228 255
207 228 255
207 228 255
207 228 255
207 228 255
207 228 255
207 228 255
207 228 255
207 227 255
207 227 255
207 227 255
207 227 255
206 227 255
206 227 255
206 227 255
206 227 255
206 227 255
206 227 255
206 227 255
206 227 255
206 227 255
206 227 255
206 227 255
206 227 255
206 227 255
206 227 255
206 227 255
206 227 255
206 227 255
205 227 255
205 227 255
205 227 255
205 227 255
205 227 255
205 227 255
205 227 255
205 227 255
205 227 255
205 227 255
205 226 255
205 226 255
205 226 255
205 226 255
205 226 255
205 226 255
205 226 255
204 226 255
204 226 255
204 226 255
204 226 255
204 226 255
204 226 255
204 226 255
204 226 255
204 226 255
204 226 255
204 226 255
204 226 255
204 226 255
204 226 255
204 226 255
204 226 255
204 226 255
204 226 255
203 226 255
203 226 255
203 226 255
203 226 255
203 226 255
203 226 255
203 226 255
203 226 255
203 226 255
203 225 255
203 225 255
203 225 255
203 225 255
203 225 255
203 225 255
203 225 255
203 225 255
203 225 255
203 225 255
203 225 255
203 225 255
203 225 255
203 225 255
202 225 255
202 225 255
202 225 255
202 225 255
202 225 255
202 225 255
202 225 255
202 225 255
202 225 255
202 225 255
202 225 255
202 225 255
202 225 255
202 225 255
202 225 255
202 225 255
202 225 255
202 225 255
202 225 255
202 225 255
202 225 255
202 225 255
202 225 255
202 225 255
202 225 255
202 225 255
202 225 255
202 225 255
202 225 255
202 225 255
202 225 255
202 225 255
202 225 255
202 225 255
202 225 255
202 225 255
202 225 255
202 225 255
202 225 255
202 225 255
202 225 255
202 225 255
202 225 255
202 225 255
202 225 255
202 225 255
202 225 255
202 225 255
202 225 255
202 225 255
202 225 255
202 225 255
202 225 255
202 225 255
202 225 255
202 225 255
202 225 255
202 225 255
202 225 255
202 225 255
202 225 255
202 225 255
202 225 255
202 225 255
202 225 255
202 225 255
203 225 255
203 225 255
203 225 255
203 225 255
203 225 255
203 225 255
203 225 255
203 225 255
203 225 255
203 225 255
203 225 255
203 225 255
203 225 255
203 225 255
203 226 255
203 226 255
203 226 255
203 226 255
203 226 255
203 226 255
203 226 255
203 226 255
204 226 255
204 226 255
204 226 255
204 226 255
204 226 255
204 226 255
204 226 255
204 226 255
204 226 255
204 226 255
204 226 255
204 226 255
204 226 255
204 226 255
204 226 255
204 226 255
204 226 255
204 226 255
204 226 255
205 226 255
205 226 255
205 226 255
205 226 255
205 226 255
205 226 255
205 226 255
205 227 255
205 227 255
205 227 255
205 227 255
205 227 255
205 227 255
205 227 255
205 227 255
205 227 255
205 227 255
206 227 255
206 227 255
206 227 255
206 227 255
206 227 255
206 227 255
206 227 255
206 227 255
206 227 255
206 227 255
206 227 255
206 227 255
206 227 255
206 227 255
206 227 255
206 227 255
206 227 255
207 227 255
207 227 255
207 227 255
207 227 255
207 228 255
207 228 255
207 228 255
207 228 255
207 228 255
207 228 255
207 228 255
207 228 255
207 228 255
207 228 255
207 228 255
207 228 255
207 228 255
207 228 255
208 228 255
208 228 255
208 228 255
208 228 255
208 228 255
208 228 255
208 228 255
208 228 255
208 228 255
208 228 255
208 228 255
208 228 255
208 228 255
204 224 250
196 214 236
191 207 225
196 212 231
185 200 216
178 190 200
189 204 220
185 197 204
181 191 195
178 191 199
178 190 199
170 180 186
182 193 200
175 187 198
186 198 208
178 190 200
189 204 220
192 207 222
189 205 223
191 207 226
199 215 234
204 222 246
208 228 254
209 229 255
209 229 255
209 229 255
209 229 255
210 229 255
210 229 255
210 229 255
210 229 255
210 229 255
210 229 255
210 229 255
210 229 255
210 229 255
210 229 255
210 229 255
210 229 255
210 229 255
210 229 255
210 229 255
210 229 255
210 229 255
210 229 255
210 229 255
210 229 255
210 229 255
210 230 255
210 230 255
210 230 255
211 230 255
211 230 255
211 230 255
211 230 255
211 230 255
211 230 255
211 230 255
211 230 255
211 230 255
211 230 255
211 230 255
211 230 255
211 230 255
211 230 255
211 230 255
211 230 255
211 230 255
211 230 255
211 230 255
211 230 255
211 230 255
211 230 255
211 230 255
211 230 255
210 230 255
210 230 255
210 230 255
210 229 255
210 229 255
210 229 255
210 229 255
210 229 255
210 229 255
210 229 255
210 229 255
210 229 255
210 229 255
210 229 255
210 229 255
206 225 251
203 222 248
189 207 231
186 204 228
177 195 219
178 195 219
172 190 213
166 183 207
163 182 206
162 180 204
164 182 207
160 179 203
170 189 216
172 192 219
168 188 214
169 189 216
172 192 219
169 189 216
168 188 214
172 193 220
166 186 213
177 199 227
173 194 221
173 195 223
169 190 218
172 193 220
168 188 216
173 194 223
168 188 216
164 184 211
164 183 209
165 185 212
158 177 202
163 182 207
163 182 206
166 185 209
176 195 219
175 194 219
186 205 231
190 209 235
197 216 242
205 225 253
208 228 255
208 228 255
208 228 255
208 228 255
208 228 255
208 228 255
208 228 255
207 228 255
207 228 255
207 228 255
207 228 255
207 228 255
207 228 255
207 228 255
207 228 255
207 228 255
207 228 255
207 228 255
207 228 255
207 228 255
207 227 255
207 227 255
207 227 255
207 227 255
207 227 255
206 227 255
206 227 255
206 227 255
206 227 255
206 227 255
206 227 255
206 227 255
206 227 255
206 227 255
206 227 255
206 227 255
206 227 255
206 227 255
206 227 255
206 227 255
206 227 255
206 227 255
205 227 255
205 227 255
205 227 255
205 227 255
205 227 255
205 227 255
205 227 255
205 227 255
205 227 255
205 227 255
205 226 255
205 226 255
205 226 255
205 226 255
205 226 255
205 226 255
205 226 255
204 226 255
204 226 255
204 226 255
204 226 255
204 226 255
204 226 255
204 226 255
204 226 255
204 226 255
204 226 255
204 226 255
204 226 255
204 226 255
204 226 255
204 226 255
204 226 255
204 226 255
204 226 255
204 226 255
203 226 255
203 226 255
203 226 255
203 226 255
203 226 255
203 226 255
203 226 255
203 226 255
203 226 255
203 225 255
203 225 255
203 225 255
203 225 255
203 225 255
203 225 255
203 225 255
203 225 255
203 225 255
203 225 255
203 225 255
203 225 255
203 225 255
203 225 255
203 225 255
203 225 255
202 225 255
202 225 255
202 225 255
202 225 255
202 225 255
202 225 255
202 225 255
202 225 255
202 225 255
202 225 255
202 225 255
202 225 255
202 225 255
202 225 255
202 225 255
202 225 255
202 225 255
202 225 255
202 225 255
202 225 255
202 225 255
202 225 255
202 225 255
202 225 255
202 225 255
202 225 255
202 225 255
202 225 255
202 225 255
202 225 255
202 225 255
202 225 255
202 225 255
202 225 255
202 225 255
202 225 255
202 225 255
202 225 255
202 225 255
202 225 255
202 225 255
202 225 255
202 225 255
202 225 255
202 225 255
202 225 255
202 225 255
202 225 255
202 225 255
202 225 255
202 225 255
202 225 255
203 225 255
203 225 255
203 225 255
203 225 255
203 225 255
203 225 255
203 225 255
203 225 255
203 225 255
203 225 255
203 225 255
203 225 255
203 225 255
203 225 255
203 225 255
203 226 255
203 226 255
203 226 255
203 226 255
203 226 255
203 226 255
203 226 255
203 226 255
203 226 255
203 226 255
204 226 255
204 226 255
204 226 255
204 226 255
204 226 255
204 226 255
204 226 255
204 226 255
204 226 255
204 226 255
204 226 255
204 226 255
204 226 255
204 226 255
204 226 255
204 226 255
204 226 255
204 226 255
204 226 255
205 226 255
205 226 255
205 226 255
205 226 255
205 226 255
205 226 255
205 226 255
205 227 255
205 227 255
205 227 255
205 227 255
205 227 255
205 227 255
205 227 255
205 227 255
205 227 255
205 227 255
206 227 255
206 227 255
206 227 255
206 227 255
206 227 255
206 227 255
206 227 255
206 227 255
206 227 255
206 227 255
206 227 255
206 227 255
206 227 255
206 227 255
206 227 255
206 227 255
206 227 255
206 227 255
207 227 255
207 227 255
207 227 255
207 227 255
207 228 255
207 228 255
207 228 255
207 228 255
207 228 255
207 228 255
207 228 255
207 228 255
207 228 255
207 228 255
207 228 255
207 228 255
207 228 255
208 228 255
208 228 255
208 228 255
208 228 255
208 228 255
208 228 255
208 228 255
201 220 245
197 215 236
188 202 214
180 193 205
172 183 186
169 179 177
150 154 139
145 148 128
130 130 97
131 129 86
126 124 82
139 136 90
141 138 92
142 139 93
140 138 92
133 131 87
135 133 88
140 137 91
140 138 92
142 139 93
146 143 95
139 136 90
145 141 93
133 130 87
129 125 83
143 140 93
140 137 90
143 139 92
138 134 89
140 137 90
130 126 84
137 133 88
132 128 84
144 143 109
150 152 130
149 155 148
158 161 147
177 186 184
174 183 184
195 210 224
198 215 236
206 225 250
210 229 255
210 229 255
210 229 255
210 229 255
210 229 255
210 229 255
210 229 255
210 229 255
210 229 255
210 229 255
210 229 255
210 229 255
210 230 255
210 230 255
210 230 255
211 230 255
211 230 255
211 230 255
211 230 255
211 230 255
211 230 255
211 230 255
211 230 255
211 230 255
211 230 255
211 230 255
211 230 255
211 230 255
211 230 255
211 230 255
211 230 255
211 230 255
211 230 255
211 230 255
211 230 255
211 230 255
211 230 255
211 230 255
211 230 255
211 230 255
211 230 255
211 230 255
211 230 255
211 230 255
211 230 255
211 230 255
211 230 255
210 230 255
210 230 255
210 230 255
210 229 255
210 229 255
205 224 250
189 207 230
187 205 229
181 199 223
174 192 216
165 183 206
161 178 202
164 183 208
169 188 213
173 193 219
174 194 221
174 194 221
179 200 228
179 200 228
179 200 228
177 199 227
177 199 227
177 199 228
178 199 228
177 199 228
177 199 228
177 199 228
175 198 228
176 199 228
176 199 228
175 198 228
175 198 228
175 198 228
175 198 228
175 198 228
175 198 228
175 198 228
175 198 228
175 198 228
175 198 228
175 198 228
175 198 228
175 198 228
175 198 227
174 196 226
174 197 227
173 195 225
173 196 225
173 195 224
167 188 216
166 186 213
164 185 212
164 184 211
161 180 205
176 196 222
176 195 220
188 207 234
193 212 238
204 224 252
208 228 255
208 228 255
208 228 255
208 228 255
207 228 255
207 228 255
207 228 255
207 228 255
207 228 255
207 228 255
207 228 255
207 228 255
207 228 255
207 228 255
207 228 255
207 228 255
207 228 255
207 228 255
207 227 255
207 227 255
207 227 255
207 227 255
206 227 255
206 227 255
206 227 255
206 227 255
206 227 255
206 227 255
206 227 255
206 227 255
206 227 255
206 227 255
206 227 255
206 227 255
206 227 255
206 227 255
206 227 255
206 227 255
206 227 255
205 227 255
205 227 255
205 227 255
205 227 255
205 227 255
205 227 255
205 227 255
205 227 255
205 227 255
205 227 255
205 227 255
205 226 255
205 226 255
205 226 255
205 226 255
205 226 255
205 226 255
205 226 255
204 226 255
204 226 255
204 226 255
204 226 255
204 226 255
204 226 255
204 226 255
204 226 255
204 226 255
204 226 255
204 226 255
204 226 255
204 226 255
204 226 255
204 226 255
204 226 255
204 226 255
204 226 255
204 226 255
204 226 255
203 226 255
203 226 255
203 226 255
203 226 255
203 226 255
203 226 255
203 226 255
203 226 255
203 226 255
203 226 255
203 225 255
203 225 255
203 225 255
203 225 255
203 225 255
203 225 255
203 225 255
203 225 255
203 225 255
203 225 255
203 225 255
203 225 255
203 225 255
203 225 255
203 225 255
203 225 255
203 225 255
203 225 255
203 225 255
203 225 255
202 225 255
202 225 255
202 225 255
202 225 255
202 225 255
202 225 255
202 225 255
202 225 255
202 225 255
202 225 255
202 225 255
202 225 255
202 225 255
202 225 255
202 225 255
202 225 255
202 225 255
202 225 255
202 225 255
202 225 255
202 225 255
202 225 255
202 225 255
202 225 255
202 225 255
202 225 255
202 225 255
202 225 255
202 225 255
202 225 255
202 225 255
202 225 255
202 225 255
203 225 255
203 225 255
203 225 255
203 225 255
203 225 255
203 225 255
203 225 255
203 225 255
203 225 255
203 225 255
203 225 255
203 225 255
203 225 255
203 225 255
203 225 255
203 225 255
203 225 255
203 225 255
203 226 255
203 226 255
203 226 255
203 226 255
203 226 255
203 226 255
203 226 255
203 226 255
203 226 255
203 226 255
203 226 255
204 226 255
204 226 255
204 226 255
204 226 255
204 226 255
204 226 255
204 226 255
204 226 255
204 226 255
204 226 255
204 226 255
204 226 255
204 226 255
204 226 255
204 226 255
204 226 255
204 226 255
204 226 255
204 226 255
204 226 255
205 226 255
205 226 255
205 226 255
205 226 255
205 226 255
205 226 255
205 226 255
205 227 255
205 227 255
205 227 255
205 227 255
205 227 255
205 227 255
205 227 255
205 227 255
205 227 255
205 227 255
205 227 255
206 227 255
206 227 255
206 227 255
206 227 255
206 227 255
206 227 255
206 227 255
206 227 255
206 227 255
206 227 255
206 227 255
206 227 255
206 227 255
206 227 255
206 227 255
206 227 255
206 227 255
207 227 255
207 227 255
207 227 255
207 227 255
207 228 255
207 228 255
207 228 255
207 228 255
207 228 255
207 228 255
207 228 255
207 228 255
207 228 255
207 228 255
207 228 255
207 228 255
207 228 255
207 228 255
208 228 255
208 228 255
208 228 255
208 228 255
202 220 242
189 205 221
184 196 201
171 178 169
155 159 144
145 144 108
131 128 85
130 127 84
143 140 93
135 133 89
127 125 83
147 145 97
145 143 95
127 126 84
151 149 99
130 128 85
142 140 94
143 141 95
151 149 100
149 147 98
144 142 95
142 140 93
146 145 97
146 144 96
139 137 92
148 146 97
144 142 95
145 143 95
142 140 93
148 145 97
143 141 94
146 144 96
154 151 100
152 149 99
140 138 92
147 144 96
150 147 97
138 135 90
151 148 98
137 134 89
144 141 93
144 141 94
144 141 93
135 132 87
154 148 97
147 143 94
129 125 83
136 132 87
143 142 112
171 175 162
171 178 175
183 195 205
188 202 216
204 222 243
210 229 255
210 229 255
210 230 255
210 230 255
210 230 255
211 230 255
211 230 255
211 230 255
211 230 255
211 230 255
211 230 255
211 230 255
211 230 255
211 230 255
211 230 255
211 230 255
211 230 255
211 230 255
211 230 255
211 230 255
211 230 255
211 230 255
211 230 255
211 230 255
211 230 255
211 230 255
211 230 255
211 230 255
211 230 255
211 230 255
211 230 255
211 230 255
211 230 255
211 230 255
211 230 255
211 230 255
211 230 255
211 230 255
211 230 255
211 230 255
211 230 255
210 228 254
197 215 240
184 201 225
174 190 213
164 181 204
162 180 203
167 185 209
169 188 213
177 197 224
177 198 225
179 200 227
178 199 227
179 200 228
178 200 228
178 200 228
177 199 228
178 200 228
176 199 228
176 199 228
177 199 228
176 198 228
175 198 228
175 198 228
175 198 228
175 198 228
175 198 228
174 198 228
174 198 228
174 197 228
174 197 228
173 197 228
173 197 228
173 197 228
173 197 228
173 197 228
172 197 228
173 197 228
173 197 228
172 197 228
172 197 228
173 197 228
172 197 228
173 197 228
172 197 228
173 197 228
172 197 228
173 197 228
173 197 228
173 197 228
173 197 228
174 197 228
174 198 228
173 196 226
174 197 227
175 198 228
174 196 226
170 192 220
167 188 216
165 185 212
160 179 205
169 189 214
181 201 226
189 209 235
205 225 253
208 228 255
208 228 255
208 228 255
207 228 255
207 228 255
207 228 255
207 228 255
207 228 255
207 228 255
207 228 255
207 228 255
207 228 255
207 228 255
207 228 255
207 228 255
207 228 255
207 228 255
207 227 255
207 227 255
207 227 255
207 227 255
206 227 255
206 227 255
206 227 255
206 227 255
206 227 255
206 227 255
206 227 255
206 227 255
206 227 255
206 227 255
206 227 255
206 227 255
206 227 255
206 227 255
206 227 255
206 227 255
206 227 255
205 227 255
205 227 255
205 227 255
205 227 255
205 227 255
205 227 255
205 227 255
205 227 255
205 227 255
205 227 255
205 227 255
205 226 255
205 226 255
205 226 255
205 226 255
205 226 255
205 226 255
205 226 255
204 226 255
204 226 255
204 226 255
204 226 255
204 226 255
204 226 255
204 226 255
204 226 255
204 226 255
204 226 255
204 226 255
204 226 255
204 226 255
204 226 255
204 226 255
204 226 255
204 226 255
204 226 255
204 226 255
204 226 255
204 226 255
203 226 255
203 226 255
203 226 255
203 226 255
203 226 255
203 226 255
203 226 255
203 226 255
203 226 255
203 226 255
203 226 255
203 226 255
203 225 255
203 225 255
203 225 255
203 225 255
203 225 255
203 225 255
203 225 255
203 225 255
203 225 255
203 225 255
203 225 255
203 225 255
203 225 255
203 225 255
203 225 255
203 225 255
203 225 255
203 225 255
203 225 255
203 225 255
203 225 255
203 225 255
203 225 255
203 225 255
203 225 255
203 225 255
203 225 255
203 225 255
203 225 255
203 225 255
203 225 255
203 225 255
203 225 255
203 225 255
203 225 255
203 225 255
203 225 255
203 225 255
203 225 255
203 225 255
203 225 255
203 225 255
203 225 255
203 225 255
203 225 255
203 225 255
203 225 255
203 225 255
203 225 255
203 225 255
203 225 255
203 225 255
203 225 255
203 225 255
203 225 255
203 225 255
203 225 255
203 225 255
203 226 255
203 226 255
203 226 255
203 226 255
203 226 255
203 226 255
203 226 255
203 226 255
203 226 255
203 226 255
203 226 255
203 226 255
204 226 255
204 226 255
204 226 255
204 226 255
204 226 255
204 226 255
204 226 255
204 226 255
204 226 255
204 226 255
204 226 255
204 226 255
204 226 255
204 226 255
204 226 255
204 226 255
204 226 255
204 226 255
204 226 255
204 226 255
204 226 255
205 226 255
205 226 255
205 226 255
205 226 255
205 226 255
205 226 255
205 226 255
205 227 255
205 227 255
205 227 255
205 227 255
205 227 255
205 227 255
205 227 255
205 227 255
205 227 255
205 227 255
205 227 255
206 227 255
206 227 255
206 227 255
206 227 255
206 227 255
206 227 255
206 227 255
206 227 255
206 227 255
206 227 255
206 227 255
206 227 255
206 227 255
206 227 255
206 227 255
206 227 255
206 227 255
207 227 255
207 227 255
207 227 255
207 227 255
207 227 255
207 228 255
207 228 255
207 228 255
207 228 255
207 228 255
207 228 255
207 228 255
207 228 255
207 228 255
207 228 255
207 228 255
207 228 255
207 228 255
208 228 255
208 228 255
208 228 255
203 223 247
188 204 220
174 186 194
152 159 153
139 141 112
122 120 80
124 123 82
135 133 89
140 139 93
136 135 90
134 133 89
134 133 89
140 140 94
138 137 93
148 146 98
138 137 92
139 138 93
136 135 90
146 144 96
141 140 94
140 140 94
139 138 93
145 143 96
148 146 97
146 144 97
146 144 97
143 142 95
149 147 98
146 144 97
149 147 99
144 142 95
151 149 100
145 143 96
146 144 97
144 142 95
147 144 96
148 146 98
145 142 95
140 138 93
150 148 99
156 153 102
145 143 95
136 134 89
152 149 99
137 135 90
144 141 94
145 142 95
149 146 97
146 143 95
139 136 90
155 151 99
143 140 93
148 144 95
147 142 94
139 135 89
141 136 90
134 130 85
135 131 86
132 127 84
142 140 107
158 162 149
182 191 191
188 201 213
199 216 238
211 230 255
211 230 255
211 230 255
211 230 255
211 230 255
211 230 255
211 230 255
211 230 255
211 230 255
211 230 255
211 230 255
211 230 255
211 230 255
211 230 255
211 230 255
211 230 255
211 230 255
211 230 255
211 230 255
211 230 255
211 230 255
211 230 255
211 230 255
211 230 255
211 230 255
211 230 255
211 230 255
211 230 255
211 230 255
211 230 255
211 230 255
211 230 255
201 219 244
188 206 230
179 196 219
165 182 204
164 182 206
168 186 211
175 194 219
178 198 225
180 200 227
178 199 226
180 201 228
179 200 228
179 200 228
178 200 228
178 200 228
178 200 228
177 199 228
176 199 228
176 199 228
176 199 228
176 198 228
176 198 228
175 198 228
175 198 228
174 198 228
174 197 228
174 197 228
173 197 228
173 197 228
173 197 228
173 197 228
173 197 228
172 197 228
172 197 228
172 196 228
171 196 228
172 196 228
171 196 228
171 196 228
171 196 228
171 196 228
171 196 228
171 196 228
171 196 228
170 196 228
171 196 228
171 196 228
170 196 228
171 196 228
170 196 228
171 196 228
171 196 228
171 196 228
171 196 228
171 196 228
172 196 228
172 196 228
172 197 228
172 196 228
173 197 228
173 197 228
173 197 228
173 197 228
170 194 224
171 194 224
168 190 219
162 183 211
161 181 208
167 186 212
174 193 218
184 203 228
195 214 240
208 228 255
208 228 255
207 228 255
207 228 255
207 228 255
207 228 255
207 228 255
207 228 255
207 228 255
207 228 255
207 228 255
207 228 255
207 228 255
207 228 255
207 228 255
207 228 255
207 227 255
207 227 255
207 227 255
207 227 255
206 227 255
206 227 255
206 227 255
206 227 255
206 227 255
206 227 255
206 227 255
206 227 255
206 227 255
206 227 255
206 227 255
206 227 255
206 227 255
206 227 255
206 227 255
206 227 255
206 227 255
206 227 255
205 227 255
205 227 255
205 227 255
205 227 255
205 227 255
205 227 255
205 227 255
205 227 255
205 227 255
205 227 255
205 227 255
205 226 255
205 226 255
205 226 255
205 226 255
205 226 255
205 226 255
205 226 255
205 226 255
204 226 255
204 226 255
204 226 255
204 226 255
204 226 255
204 226 255
204 226 255
204 226 255
204 226 255
204 226 255
204 226 255
204 226 255
204 226 255
204 226 255
204 226 255
204 226 255
204 226 255
204 226 255
204 226 255
204 226 255
204 226 255
204 226 255
203 226 255
203 226 255
203 226 255
203 226 255
203 226 255
203 226 255
203 226 255
203 226 255
203 226 255
203 226 255
203 226 255
203 226 255
203 226 255
203 226 255
203 226 255
203 226 255
203 225 255
203 225 255
203 225 255
203 225 255
203 225 255
203 225 255
203 225 255
203 225 255
203 225 255
203 225 255
203 225 255
203 225 255
203 225 255
203 225 255
203 225 255
203 225 255
203 225 255
203 225 255
203 225 255
203 225 255
203 225 255
203 225 255
203 225 255
203 225 255
203 225 255
203 225 255
203 225 255
203 225 255
203 225 255
203 225 255
203 225 255
203 225 255
203 225 255
203 225 255
203 225 255
203 225 255
203 225 255
203 225 255
203 225 255
203 226 255
203 226 255
203 226 255
203 226 255
203 226 255
203 226 255
203 226 255
203 226 255
203 226 255
203 226 255
203 226 255
203 226 255
203 226 255
203 226 255
203 226 255
204 226 255
204 226 255
204 226 255
204 226 255
204 226 255
204 226 255
204 226 255
204 226 255
204 226 255
204 226 255
204 226 255
204 226 255
204 226 255
204 226 255
204 226 255
204 226 255
204 226 255
204 226 255
204 226 255
204 226 255
204 226 255
204 226 255
204 226 255
205 226 255
205 226 255
205 226 255
205 226 255
205 226 255
205 226 255
205 226 255
205 227 255
205 227 255
205 227 255
205 227 255
205 227 255
205 227 255
205 227 255
205 227 255
205 227 255
205 227 255
205 227 255
206 227 255
206 227 255
206 227 255
206 227 255
206 227 255
206 227 255
206 227 255
206 227 255
206 227 255
206 227 255
206 227 255
206 227 255
206 227 255
206 227 255
206 227 255
206 227 255
206 227 255
206 227 255
207 227 255
207 227 255
207 227 255
207 227 255
207 228 255
207 228 255
207 228 255
207 228 255
207 228 255
207 228 255
207 228 255
207 228 255
207 228 255
207 228 255
207 228 255
207 228 255
207 228 255
207 228 255
208 228 255
207 227 254
200 218 240
184 198 213
166 173 166
141 143 119
125 124 85
132 131 87
134 133 90
142 140 94
128 127 85
133 132 89
139 138 93
141 140 95
142 142 95
133 133 90
142 141 95
138 138 93
148 147 99
141 140 95
144 143 97
142 141 95
146 145 97
146 145 98
143 143 96
150 149 101
147 146 98
151 150 101
149 148 99
140 138 93
146 146 98
150 148 99
140 140 94
157 155 104
148 147 99
146 145 98
150 149 100
147 145 97
147 145 97
150 148 99
154 152 102
154 152 102
152 150 101
149 147 99
145 143 96
148 147 99
148 145 97
153 151 101
154 151 101
154 152 102
150 149 99
153 151 101
152 149 99
147 145 97
150 147 97
156 152 101
142 140 93
150 147 97
145 142 94
141 138 91
144 141 93
150 147 97
148 144 95
151 147 97
150 147 97
143 138 91
137 134 88
147 142 93
139 134 88
142 137 90
151 150 121
170 176 169
186 195 197
202 218 239
211 230 255
211 230 255
211 230 255
211 230 255
211 230 255
211 230 255
211 230 255
211 230 255
211 230 255
211 230 255
211 230 255
211 230 255
211 230 255
211 230 255
212 230 255
212 230 255
212 230 255
212 230 255
211 230 255
211 230 255
211 230 255
211 230 255
211 230 255
211 230 255
206 224 249
193 210 234
183 201 224
175 193 216
164 181 204
176 195 220
180 200 226
179 199 226
179 199 226
181 201 228
179 201 228
179 200 228
179 200 228
178 200 228
178 200 228
177 199 228
177 199 228
177 199 228
176 199 228
176 198 228
175 198 228
175 198 228
175 198 228
175 198 228
173 197 228
173 197 228
174 198 228
173 197 228
173 197 228
173 197 228
172 197 228
173 197 228
172 196 228
172 197 228
172 196 228
171 196 228
171 196 228
171 196 228
170 196 228
171 196 228
170 196 228
170 196 228
171 196 228
170 195 228
170 195 228
170 195 228
170 195 228
169 195 228
170 195 228
169 195 228
169 195 228
169 195 228
169 195 228
169 195 228
169 195 228
169 195 228
169 195 228
169 195 228
169 195 228
170 195 228
169 195 228
170 195 228
170 196 228
170 196 228
170 196 228
170 196 228
171 196 228
172 196 228
172 197 228
172 197 228
172 197 228
173 197 228
170 193 224
171 194 224
164 186 214
163 184 211
157 176 200
179 198 224
192 211 238
201 220 247
208 228 255
208 228 255
207 228 255
207 228 255
207 228 255
207 228 255
207 228 255
207 228 255
207 228 255
207 228 255
207 228 255
207 228 255
207 228 255
207 228 255
207 228 255
207 228 255
207 227 255
207 227 255
207 227 255
207 227 255
206 227 255
206 227 255
206 227 255
206 227 255
206 227 255
206 227 255
206 227 255
206 227 255
206 227 255
206 227 255
206 227 255
206 227 255
206 227 255
206 227 255
206 227 255
206 227 255
206 227 255
206 227 255
205 227 255
205 227 255
205 227 255
205 227 255
205 227 255
205 227 255
205 227 255
205 227 255
205 227 255
205 227 255
205 227 255
205 227 255
205 226 255
205 226 255
205 226 255
205 226 255
205 226 255
205 226 255
205 226 255
204 226 255
204 226 255
204 226 255
204 226 255
204 226 255
204 226 255
204 226 255
204 226 255
204 226 255
204 226 255
204 226 255
204 226 255
204 226 255
204 226 255
204 226 255
204 226 255
204 226 255
204 226 255
204 226 255
204 226 255
204 226 255
204 226 255
204 226 255
204 226 255
204 226 255
203 226 255
203 226 255
203 226 255
203 226 255
203 226 255
203 226 255
203 226 255
203 226 255
203 226 255
203 226 255
203 226 255
203 226 255
203 226 255
203 226 255
203 226 255
203 226 255
203 226 255
203 226 255
203 226 255
203 226 255
203 226 255
203 226 255
203 226 255
203 226 255
203 226 255
203 226 255
203 226 255
203 226 255
203 225 255
203 226 255
203 226 255
203 226 255
203 226 255
203 226 255
203 226 255
203 226 255
203 226 255
203 226 255
203 226 255
203 226 255
203 226 255
203 226 255
203 226 255
203 226 255
203 226 255
203 226 255
203 226 255
203 226 255
203 226 255
203 226 255
203 226 255
203 226 255
203 226 255
203 226 255
203 226 255
203 226 255
204 226 255
204 226 255
204 226 255
204 226 255
204 226 255
204 226 255
204 226 255
204 226 255
204 226 255
204 226 255
204 226 255
204 226 255
204 226 255
204 226 255
204 226 255
204 226 255
204 226 255
204 226 255
204 226 255
204 226 255
204 226 255
204 226 255
204 226 255
204 226 255
204 226 255
205 226 255
205 226 255
205 226 255
205 226 255
205 226 255
205 226 255
205 226 255
205 226 255
205 227 255
205 227 255
205 227 255
205 227 255
205 227 255
205 227 255
205 227 255
205 227 255
205 227 255
205 227 255
205 227 255
206 227 255
206 227 255
206 227 255
206 227 255
206 227 255
206 227 255
206 227 255
206 227 255
206 227 255
206 227 255
206 227 255
206 227 255
206 227 255
206 227 255
206 227 255
206 227 255
206 227 255
206 227 255
207 227 255
207 227 255
207 227 255
207 227 255
207 228 255
207 228 255
207 228 255
207 228 255
207 228 255
207 228 255
207 228 255
207 228 255
207 228 255
207 228 255
207 228 255
207 228 255
207 228 255
207 228 255
208 228 255
208 228 255
200 219 242
188 203 219
167 174 168
140 140 108
150 148 99
140 139 93
133 132 88
143 142 95
137 136 91
141 140 94
140 140 94
147 146 99
140 139 94
145 145 97
149 149 101
145 145 97
144 143 96
152 151 102
142 141 95
143 143 97
151 151 102
147 147 99
151 151 102
152 152 103
152 152 103
148 147 99
146 146 98
150 149 101
146 147 99
146 146 99
147 146 99
145 145 97
148 147 99
150 150 101
149 148 100
153 152 103
151 150 101
156 156 105
156 154 104
151 150 101
157 155 104
155 154 104
153 151 101
158 157 106
156 155 104
155 154 103
152 150 100
153 151 101
150 148 99
148 147 99
146 144 96
153 151 101
156 153 102
154 151 100
153 151 101
152 150 100
147 145 97
147 144 96
152 149 99
149 146 97
152 148 99
148 145 97
145 141 94
157 152 101
141 137 90
153 150 100
145 142 94
149 145 96
139 135 90
144 140 92
136 133 88
140 136 89
150 145 95
138 134 88
146 141 93
150 144 94
156 153 118
166 170 159
180 191 201
207 224 245
211 230 255
211 230 255
211 230 255
211 230 255
211 230 255
211 230 255
212 230 255
212 230 255
212 230 255
212 230 255
212 230 255
212 230 255
212 230 255
212 230 255
212 230 255
212 230 255
212 230 255
202 220 245
188 206 229
168 185 207
168 185 208
170 188 212
178 197 223
180 200 226
181 201 228
181 201 228
180 201 228
180 201 228
179 200 228
179 200 228
178 200 228
178 200 228
177 199 228
177 199 228
176 199 228
176 199 228
176 198 228
175 198 228
175 198 228
175 198 228
174 198 228
174 198 228
173 197 228
174 197 228
173 197 228
172 197 228
173 197 228
172 196 228
172 196 228
172 197 228
172 196 228
172 196 228
171 196 228
171 196 228
171 196 228
170 195 228
170 196 228
170 195 228
170 195 228
169 195 228
170 195 228
170 195 228
169 195 228
169 195 228
169 195 228
168 195 228
168 195 228
169 195 228
168 195 228
168 195 228
168 194 228
168 194 228
168 194 228
168 194 228
168 194 228
168 194 228
168 194 228
168 194 228
168 194 228
168 194 228
168 194 228
168 194 228
168 195 228
169 195 228
168 195 228
168 195 228
169 195 228
169 195 228
170 195 228
170 196 228
170 196 228
170 196 228
171 196 228
172 197 228
172 197 228
173 197 228
170 193 224
165 187 216
167 188 217
160 180 207
164 183 208
183 202 228
197 217 244
207 227 254
208 228 255
208 228 255
207 228 255
207 228 255
207 228 255
207 228 255
207 228 255
207 228 255
207 228 255
207 228 255
207 228 255
207 228 255
207 228 255
207 228 255
207 228 255
207 228 255
207 227 255
207 227 255
207 227 255
207 227 255
206 227 255
206 227 255
206 227 255
206 227 255
206 227 255
206 227 255
206 227 255
206 227 255
206 227 255
206 227 255
206 227 255
206 227 255
206 227 255
206 227 255
206 227 255
206 227 255
206 227 255
206 227 255
205 227 255
205 227 255
205 227 255
205 227 255
205 227 255
205 227 255
205 227 255
205 227 255
205 227 255
205 227 255
205 227 255
205 227 255
205 226 255
205 226 255
205 226 255
205 226 255
205 226 255
205 226 255
205 226 255
205 226 255
204 226 255
204 226 255
204 226 255
204 226 255
204 226 255
204 226 255
204 226 255
204 226 255
204 226 255
204 226 255
204 226 255
204 226 255
204 226 255
204 226 255
204 226 255
204 226 255
204 226 255
204 226 255
204 226 255
204 226 255
204 226 255
204 226 255
204 226 255
204 226 255
204 226 255
204 226 255
204 226 255
204 226 255
204 226 255
204 226 255
203 226 255
203 226 255
203 226 255
203 226 255
203 226 255
203 226 255
203 226 255
203 226 255
203 226 255
203 226 255
203 226 255
203 226 255
203 226 255
203 226 255
203 226 255
203 226 255
203 226 255
203 226 255
203 226 255
203 226 255
203 226 255
203 226 255
203 226 255
203 226 255
203 226 255
203 226 255
203 226 255
203 226 255
203 226 255
203 226 255
203 226 255
203 226 255
203 226 255
203 226 255
203 226 255
203 226 255
204 226 255
204 226 255
204 226 255
204 226 255
204 226 255
204 226 255
204 226 255
204 226 255
204 226 255
204 226 255
204 226 255
204 226 255
204 226 255
204 226 255
204 226 255
204 226 255
204 226 255
204 226 255
204 226 255
204 226 255
204 226 255
204 226 255
204 226 255
204 226 255
204 226 255
204 226 255
204 226 255
204 226 255
204 226 255
204 226 255
205 226 255
205 226 255
205 226 255
205 226 255
205 226 255
205 226 255
205 226 255
205 226 255
205 227 255
205 227 255
205 227 255
205 227 255
205 227 255
205 227 255
205 227 255
205 227 255
205 227 255
205 227 255
205 227 255
205 227 255
206 227 255
206 227 255
206 227 255
206 227 255
206 227 255
206 227 255
206 227 255
206 227 255
206 227 255
206 227 255
206 227 255
206 227 255
206 227 255
206 227 255
206 227 255
206 227 255
206 227 255
206 227 255
207 227 255
207 227 255
207 227 255
207 227 255
207 228 255
207 228 255
207 228 255
207 228 255
207 228 255
207 228 255
207 228 255
207 228 255
207 228 255
207 228 255
207 228 255
207 228 255
207 228 255
207 228 255
208 228 255
208 228 255
208 228 255
196 213 235
171 181 181
153 158 141
142 140 98
145 144 96
140 139 93
139 138 93
133 132 89
145 144 97
139 138 93
139 138 93
140 140 94
131 131 88
141 141 95
145 145 98
141 141 95
144 144 97
153 153 103
145 145 97
156 155 104
144 144 97
147 147 100
146 146 99
148 149 101
151 151 102
143 143 96
150 150 101
148 148 100
155 155 104
153 153 103
153 153 103
150 149 101
147 147 99
154 153 103
149 149 100
153 152 103
152 152 103
156 155 104
147 146 99
157 157 106
155 154 104
152 151 101
157 156 104
154 152 102
157 156 105
147 145 97
156 154 103
158 157 106
159 157 105
162 161 108
157 156 105
162 161 108
148 146 98
161 159 107
162 160 107
153 150 100
156 154 103
147 145 97
152 150 100
152 150 100
151 149 99
156 153 102
153 150 99
159 156 104
157 155 103
151 148 99
150 147 98
157 153 101
152 149 99
153 149 99
155 152 101
148 145 96
155 151 100
149 145 95
147 144 95
157 153 101
143 138 91
138 134 88
145 140 91
152 146 95
138 133 87
136 131 86
150 145 95
154 157 142
190 200 203
195 210 225
212 230 255
212 230 255
212 230 255
212 230 255
212 230 255
212 230 255
212 230 255
212 230 255
212 230 255
212 230 255
212 230 255
200 218 242
183 200 222
173 190 213
172 189 213
177 196 220
180 199 225
180 200 226
182 202 228
181 201 228
180 201 228
180 201 228
180 201 228
179 200 228
178 200 228
178 200 228
177 199 228
178 200 228
177 199 228
176 199 228
176 199 228
176 199 228
175 198 228
175 198 228
175 198 228
174 198 228
174 198 228
173 197 228
173 197 228
173 197 228
173 197 228
172 197 228
172 197 228
172 196 228
172 197 228
171 196 228
171 196 228
171 196 228
170 196 228
170 196 228
170 195 228
169 195 228
169 195 228
170 195 228
169 195 228
169 195 228
169 195 228
169 195 228
168 195 228
168 194 228
168 194 228
168 194 228
168 194 228
168 194 228
168 194 228
167 194 228
167 194 228
167 194 228
167 194 228
167 194 228
167 194 228
167 194 228
167 194 228
167 194 228
167 194 228
167 194 228
166 194 228
167 194 228
167 194 228
167 194 228
167 194 228
167 194 228
167 194 228
167 194 228
167 194 228
168 194 228
168 195 228
169 195 228
168 195 228
169 195 228
169 195 228
170 195 228
170 196 228
171 196 228
172 196 228
172 197 228
173 197 228
169 192 221
164 186 214
156 176 202
164 184 210
185 205 231
190 209 234
208 228 255
208 228 255
208 228 255
208 228 255
207 228 255
207 228 255
207 228 255
207 228 255
207 228 255
207 228 255
207 228 255
207 228 255
207 228 255
207 228 255
207 228 255
207 228 255
207 228 255
207 228 255
207 227 255
207 227 255
207 227 255
207 227 255
206 227 255
206 227 255
206 227 255
206 227 255
206 227 255
206 227 255
206 227 255
206 227 255
206 227 255
206 227 255
206 227 255
206 227 255
206 227 255
206 227 255
206 227 255
206 227 255
206 227 255
206 227 255
205 227 255
205 227 255
205 227 255
205 227 255
205 227 255
205 227 255
205 227 255
205 227 255
205 227 255
205 227 255
205 227 255
205 227 255
205 227 255
205 226 255
205 226 255
205 226 255
205 226 255
205 226 255
205 226 255
205 226 255
205 226 255
205 226 255
204 226 255
204 226 255
204 226 255
204 226 255
204 226 255
204 226 255
204 226 255
204 226 255
204 226 255
204 226 255
204 226 255
204 226 255
204 226 255
204 226 255
204 226 255
204 226 255
204 226 255
204 226 255
204 226 255
204 226 255
204 226 255
204 226 255
204 226 255
204 226 255
204 226 255
204 226 255
204 226 255
204 226 255
204 226 255
204 226 255
204 226 255
204 226 255
204 226 255
204 226 255
204 226 255
204 226 255
204 226 255
204 226 255
204 226 255
204 226 255
204 226 255
204 226 255
204 226 255
204 226 255
204 226 255
204 226 255
204 226 255
204 226 255
204 226 255
204 226 255
204 226 255
204 226 255
204 226 255
204 226 255
204 226 255
204 226 255
204 226 255
204 226 255
204 226 255
204 226 255
204 226 255
204 226 255
204 226 255
204 226 255
204 226 255
204 226 255
204 226 255
204 226 255
204 226 255
204 226 255
204 226 255
204 226 255
204 226 255
204 226 255
204 226 255
204 226 255
204 226 255
204 226 255
204 226 255
204 226 255
204 226 255
204 226 255
204 226 255
204 226 255
205 226 255
205 226 255
205 226 255
205 226 255
205 226 255
205 226 255
205 226 255
205 226 255
205 226 255
205 227 255
205 227 255
205 227 255
205 227 255
205 227 255
205 227 255
205 227 255
205 227 255
205 227 255
205 227 255
205 227 255
205 227 255
206 227 255
206 227 255
206 227 255
206 227 255
206 227 255
206 227 255
206 227 255
206 227 255
206 227 255
206 227 255
206 227 255
206 227 255
206 227 255
206 227 255
206 227 255
206 227 255
206 227 255
206 227 255
206 227 255
207 227 255
207 227 255
207 227 255
207 227 255
207 228 255
207 228 255
207 228 255
207 228 255
207 228 255
207 228 255
207 228 255
207 228 255
207 228 255
207 228 255
207 228 255
207 228 255
207 228 255
207 228 255
208 228 255
208 228 255
208 228 255
207 228 254
192 208 224
176 187 192
153 156 134
137 135 90
145 143 96
128 127 85
123 123 83
133 131 88
138 137 93
143 142 95
144 143 97
139 139 94
136 137 93
145 145 98
139 140 95
144 145 98
140 140 95
141 141 95
149 150 101
149 149 101
151 152 103
151 152 103
141 141 95
154 154 104
152 153 103
154 154 104
149 150 101
158 158 107
153 153 103
154 154 104
147 147 99
152 152 103
152 152 103
149 149 101
153 153 104
149 148 100
153 152 103
161 160 108
153 153 103
150 149 101
156 156 105
160 160 108
153 153 104
149 149 101
158 156 105
155 155 104
157 156 104
159 158 106
153 152 102
156 155 104
159 158 106
160 159 106
159 158 106
151 150 101
162 160 108
162 160 107
161 159 107
162 161 108
150 148 99
156 153 102
149 147 99
157 155 104
156 153 103
158 155 103
161 158 104
162 159 106
161 158 105
156 153 102
156 153 102
151 148 99
150 147 98
154 150 100
161 157 104
156 153 101
152 149 99
151 147 97
155 151 100
147 144 95
149 145 96
154 150 99
151 147 97
146 141 93
150 146 96
146 141 93
142 138 90
128 124 81
149 143 93
138 132 86
141 136 89
154 155 131
177 183 178
199 214 234
212 230 255
212 230 255
212 230 255
212 230 255
212 230 255
205 223 247
186 203 226
167 183 205
174 191 214
177 196 220
180 199 225
181 200 226
182 202 228
182 202 228
181 201 228
180 201 228
179 200 228
179 200 228
179 200 228
178 200 228
178 200 228
177 199 228
177 199 228
177 199 228
176 199 228
176 199 228
175 198 228
175 198 228
174 198 228
174 198 228
174 198 228
174 197 228
174 198 228
173 197 228
173 197 228
172 197 228
172 197 228
172 197 228
172 196 228
171 196 228
171 196 228
171 196 228
171 196 228
171 196 228
170 196 228
170 195 228
169 195 228
169 195 228
169 195 228
169 195 228
168 195 228
168 194 228
169 195 228
168 195 228
168 195 228
168 194 228
167 194 228
167 194 228
167 194 228
167 194 228
167 194 228
167 194 228
166 194 228
166 194 228
166 193 228
166 193 228
166 194 228
166 193 228
166 194 228
166 193 228
166 194 228
166 193 228
166 193 228
165 193 228
166 193 228
166 193 228
166 193 228
166 193 228
166 193 228
166 193 228
166 194 228
166 193 228
166 194 228
167 194 228
167 194 228
167 194 228
167 194 228
167 194 228
168 194 228
168 195 228
168 195 228
169 195 228
170 195 228
170 196 228
171 196 228
172 197 228
174 197 228
170 193 223
168 189 218
167 189 217
154 172 196
182 202 229
195 214 241
208 228 255
208 228 255
208 228 255
208 228 255
208 228 255
207 228 255
207 228 255
207 228 255
207 228 255
207 228 255
207 228 255
207 228 255
207 228 255
207 228 255
207 228 255
207 228 255
207 228 255
207 228 255
207 228 255
207 227 255
207 227 255
207 227 255
207 227 255
206 227 255
206 227 255
206 227 255
206 227 255
206 227 255
206 227 255
206 227 255
206 227 255
206 227 255
206 227 255
206 227 255
206 227 255
206 227 255
206 227 255
206 227 255
206 227 255
206 227 255
206 227 255
206 227 255
205 227 255
205 227 255
205 227 255
205 227 255
205 227 255
205 227 255
205 227 255
205 227 255
205 227 255
205 227 255
205 227 255
205 227 255
205 227 255
205 226 255
205 226 255
205 226 255
205 226 255
205 226 255
205 226 255
205 226 255
205 226 255
205 226 255
205 226 255
205 226 255
204 226 255
204 226 255
204 226 255
204 226 255
204 226 255
204 226 255
204 226 255
204 226 255
204 226 255
204 226 255
204 226 255
204 226 255
204 226 255
204 226 255
204 226 255
204 226 255
204 226 255
204 226 255
204 226 255
204 226 255
204 226 255
204 226 255
204 226 255
204 226 255
204 226 255
204 226 255
204 226 255
204 226 255
204 226 255
204 226 255
204 226 255
204 226 255
204 226 255
204 226 255
204 226 255
204 226 255
204 226 255
204 226 255
204 226 255
204 226 255
204 226 255
204 226 255
204 226 255
204 226 255
204 226 255
204 226 255
204 226 255
204 226 255
204 226 255
204 226 255
204 226 255
204 226 255
204 226 255
204 226 255
204 226 255
204 226 255
204 226 255
204 226 255
204 226 255
204 226 255
204 226 255
204 226 255
204 226 255
204 226 255
204 226 255
204 226 255
204 226 255
204 226 255
204 226 255
204 226 255
204 226 255
205 226 255
205 226 255
205 226 255
205 226 255
205 226 255
205 226 255
205 226 255
205 226 255
205 226 255
205 226 255
205 227 255
205 227 255
205 227 255
205 227 255
205 227 255
205 227 255
205 227 255
205 227 255
205 227 255
205 227 255
205 227 255
205 227 255
205 227 255
206 227 255
206 227 255
206 227 255
206 227 255
206 227 255
206 227 255
206 227 255
206 227 255
206 227 255
206 227 255
206 227 255
206 227 255
206 227 255
206 227 255
206 227 255
206 227 255
206 227 255
206 227 255
206 227 255
207 227 255
207 227 255
207 227 255
207 227 255
207 228 255
207 228 255
207 228 255
207 228 255
207 228 255
207 228 255
207 228 255
207 228 255
207 228 255
207 228 255
207 228 255
207 228 255
207 228 255
207 228 255
208 228 255
208 228 255
208 228 255
208 228 255
208 228 255
191 207 224
170 182 187
144 146 122
130 128 86
131 130 87
135 134 90
141 140 94
145 144 97
146 146 98
144 144 97
140 140 95
150 149 101
146 146 99
144 144 97
143 142 96
150 150 102
144 144 97
143 143 97
137 138 93
145 146 99
150 151 102
142 143 97
152 152 103
147 148 100
151 151 103
152 152 103
153 154 104
153 153 104
151 152 103
156 157 106
148 148 101
153 153 104
157 158 107
151 151 103
159 159 108
150 151 102
154 154 104
159 159 108
155 156 106
156 156 105
155 155 105
155 155 104
156 155 104
157 156 106
159 158 106
148 148 100
161 160 108
166 165 111
163 162 109
160 160 108
162 160 108
155 155 104
158 156 105
158 157 106
162 161 109
159 158 106
161 159 107
158 157 105
157 156 104
154 152 102
156 154 103
155 153 103
162 161 108
161 159 106
159 158 106
162 159 106
158 156 104
151 149 100
157 154 102
166 162 108
155 152 101
162 160 106
159 156 104
159 155 103
158 154 103
152 149 99
159 155 103
161 157 104
163 160 106
158 153 101
148 144 95
157 154 102
147 144 95
153 149 99
151 147 97
151 146 97
151 146 96
153 148 97
151 146 96
147 142 93
144 139 91
148 143 94
146 141 93
145 139 91
146 140 91
147 145 115
171 181 186
201 215 229
212 230 255
176 192 215
169 185 207
178 197 221
180 199 224
182 202 227
182 202 228
182 202 228
181 202 228
181 201 228
180 201 228
180 201 228
179 200 228
179 200 228
178 200 228
178 200 228
177 199 228
177 199 228
177 199 228
176 199 228
176 199 228
176 199 228
175 198 228
175 198 228
174 198 228
174 197 228
174 198 228
173 197 228
174 197 228
173 197 228
173 197 228
172 197 228
171 196 228
171 196 228
171 196 228
172 196 228
171 196 228
171 196 228
171 196 228
170 196 228
170 195 228
170 196 228
170 195 228
169 195 228
169 195 228
169 195 228
168 195 228
168 195 228
168 194 228
167 194 228
168 194 228
168 194 228
167 194 228
167 194 228
167 194 228
167 194 228
166 194 228
166 194 228
166 193 228
166 193 228
166 193 228
166 193 228
166 193 228
166 193 228
165 193 228
166 193 228
165 193 228
165 193 228
165 193 228
165 193 228
165 193 228
165 193 228
165 193 228
165 193 228
165 193 228
165 193 228
165 193 228
165 193 228
165 193 228
165 193 228
165 193 228
166 193 228
166 193 228
166 193 228
166 193 228
166 193 228
166 194 228
167 194 228
167 194 228
168 194 228
168 195 228
169 195 228
169 195 228
170 196 228
172 196 228
172 197 228
172 196 227
172 195 225
166 188 217
162 182 209
162 181 206
191 210 237
205 225 253
208 228 255
208 228 255
208 228 255
208 228 255
208 228 255
208 228 255
207 228 255
207 228 255
207 228 255
207 228 255
207 228 255
207 228 255
207 228 255
207 228 255
207 228 255
207 228 255
207 228 255
207 228 255
207 228 255
207 228 255
207 227 255
207 227 255
207 227 255
207 227 255
206 227 255
206 227 255
206 227 255
206 227 255
206 227 255
206 227 255
206 227 255
206 227 255
206 227 255
206 227 255
206 227 255
206 227 255
206 227 255
206 227 255
206 227 255
206 227 255
206 227 255
206 227 255
206 227 255
206 227 255
206 227 255
205 227 255
205 227 255
205 227 255
205 227 255
205 227 255
205 227 255
205 227 255
205 227 255
205 227 255
205 227 255
205 227 255
205 227 255
205 227 255
205 226 255
205 226 255
205 226 255
205 226 255
205 226 255
205 226 255
205 226 255
205 226 255
205 226 255
205 226 255
205 226 255
205 226 255
204 226 255
204 226 255
204 226 255
204 226 255
204 226 255
204 226 255
204 226 255
204 226 255
204 226 255
204 226 255
204 226 255
204 226 255
204 226 255
204 226 255
204 226 255
204 226 255
204 226 255
204 226 255
204 226 255
204 226 255
204 226 255
204 226 255
204 226 255
204 226 255
204 226 255
204 226 255
204 226 255
204 226 255
204 226 255
204 226 255
204 226 255
204 226 255
204 226 255
204 226 255
204 226 255
204 226 255
204 226 255
204 226 255
204 226 255
204 226 255
204 226 255
204 226 255
204 226 255
204 226 255
204 226 255
204 226 255
204 226 255
204 226 255
204 226 255
204 226 255
204 226 255
204 226 255
204 226 255
204 226 255
204 226 255
204 226 255
205 226 255
205 226 255
205 226 255
205 226 255
205 226 255
205 226 255
205 226 255
205 226 255
205 226 255
205 226 255
205 226 255
205 226 255
205 227 255
205 227 255
205 227 255
205 227 255
205 227 255
205 227 255
205 227 255
205 227 255
205 227 255
205 227 255
205 227 255
205 227 255
205 227 255
205 227 255
206 227 255
206 227 255
206 227 255
206 227 255
206 227 255
206 227 255
206 227 255
206 227 255
206 227 255
206 227 255
206 227 255
206 227 255
206 227 255
206 227 255
206 227 255
206 227 255
206 227 255
206 227 255
206 227 255
206 227 255
207 227 255
207 227 255
207 227 255
207 227 255
207 228 255
207 228 255
207 228 255
207 228 255
207 228 255
207 228 255
207 228 255
207 228 255
207 228 255
207 228 255
207 228 255
207 228 255
207 228 255
207 228 255
208 228 255
208 228 255
208 228 255
208 228 255
208 228 255
208 228 255
205 225 252
176 189 200
160 166 154
139 137 92
143 141 95
135 133 90
143 141 95
137 137 93
140 140 95
145 144 97
140 139 94
143 143 97
141 142 96
142 142 96
137 137 93
146 146 99
148 149 101
144 144 97
149 150 101
154 155 105
150 150 102
147 147 100
148 148 101
153 153 104
152 153 104
155 156 106
150 150 102
156 157 107
153 154 104
154 155 105
160 160 109
158 159 108
157 157 106
159 159 108
155 155 105
161 162 110
159 159 108
157 158 107
157 157 106
161 161 109
160 161 109
161 161 109
159 158 106
157 157 106
159 159 108
157 157 106
155 154 104
161 161 108
160 159 107
157 157 106
162 162 110
160 159 108
160 159 108
161 161 108
158 158 106
160 158 106
159 158 106
155 154 104
162 160 107
161 160 108
163 161 108
158 156 104
160 159 107
162 160 107
164 162 109
160 158 106
161 160 107
163 161 108
164 161 108
163 161 108
163 161 108
161 158 105
161 158 105
159 156 104
160 157 105
161 158 105
164 162 108
157 154 103
166 162 108
160 157 104
159 156 103
155 152 101
164 160 106
157 153 101
159 154 102
158 154 102
162 157 103
159 154 101
157 152 101
156 152 100
149 145 96
149 145 95
160 154 101
151 146 96
145 140 92
150 146 96
145 139 91
142 137 90
149 144 95
150 144 94
147 141 92
167 166 142
183 201 226
182 201 226
183 202 228
182 202 228
182 202 228
181 201 228
181 201 228
180 201 228
180 201 228
180 201 228
179 201 228
178 200 228
178 200 228
177 199 228
177 199 228
177 199 228
176 199 228
176 199 228
176 199 228
175 198 228
175 198 228
175 198 228
174 198 228
174 198 228
173 197 228
173 197 228
173 197 228
172 197 228
173 197 228
172 197 228
172 197 228
171 196 228
171 196 228
171 196 228
171 196 228
170 196 228
170 196 228
170 195 228
170 195 228
170 195 228
169 195 228
169 195 228
169 195 228
169 195 228
168 194 228
168 194 228
168 194 228
167 194 228
167 194 228
167 194 228
167 194 228
167 194 228
167 194 228
166 194 228
166 194 228
166 194 228
166 193 228
166 193 228
165 193 228
166 193 228
165 193 228
165 193 228
165 193 228
165 193 228
165 193 228
165 193 228
165 193 228
164 193 228
165 193 228
164 193 228
164 193 228
164 193 228
164 193 228
164 193 228
164 192 228
164 192 228
164 193 228
164 192 228
164 193 228
165 193 228
165 193 228
165 193 228
165 193 228
165 193 228
165 193 228
165 193 228
165 193 228
166 193 228
166 194 228
167 194 228
167 194 228
168 194 228
167 194 228
168 195 228
169 195 228
170 196 228
171 196 228
172 197 228
173 197 228
173 196 226
161 182 209
156 175 201
174 194 219
197 217 243
208 228 255
208 228 255
208 228 255
208 228 255
208 228 255
208 228 255
208 228 255
208 228 255
207 228 255
207 228 255
207 228 255
207 228 255
207 228 255
207 228 255
207 228 255
207 228 255
207 228 255
207 228 255
207 228 255
207 228 255
207 228 255
207 228 255
207 227 255
207 227 255
207 227 255
207 227 255
207 227 255
206 227 255
206 227 255
206 227 255
206 227 255
206 227 255
206 227 255
206 227 255
206 227 255
206 227 255
206 227 255
206 227 255
206 227 255
206 227 255
206 227 255
206 227 255
206 227 255
206 227 255
206 227 255
206 227 255
206 227 255
206 227 255
205 227 255
205 227 255
205 227 255
205 227 255
205 227 255
205 227 255
205 227 255
205 227 255
205 227 255
205 227 255
205 227 255
205 227 255
205 227 255
205 227 255
205 227 255
205 226 255
205 226 255
205 226 255
205 226 255
205 226 255
205 226 255
205 226 255
205 226 255
205 226 255
205 226 255
205 226 255
205 226 255
205 226 255
205 226 255
205 226 255
204 226 255
204 226 255
204 226 255
204 226 255
204 226 255
204 226 255
204 226 255
204 226 255
204 226 255
204 226 255
204 226 255
204 226 255
204 226 255
204 226 255
204 226 255
204 226 255
204 226 255
204 226 255
204 226 255
204 226 255
204 226 255
204 226 255
204 226 255
204 226 255
204 226 255
204 226 255
204 226 255
204 226 255
204 226 255
204 226 255
204 226 255
204 226 255
204 226 255
204 226 255
204 226 255
204 226 255
205 226 255
205 226 255
205 226 255
205 226 255
205 226 255
205 226 255
205 226 255
205 226 255
205 226 255
205 226 255
205 226 255
205 226 255
205 226 255
205 226 255
205 227 255
205 227 255
205 227 255
205 227 255
205 227 255
205 227 255
205 227 255
205 227 255
205 227 255
205 227 255
205 227 255
205 227 255
205 227 255
205 227 255
205 227 255
205 227 255
206 227 255
206 227 255
206 227 255
206 227 255
206 227 255
206 227 255
206 227 255
206 227 255
206 227 255
206 227 255
206 227 255
206 227 255
206 227 255
206 227 255
206 227 255
206 227 255
206 227 255
206 227 255
206 227 255
206 227 255
206 227 255
207 227 255
207 227 255
207 227 255
207 227 255
207 227 255
207 228 255
207 228 255
207 228 255
207 228 255
207 228 255
207 228 255
207 228 255
207 228 255
207 228 255
207 228 255
207 228 255
207 228 255
207 228 255
207 228 255
208 228 255
208 228 255
208 228 255
208 228 255
208 228 255
208 228 255
208 228 255
208 228 255
199 216 236
174 185 190
134 135 107
136 135 90
140 138 93
140 139 93
139 138 93
138 137 93
137 136 92
143 143 97
133 133 90
144 144 97
146 147 99
142 143 97
151 151 103
147 147 100
159 159 108
150 150 102
150 151 103
154 155 105
152 152 103
149 149 101
145 146 99
148 149 101
148 148 100
154 155 105
151 151 103
145 145 99
160 160 109
154 154 104
152 153 104
158 159 108
158 159 108
158 159 108
156 157 106
156 157 106
160 162 110
163 163 110
157 157 106
160 161 109
162 162 110
159 159 108
157 157 106
160 160 108
159 159 108
160 161 109
158 158 107
160 160 108
160 160 108
162 162 109
161 160 108
159 158 107
164 164 110
154 154 104
159 159 107
166 165 111
166 166 112
163 162 109
166 165 110
161 160 108
156 154 103
165 164 110
165 163 109
166 164 110
159 157 106
166 165 110
167 165 110
160 159 107
161 159 106
165 162 108
164 162 108
165 163 109
158 156 104
161 158 106
171 168 112
167 164 109
157 155 104
163 160 107
163 161 107
156 153 102
161 158 105
161 158 105
163 160 106
157 153 102
161 157 104
162 158 105
160 156 103
160 156 103
158 154 102
153 150 99
161 157 103
156 152 100
160 156 103
156 152 100
149 145 95
149 144 95
156 152 100
155 150 98
151 145 95
140 136 90
136 131 85
148 143 94
154 148 97
136 131 86
183 202 228
183 202 228
182 202 228
182 202 228
181 201 228
181 201 228
180 201 228
179 200 228
179 200 228
179 200 228
178 200 228
178 199 228
177 199 228
177 199 228
177 199 228
176 199 228
176 199 228
176 198 228
175 198 228
175 198 228
175 198 228
174 198 228
174 198 228
174 197 228
173 197 228
173 197 228
172 197 228
173 197 228
172 197 228
172 196 228
172 196 228
171 196 228
171 196 228
171 196 228
171 196 228
170 196 228
170 195 228
169 195 228
170 195 228
169 195 228
169 195 228
169 195 228
169 195 228
168 195 228
168 194 228
168 194 228
167 194 228
167 194 228
167 194 228
167 194 228
167 194 228
166 194 228
166 194 228
166 194 228
166 193 228
166 193 228
165 193 228
165 193 228
165 193 228
165 193 228
165 193 228
165 193 228
165 193 228
164 193 228
164 193 228
164 193 228
164 193 228
164 192 228
164 192 228
164 192 228
164 192 228
164 192 228
164 192 228
164 192 228
164 192 228
163 192 228
164 192 228
164 192 228
164 192 228
164 192 228
164 192 228
164 192 228
164 192 228
164 193 228
164 192 228
164 193 228
165 193 228
165 193 228
165 193 228
165 193 228
166 193 228
166 194 228
167 194 228
167 194 228
167 194 228
168 195 228
169 195 228
170 195 228
171 196 228
171 196 228
172 196 227
169 193 224
170 193 223
158 178 204
161 179 204
189 208 234
207 227 254
208 228 255
208 228 255
208 228 255
208 228 255
208 228 255
208 228 255
208 228 255
208 228 255
208 228 255
207 228 255
207 228 255
207 228 255
207 228 255
207 228 255
207 228 255
207 228 255
207 228 255
207 228 255
207 228 255
207 228 255
207 228 255
207 228 255
207 228 255
207 228 255
207 227 255
207 227 255
207 227 255
207 227 255
207 227 255
206 227 255
206 227 255
206 227 255
206 227 255
206 227 255
206 227 255
206 227 255
206 227 255
206 227 255
206 227 255
206 227 255
206 227 255
206 227 255
206 227 255
206 227 255
206 227 255
206 227 255
206 227 255
206 227 255
206 227 255
206 227 255
206 227 255
205 227 255
205 227 255
205 227 255
205 227 255
205 227 255
205 227 255
205 227 255
205 227 255
205 227 255
205 227 255
205 227 255
205 227 255
205 227 255
205 227 255
205 227 255
205 227 255
205 227 255
205 227 255
205 226 255
205 226 255
205 226 255
205 226 255
205 226 255
205 226 255
205 226 255
205 226 255
205 226 255
205 226 255
205 226 255
205 226 255
205 226 255
205 226 255
205 226 255
205 226 255
205 226 255
205 226 255
205 226 255
205 226 255
205 226 255
205 226 255
205 226 255
205 226 255
205 226 255
205 226 255
205 226 255
205 226 255
205 226 255
205 226 255
205 226 255
205 226 255
205 226 255
205 226 255
205 226 255
205 226 255
205 226 255
205 226 255
205 226 255
205 226 255
205 226 255
205 226 255
205 226 255
205 226 255
205 226 255
205 226 255
205 226 255
205 226 255
205 227 255
205 227 255
205 227 255
205 227 255
205 227 255
205 227 255
205 227 255
205 227 255
205 227 255
205 227 255
205 227 255
205 227 255
205 227 255
205 227 255
205 227 255
205 227 255
205 227 255
205 227 255
206 227 255
206 227 255
206 227 255
206 227 255
206 227 255
206 227 255
206 227 255
206 227 255
206 227 255
206 227 255
206 227 255
206 227 255
206 227 255
206 227 255
206 227 255
206 227 255
206 227 255
206 227 255
206 227 255
206 227 255
206 227 255
206 227 255
207 227 255
207 227 255
207 227 255
207 227 255
207 227 255
207 228 255
207 228 255
207 228 255
207 228 255
207 228 255
207 228 255
207 228 255
207 228 255
207 228 255
207 228 255
207 228 255
207 228 255
207 228 255
207 228 255
207 228 255
208 228 255
208 228 255
208 228 255
208 228 255
208 228 255
208 228 255
208 228 255
208 228 255
208 228 255
208 228 255
179 193 208
152 156 137
120 119 80
130 128 85
136 135 90
130 129 87
147 146 98
133 133 90
145 145 98
153 153 103
149 148 100
142 142 96
144 145 98
150 151 102
150 150 101
149 149 101
149 149 101
146 146 99
148 149 101
152 152 103
150 150 102
157 158 107
150 150 102
156 157 106
153 154 104
157 158 107
153 153 104
157 158 107
154 155 105
151 151 103
159 160 109
154 155 106
160 161 109
161 162 110
157 158 108
159 160 109
156 157 106
158 159 108
155 156 106
157 157 106
162 163 110
163 163 110
166 166 112
163 163 110
163 163 110
159 159 107
159 159 108
160 159 108
161 162 109
160 160 109
159 159 108
164 164 110
163 163 110
161 161 109
163 163 110
163 163 110
166 166 112
167 167 112
165 164 110
164 164 110
160 159 107
168 167 112
160 159 107
164 163 109
159 158 106
161 160 108
165 163 110
159 157 106
161 160 108
166 163 109
168 166 111
166 164 110
170 167 111
158 155 104
160 158 105
160 158 105
165 163 109
163 162 108
160 158 105
164 160 106
165 162 108
157 154 103
163 160 106
165 161 107
161 158 105
159 156 103
164 161 107
163 159 105
162 159 105
162 158 104
161 157 104
162 158 104
162 157 104
163 158 104
165 160 106
157 152 100
161 155 102
163 158 104
159 154 101
155 150 98
152 147 96
152 146 96
158 153 101
145 140 91
140 135 88
147 141 93
182 202 228
182 202 228
181 201 228
181 201 228
181 201 228
180 201 228
179 200 228
179 200 228
178 200 228
178 199 228
178 200 228
177 199 228
177 199 228
177 199 228
176 199 228
176 199 228
176 198 228
175 198 228
175 198 228
175 198 228
174 198 228
174 198 228
173 197 228
173 197 228
173 197 228
173 197 228
173 197 228
173 197 228
172 196 228
171 196 228
171 196 228
171 196 228
171 196 228
171 196 228
170 196 228
170 196 228
170 196 228
170 195 228
169 195 228
169 195 228
169 195 228
168 195 228
168 194 228
168 194 228
167 194 228
168 194 228
167 194 228
167 194 228
167 194 228
167 194 228
166 194 228
166 194 228
166 194 228
166 193 228
165 193 228
165 193 228
165 193 228
165 193 228
165 193 228
165 193 228
165 193 228
164 193 228
164 193 228
164 192 228
164 192 228
164 192 228
164 192 228
164 192 228
163 192 228
164 192 228
163 192 228
163 192 228
163 192 228
163 192 228
163 192 228
163 192 228
163 192 228
163 192 228
163 192 228
163 192 228
163 192 228
163 192 228
163 192 228
163 192 228
163 192 228
164 192 228
164 192 228
164 192 228
164 192 228
164 193 228
165 193 228
165 193 228
165 193 228
166 193 228
166 194 228
167 194 228
167 194 228
168 194 228
168 195 228
169 195 228
170 195 228
171 196 228
172 197 228
174 197 228
171 194 224
165 187 216
167 187 213
183 202 228
204 224 250
208 228 255
208 228 255
208 228 255
208 228 255
208 228 255
208 228 255
208 228 255
208 228 255
208 228 255
208 228 255
208 228 255
208 228 255
207 228 255
207 228 255
207 228 255
207 228 255
207 228 255
207 228 255
207 228 255
207 228 255
207 228 255
207 228 255
207 228 255
207 228 255
207 228 255
207 228 255
207 228 255
207 227 255
207 227 255
207 227 255
207 227 255
206 227 255
206 227 255
206 227 255
206 227 255
206 227 255
206 227 255
206 227 255
206 227 255
206 227 255
206 227 255
206 227 255
206 227 255
206 227 255
206 227 255
206 227 255
206 227 255
206 227 255
206 227 255
206 227 255
206 227 255
206 227 255
206 227 255
206 227 255
206 227 255
206 227 255
205 227 255
205 227 255
205 227 255
205 227 255
205 227 255
205 227 255
205 227 255
205 227 255
205 227 255
205 227 255
205 227 255
205 227 255
205 227 255
205 227 255
205 227 255
205 227 255
205 227 255
205 227 255
205 227 255
205 227 255
205 227 255
205 227 255
205 227 255
205 227 255
205 226 255
205 226 255
205 226 255
205 226 255
205 226 255
205 226 255
205 226 255
205 226 255
205 226 255
205 226 255
205 226 255
205 226 255
205 226 255
205 226 255
205 226 255
205 226 255
205 226 255
205 226 255
205 226 255
205 226 255
205 227 255
205 227 255
205 227 255
205 227 255
205 227 255
205 227 255
205 227 255
205 227 255
205 227 255
205 227 255
205 227 255
205 227 255
205 227 255
205 227 255
205 227 255
205 227 255
205 227 255
205 227 255
205 227 255
205 227 255
205 227 255
205 227 255
205 227 255
205 227 255
205 227 255
205 227 255
206 227 255
206 227 255
206 227 255
206 227 255
206 227 255
206 227 255
206 227 255
206 227 255
206 227 255
206 227 255
206 227 255
206 227 255
206 227 255
206 227 255
206 227 255
206 227 255
206 227 255
206 227 255
206 227 255
206 227 255
206 227 255
206 227 255
206 227 255
206 227 255
207 227 255
207 227 255
207 227 255
207 227 255
207 227 255
207 228 255
207 228 255
207 228 255
207 228 255
207 228 255
207 228 255
207 228 255
207 228 255
207 228 255
207 228 255
207 228 255
207 228 255
207 228 255
207 228 255
207 228 255
208 228 255
208 228 255
208 228 255
208 228 255
208 228 255
208 228 255
208 228 255
208 228 255
208 228 255
208 228 255
208 228 255
208 228 255
206 226 252
176 188 194
146 148 123
127 126 84
144 143 96
137 136 91
139 139 93
141 140 94
146 145 98
150 149 101
145 144 97
147 147 100
148 149 101
150 150 102
148 148 101
151 152 103
148 148 101
141 142 96
154 155 105
146 147 100
157 157 107
148 148 100
146 147 100
153 154 104
159 160 108
155 156 106
159 159 108
160 160 109
157 158 108
156 157 107
152 153 104
156 157 106
159 160 109
155 156 106
160 161 109
163 164 111
163 164 111
158 158 108
157 158 107
159 160 108
161 162 109
161 162 110
162 163 110
161 161 109
164 164 111
162 162 110
167 167 113
163 163 110
164 164 111
163 162 109
163 163 110
163 163 110
164 164 111
164 164 110
164 164 110
162 162 109
168 168 113
163 163 110
163 163 110
161 161 109
168 167 112
160 160 108
165 164 110
164 163 110
169 168 113
166 165 111
169 168 113
165 164 110
166 164 110
167 165 111
163 162 109
168 166 112
165 163 109
163 162 109
163 161 108
167 164 110
167 165 110
166 163 109
172 169 112
165 163 109
166 164 110
165 163 109
170 167 111
162 159 106
170 167 112
168 165 109
169 165 110
168 165 109
162 159 105
159 156 103
160 157 104
163 159 105
165 160 106
164 160 106
165 161 106
158 154 102
154 150 99
165 161 106
158 154 101
165 160 106
164 159 104
163 158 104
158 153 101
158 154 101
158 153 100
155 150 98
159 153 101
158 153 100
150 144 95
182 202 228
181 201 228
181 201 228
180 201 228
179 200 228
179 200 228
179 200 228
178 200 228
178 200 228
178 200 228
177 199 228
177 199 228
177 199 228
176 199 228
176 199 228
175 198 228
176 198 228
175 198 228
175 198 228
174 198 228
174 197 228
174 198 228
173 197 228
173 197 228
173 197 228
172 197 228
172 197 228
172 196 228
172 196 228
171 196 228
171 196 228
171 196 228
171 196 228
171 196 228
170 196 228
170 195 228
170 195 228
169 195 228
169 195 228
169 195 228
169 195 228
168 194 228
168 195 228
168 195 228
168 194 228
168 194 228
167 194 228
167 194 228
167 194 228
166 194 228
166 194 228
166 193 228
166 193 228
166 193 228
166 193 228
165 193 228
165 193 228
165 193 228
165 193 228
165 193 228
165 193 228
164 193 228
164 193 228
164 192 228
164 192 228
164 192 228
164 192 228
164 192 228
163 192 228
163 192 228
163 192 228
163 192 228
163 192 228
163 192 228
163 192 228
163 192 228
163 192 228
163 192 228
163 192 228
163 192 228
163 192 228
163 192 228
163 192 228
163 192 228
163 192 228
163 192 228
163 192 228
163 192 228
163 192 228
164 192 228
164 192 228
164 192 228
164 193 228
164 193 228
165 193 228
165 193 228
165 193 228
166 193 228
167 194 228
167 194 228
168 195 228
168 195 228
169 195 228
171 196 228
172 196 228
173 197 228
170 193 223
160 181 208
160 179 204
182 201 227
205 224 251
208 228 255
208 228 255
208 228 255
208 228 255
208 228 255
208 228 255
208 228 255
208 228 255
208 228 255
208 228 255
208 228 255
208 228 255
208 228 255
208 228 255
208 228 255
207 228 255
207 228 255
207 228 255
207 228 255
207 228 255
207 228 255
207 228 255
207 228 255
207 228 255
207 228 255
207 228 255
207 228 255
207 228 255
207 228 255
207 228 255
207 227 255
207 227 255
207 227 255
207 227 255
207 227 255
206 227 255
206 227 255
206 227 255
206 227 255
206 227 255
206 227 255
206 227 255
206 227 255
206 227 255
206 227 255
206 227 255
206 227 255
206 227 255
206 227 255
206 227 255
206 227 255
206 227 255
206 227 255
206 227 255
206 227 255
206 227 255
206 227 255
206 227 255
206 227 255
206 227 255
206 227 255
206 227 255
205 227 255
205 227 255
205 227 255
205 227 255
205 227 255
205 227 255
205 227 255
205 227 255
205 227 255
205 227 255
205 227 255
205 227 255
205 227 255
205 227 255
205 227 255
205 227 255
205 227 255
205 227 255
205 227 255
205 227 255
205 227 255
205 227 255
205 227 255
205 227 255
203 225 254
200 222 252
198 219 250
202 224 253
202 224 254
202 224 254
205 227 255
205 227 255
205 227 255
205 227 255
205 227 255
205 227 255
205 227 255
205 227 255
205 227 255
205 227 255
205 227 255
205 227 255
205 227 255
205 227 255
205 227 255
205 227 255
205 227 255
205 227 255
205 227 255
205 227 255
205 227 255
205 227 255
205 227 255
205 227 255
206 227 255
206 227 255
206 227 255
206 227 255
206 227 255
206 227 255
206 227 255
206 227 255
206 227 255
206 227 255
206 227 255
206 227 255
206 227 255
206 227 255
206 227 255
206 227 255
206 227 255
206 227 255
206 227 255
206 227 255
206 227 255
206 227 255
206 227 255
206 227 255
206 227 255
206 227 255
206 227 255
207 227 255
207 227 255
207 227 255
207 227 255
207 227 255
207 228 255
207 228 255
207 228 255
207 228 255
207 228 255
207 228 255
207 228 255
207 228 255
207 228 255
207 228 255
207 228 255
207 228 255
207 228 255
207 228 255
207 228 255
207 228 255
208 228 255
208 228 255
208 228 255
208 228 255
208 228 255
208 228 255
208 228 255
208 228 255
208 228 255
208 228 255
208 228 255
208 228 255
208 228 255
208 228 255
206 225 249
172 183 186
141 141 110
132 131 87
141 141 95
133 132 89
148 147 99
147 146 98
143 142 96
139 139 94
139 139 93
146 145 98
152 153 103
157 157 106
146 147 99
153 154 104
155 155 105
153 154 104
156 157 106
149 149 101
153 154 104
152 153 104
152 153 104
157 157 107
157 158 107
157 158 107
155 156 106
158 158 107
157 158 107
153 154 104
156 157 106
156 157 106
159 160 109
162 163 110
161 162 110
161 161 109
160 161 109
160 161 109
160 160 109
161 162 110
162 163 110
158 158 108
167 168 114
162 163 110
158 159 108
163 164 111
167 167 113
162 162 110
164 165 112
161 161 109
163 163 110
164 164 111
165 165 112
165 165 111
164 164 110
163 162 109
163 163 110
166 166 112
166 166 112
163 163 110
166 166 112
166 165 112
165 164 110
169 168 113
168 166 112
166 165 111
169 167 112
166 164 110
166 164 110
167 165 111
170 169 113
167 166 111
167 165 110
169 167 112
167 165 110
166 164 109
168 165 110
166 164 110
164 163 109
170 168 113
167 165 110
171 168 112
170 168 112
171 168 112
168 165 110
167 164 109
164 161 108
169 166 110
168 164 109
165 162 108
165 161 107
173 169 112
166 162 107
168 164 108
167 163 108
159 156 103
167 163 108
163 159 106
166 162 108
158 154 102
163 158 104
163 159 104
166 161 106
160 155 102
159 156 103
167 161 106
160 154 101
158 153 101
155 150 99
156 150 99
163 157 103
181 201 228
181 201 228
180 201 228
179 200 228
179 200 228
179 200 228
179 200 228
178 200 228
178 200 228
177 199 228
177 199 228
177 199 228
176 199 228
176 199 228
175 198 228
176 198 228
175 198 228
175 198 228
175 198 228
175 198 228
174 197 228
174 197 228
173 197 228
173 197 228
173 197 228
172 197 228
172 197 228
172 196 228
172 196 228
172 196 228
171 196 228
171 196 228
171 196 228
170 196 228
170 195 228
170 195 228
169 195 228
169 195 228
170 195 228
169 195 228
169 195 228
168 195 228
168 194 228
168 195 228
168 194 228
168 194 228
167 194 228
167 194 228
167 194 228
166 194 228
166 194 228
166 194 228
166 193 228
166 193 228
166 193 228
165 193 228
165 193 228
165 193 228
165 193 228
165 193 228
164 192 228
164 193 228
164 193 228
164 192 228
164 192 228
164 192 228
163 192 228
164 192 228
163 192 228
163 192 228
163 192 228
163 192 228
163 192 228
163 192 228
163 192 228
163 192 228
163 192 228
163 192 228
163 192 228
162 192 228
162 192 228
163 192 228
162 192 228
163 192 228
163 192 228
162 192 228
163 192 228
163 192 228
163 192 228
163 192 228
163 192 228
163 192 228
164 192 228
164 192 228
164 192 228
164 193 228
165 193 228
165 193 228
165 193 228
166 193 228
167 194 228
167 194 228
168 194 228
169 195 228
169 195 228
170 196 228
172 197 228
173 197 228
172 195 226
169 190 219
161 180 205
190 210 236
208 228 255
208 228 255
208 228 255
208 228 255
208 228 255
208 228 255
208 228 255
208 228 255
208 228 255
208 228 255
208 228 255
208 228 255
208 228 255
208 228 255
208 228 255
208 228 255
208 228 255
208 228 255
207 228 255
207 228 255
207 228 255
207 228 255
207 228 255
207 228 255
207 228 255
207 228 255
207 228 255
207 228 255
207 228 255
207 228 255
207 228 255
207 228 255
207 228 255
207 228 255
207 227 255
207 227 255
207 227 255
207 227 255
207 227 255
207 227 255
206 227 255
206 227 255
206 227 255
206 227 255
206 227 255
206 227 255
206 227 255
206 227 255
206 227 255
206 227 255
206 227 255
206 227 255
206 227 255
206 227 255
206 227 255
206 227 255
206 227 255
206 227 255
206 227 255
206 227 255
206 227 255
206 227 255
206 227 255
206 227 255
206 227 255
206 227 255
206 227 255
206 227 255
206 227 255
206 227 255
206 227 255
206 227 255
206 227 255
205 227 255
205 227 255
205 227 255
205 227 255
205 227 255
187 208 242
175 197 233
149 173 219
130 155 207
119 145 202
91 121 188
73 107 179
62 99 177
62 99 175
63 99 177
61 99 177
62 99 178
62 99 178
80 112 184
89 120 188
117 144 203
137 161 209
159 182 226
167 190 231
186 207 242
204 226 255
205 227 255
205 227 255
205 227 255
205 227 255
206 227 255
206 227 255
206 227 255
206 227 255
206 227 255
206 227 255
206 227 255
206 227 255
206 227 255
206 227 255
206 227 255
206 227 255
206 227 255
206 227 255
206 227 255
206 227 255
206 227 255
206 227 255
206 227 255
206 227 255
206 227 255
206 227 255
206 227 255
206 227 255
206 227 255
206 227 255
206 227 255
206 227 255
206 227 255
206 227 255
206 227 255
206 227 255
206 227 255
207 227 255
207 227 255
207 227 255
207 227 255
207 227 255
207 227 255
207 228 255
207 228 255
207 228 255
207 228 255
207 228 255
207 228 255
207 228 255
207 228 255
207 228 255
207 228 255
207 228 255
207 228 255
207 228 255
207 228 255
207 228 255
207 228 255
208 228 255
208 228 255
208 228 255
208 228 255
208 228 255
208 228 255
208 228 255
208 228 255
208 228 255
208 228 255
208 228 255
208 228 255
208 228 255
208 228 255
208 228 255
208 228 255
208 228 255
205 224 251
175 186 192
129 127 87
130 129 87
136 134 90
138 137 92
140 139 94
144 143 97
139 138 93
149 149 101
142 142 96
143 142 96
147 148 100
144 144 97
155 155 104
146 147 99
157 157 106
151 151 102
157 158 107
149 150 102
155 156 106
152 152 103
158 158 108
153 154 104
154 155 105
159 160 109
156 157 107
159 159 108
159 160 109
165 165 112
160 161 109
159 160 108
164 165 112
159 159 108
154 155 105
165 165 112
161 162 110
161 162 110
162 163 110
156 157 106
163 164 111
166 166 113
163 164 111
162 163 110
164 164 111
165 166 112
162 163 110
165 165 112
166 166 113
165 165 112
166 166 113
165 165 112
163 163 110
169 169 114
169 168 113
166 167 113
166 166 112
164 164 110
167 167 112
166 166 112
165 165 111
170 169 114
167 167 112
164 164 110
167 166 112
168 167 112
171 169 113
169 168 113
170 169 113
170 168 113
169 168 113
167 165 111
167 165 110
171 169 113
169 167 112
165 162 109
172 170 113
167 166 111
167 166 111
171 168 112
167 164 110
166 164 110
171 169 113
173 170 113
166 163 109
165 163 109
170 167 111
166 163 109
164 161 107
173 169 112
172 168 111
165 162 108
164 160 106
164 160 106
168 164 109
166 163 108
171 166 110
169 165 109
168 164 109
162 158 104
160 155 103
161 156 103
164 159 105
169 163 108
163 158 104
158 154 101
164 159 104
164 159 105
156 151 99
163 157 103
162 157 103
162 156 102
162 156 103
180 201 228
180 201 228
180 201 228
179 200 228
179 200 228
178 200 228
178 200 228
177 199 228
178 200 228
177 199 228
177 199 228
177 199 228
176 199 228
176 199 228
176 198 228
175 198 228
175 198 228
175 198 228
175 198 228
174 198 228
174 198 228
173 197 228
173 197 228
173 197 228
172 197 228
173 197 228
172 197 228
172 196 228
172 196 228
171 196 228
171 196 228
171 196 228
171 196 228
170 195 228
170 196 228
170 195 228
170 195 228
170 195 228
169 195 228
169 195 228
168 195 228
168 195 228
168 195 228
168 194 228
167 194 228
168 194 228
167 194 228
167 194 228
167 194 228
167 194 228
167 194 228
166 194 228
166 193 228
166 193 228
166 193 228
165 193 228
165 193 228
165 193 228
165 193 228
165 193 228
165 193 228
165 193 228
164 193 228
164 192 228
164 192 228
164 192 228
164 192 228
164 192 228
163 192 228
163 192 228
163 192 228
163 192 228
163 192 228
163 192 228
163 192 228
163 192 228
162 192 228
162 192 228
162 192 228
162 192 228
162 192 228
162 191 228
162 192 228
162 191 228
162 191 228
162 192 228
162 192 228
163 192 228
163 192 228
163 192 228
163 192 228
163 192 228
163 192 228
163 192 228
163 192 228
164 192 228
164 192 228
164 193 228
165 193 228
165 193 228
165 193 228
166 194 228
166 194 228
167 194 228
168 194 228
168 195 228
170 195 228
170 196 228
172 196 228
172 197 228
171 194 224
162 183 211
158 176 201
182 201 226
207 227 254
208 228 255
208 228 255
208 228 255
208 228 255
208 228 255
208 228 255
208 228 255
208 228 255
208 228 255
208 228 255
208 228 255
208 228 255
208 228 255
208 228 255
208 228 255
208 228 255
208 228 255
208 228 255
208 228 255
208 228 255
207 228 255
207 228 255
207 228 255
207 228 255
207 228 255
207 228 255
207 228 255
207 228 255
207 228 255
207 228 255
207 228 255
207 228 255
207 228 255
207 228 255
207 228 255
207 228 255
207 228 255
207 228 255
207 227 255
207 227 255
207 227 255
207 227 255
207 227 255
206 227 255
206 227 255
206 227 255
206 227 255
206 227 255
206 227 255
206 227 255
206 227 255
206 227 255
206 227 255
206 227 255
206 227 255
206 227 255
206 227 255
206 227 255
206 227 255
206 227 255
206 227 255
206 227 255
206 227 255
206 227 255
206 227 255
206 227 255
206 227 255
206 227 255
206 227 255
206 227 255
203 224 254
179 201 236
148 171 216
116 142 198
73 106 179
62 99 177
62 99 176
62 99 177
62 99 177
62 99 175
62 99 176
62 99 178
62 99 178
63 100 179
62 99 172
63 99 172
62 99 176
62 99 175
62 99 174
62 99 176
62 99 178
62 99 177
62 98 174
62 98 175
62 99 174
67 103 177
127 152 207
145 169 214
176 198 235
202 223 253
206 227 255
206 227 255
206 227 255
206 227 255
206 227 255
206 227 255
206 227 255
206 227 255
206 227 255
206 227 255
206 227 255
206 227 255
206 227 255
206 227 255
206 227 255
206 227 255
206 227 255
206 227 255
206 227 255
206 227 255
206 227 255
206 227 255
206 227 255
206 227 255
206 227 255
206 227 255
207 227 255
207 227 255
207 227 255
207 227 255
207 227 255
207 227 255
207 227 255
207 228 255
207 228 255
207 228 255
207 228 255
207 228 255
207 228 255
207 228 255
207 228 255
207 228 255
207 228 255
207 228 255
207 228 255
207 228 255
207 228 255
207 228 255
207 228 255
207 228 255
208 228 255
208 228 255
208 228 255
208 228 255
208 228 255
208 228 255
208 228 255
208 228 255
208 228 255
208 228 255
208 228 255
208 228 255
208 228 255
208 228 255
208 228 255
208 228 255
208 228 255
208 228 255
208 228 255
208 228 255
207 227 253
177 190 200
147 150 127
132 131 87
134 133 89
135 134 90
145 145 97
147 146 98
142 141 95
143 143 97
151 151 103
147 148 100
148 147 99
147 147 99
148 148 100
151 151 102
148 148 101
152 152 103
154 155 105
151 151 103
152 153 104
159 159 108
157 158 107
162 162 110
158 158 108
158 159 108
156 157 106
160 160 109
152 153 104
161 162 110
163 164 112
165 166 112
163 164 112
162 163 110
162 163 111
158 159 108
162 163 110
164 165 112
167 167 113
161 161 109
161 162 110
164 165 112
165 166 112
165 166 112
161 161 109
165 166 113
163 164 111
166 167 113
165 165 112
167 167 113
165 166 112
167 167 113
167 167 113
167 167 113
167 167 113
167 167 113
167 167 113
168 167 113
168 168 113
169 169 114
170 169 114
167 167 113
170 169 114
167 167 113
168 167 113
170 169 114
171 170 114
171 170 114
169 168 113
170 169 113
170 169 113
170 169 113
171 169 113
166 165 110
171 169 113
166 165 111
169 167 112
168 167 112
168 167 112
168 165 110
173 169 113
171 169 113
169 167 112
165 163 109
170 168 112
169 167 111
172 169 112
169 167 111
172 168 112
171 167 110
171 168 112
166 164 109
170 167 110
173 170 113
173 169 112
171 166 110
170 165 109
165 161 107
169 166 110
167 162 107
167 163 108
168 164 109
166 161 106
170 165 109
168 163 108
168 163 108
168 162 106
161 156 103
164 160 105
163 157 103
166 161 106
160 156 103
164 159 104
162 157 103
157 151 99
180 201 228
179 200 228
179 200 228
179 200 228
179 200 228
178 200 228
178 200 228
178 200 228
177 199 228
177 199 228
176 199 228
177 199 228
175 198 228
176 199 228
176 198 228
175 198 228
175 198 228
175 198 228
174 198 228
174 198 228
174 197 228
173 197 228
173 197 228
173 197 228
173 197 228
173 197 228
172 197 228
172 196 228
172 196 228
171 196 228
171 196 228
170 196 228
170 196 228
171 196 228
170 196 228
170 195 228
170 195 228
170 195 228
169 195 228
169 195 228
168 195 228
168 195 228
168 194 228
168 194 228
168 194 228
168 194 228
167 194 228
167 194 228
167 194 228
167 194 228
166 193 228
166 194 228
166 194 228
166 194 228
166 193 228
166 193 228
165 193 228
165 193 228
165 193 228
165 193 228
165 193 228
165 193 228
164 193 228
164 193 228
164 192 228
164 192 228
164 192 228
163 192 228
163 192 228
163 192 228
163 192 228
163 192 228
163 192 228
162 192 228
163 192 228
163 192 228
162 192 228
162 192 228
162 192 228
162 192 228
162 191 228
162 191 228
162 191 228
162 191 228
162 191 228
162 191 228
162 191 228
162 191 228
162 191 228
162 192 228
162 192 228
162 192 228
163 192 228
163 192 228
163 192 228
163 192 228
164 192 228
163 192 228
164 192 228
164 192 228
164 193 228
165 193 228
165 193 228
166 193 228
167 194 228
167 194 228
168 194 228
169 195 228
170 195 228
171 196 228
172 196 228
173 197 228
171 194 224
171 193 221
164 183 207
186 205 230
209 229 255
209 229 255
209 228 255
208 228 255
208 228 255
208 228 255
208 228 255
208 228 255
208 228 255
208 228 255
208 228 255
208 228 255
208 228 255
208 228 255
208 228 255
208 228 255
208 228 255
208 228 255
208 228 255
208 228 255
208 228 255
208 228 255
208 228 255
208 228 255
208 228 255
207 228 255
207 228 255
207 228 255
207 228 255
207 228 255
207 228 255
207 228 255
207 228 255
207 228 255
207 228 255
207 228 255
207 228 255
207 228 255
207 228 255
207 228 255
207 228 255
207 228 255
207 228 255
207 227 255
207 227 255
207 227 255
207 227 255
207 227 255
207 227 255
207 227 255
206 227 255
206 227 255
206 227 255
206 227 255
206 227 255
206 227 255
206 227 255
206 227 255
206 227 255
206 227 255
206 227 255
206 227 255
206 227 255
206 227 255
206 227 255
206 227 255
202 223 253
173 195 234
125 150 202
76 108 179
61 98 175
62 99 174
63 99 178
61 98 174
62 98 172
62 99 178
62 98 173
62 99 178
62 99 173
62 99 174
62 99 175
62 99 173
62 99 175
62 99 175
62 99 176
62 98 171
62 99 177
62 99 170
63 99 176
62 98 173
62 99 174
62 98 173
62 98 175
62 98 174
61 98 174
61 97 175
61 98 170
62 99 175
76 109 180
133 157 209
159 181 223
199 221 251
206 227 255
206 227 255
206 227 255
206 227 255
206 227 255
206 227 255
206 227 255
206 227 255
206 227 255
206 227 255
206 227 255
206 227 255
206 227 255
206 227 255
206 227 255
206 227 255
207 227 255
207 227 255
207 227 255
207 227 255
207 227 255
207 227 255
207 227 255
207 228 255
207 228 255
207 228 255
207 228 255
207 228 255
207 228 255
207 228 255
207 228 255
207 228 255
207 228 255
207 228 255
207 228 255
207 228 255
207 228 255
207 228 255
207 228 255
207 228 255
207 228 255
208 228 255
208 228 255
208 228 255
208 228 255
208 228 255
208 228 255
208 228 255
208 228 255
208 228 255
208 228 255
208 228 255
208 228 255
208 228 255
208 228 255
208 228 255
208 228 255
208 228 255
208 228 255
208 228 255
208 228 255
208 228 255
209 228 255
209 228 255
209 229 255
209 229 255
192 206 220
141 143 122
136 134 89
139 137 91
135 134 90
146 145 97
145 143 96
146 146 98
153 153 103
147 145 97
151 150 101
148 148 100
154 154 104
148 147 99
149 149 101
153 154 104
153 153 103
156 156 105
151 151 103
157 157 106
149 149 101
157 157 106
158 159 108
159 160 109
156 157 106
155 156 106
161 162 110
158 158 108
159 160 108
157 158 107
157 158 108
163 164 112
158 159 108
162 163 110
160 161 109
164 165 112
162 163 110
165 166 112
161 162 110
167 167 113
163 164 111
165 165 112
164 164 111
167 167 113
164 165 112
166 167 113
165 166 112
169 169 114
167 167 113
167 167 113
169 169 114
168 168 114
168 167 113
166 166 112
167 167 113
168 168 113
168 168 113
169 169 114
166 166 113
169 169 114
169 169 114
170 169 114
169 169 114
170 169 114
170 169 114
170 169 114
170 169 114
170 169 114
171 170 114
170 169 114
170 169 114
170 169 113
172 170 114
172 170 114
173 170 114
170 169 114
170 168 113
172 169 113
172 170 114
172 170 113
173 171 114
168 167 112
171 169 113
171 168 112
172 169 113
170 168 112
169 167 111
171 168 112
172 168 112
171 167 111
171 168 112
172 168 112
171 168 112
171 167 111
168 165 109
171 167 111
171 167 111
171 167 111
168 165 109
171 167 110
174 168 110
174 169 111
166 161 107
165 161 106
169 165 109
168 163 108
163 158 104
167 162 106
168 162 107
172 167 110
168 163 107
167 162 106
167 162 107
165 159 104
164 159 104
165 159 104
180 201 228
179 200 228
180 201 228
179 200 228
178 200 228
178 200 228
177 199 228
177 199 228
177 199 228
177 199 228
176 199 228
177 199 228
176 199 228
176 199 228
175 198 228
175 198 228
175 198 228
175 198 228
174 198 228
174 197 228
174 198 228
173 197 228
173 197 228
173 197 228
173 197 228
173 197 228
172 197 228
172 196 228
172 197 228
172 196 228
171 196 228
171 196 228
171 196 228
171 196 228
171 196 228
170 195 228
170 195 228
169 195 228
169 195 228
169 195 228
169 195 228
168 195 228
168 195 228
168 194 228
168 194 228
168 194 228
167 194 228
167 194 228
167 194 228
167 194 228
167 194 228
166 194 228
166 193 228
166 193 228
166 193 228
166 193 228
166 193 228
165 193 228
165 193 228
165 193 228
165 193 228
164 193 228
165 193 228
164 193 228
164 192 228
164 192 228
164 192 228
163 192 228
163 192 228
163 192 228
163 192 228
163 192 228
163 192 228
163 192 228
163 192 228
163 192 228
162 192 228
162 192 228
162 191 228
162 191 228
162 191 228
162 191 228
162 191 228
162 191 228
162 191 228
162 191 228
162 191 228
162 191 228
162 191 228
162 191 228
162 191 228
162 191 228
162 192 228
162 192 228
163 192 228
163 192 228
163 192 228
163 192 228
163 192 228
164 192 228
164 192 228
164 193 228
165 193 228
165 193 228
166 193 228
166 193 228
167 194 228
167 194 228
168 195 228
169 195 228
170 195 228
171 196 228
172 197 228
174 198 228
172 195 225
155 174 199
178 197 221
203 223 249
209 229 255
209 229 255
209 229 255
209 229 255
209 229 255
209 228 255
209 228 255
208 228 255
208 228 255
208 228 255
208 228 255
208 228 255
208 228 255
208 228 255
208 228 255
208 228 255
208 228 255
208 228 255
208 228 255
208 228 255
208 228 255
208 228 255
208 228 255
208 228 255
208 228 255
208 228 255
208 228 255
208 228 255
207 228 255
207 228 255
207 228 255
207 228 255
207 228 255
207 228 255
207 228 255
207 228 255
207 228 255
207 228 255
207 228 255
207 228 255
207 228 255
207 228 255
207 228 255
207 228 255
207 228 255
207 228 255
207 228 255
207 228 255
207 227 255
207 227 255
207 227 255
207 227 255
207 227 255
207 227 255
207 227 255
207 227 255
207 227 255
207 227 255
206 227 255
206 227 255
206 227 255
206 227 255
193 214 245
143 166 215
83 114 184
62 99 176
61 98 175
63 99 179
62 99 177
62 99 177
62 99 177
62 98 171
62 98 170
61 98 174
62 99 170
62 99 171
62 98 170
62 99 173
61 98 173
62 99 172
62 99 172
62 99 175
62 99 173
62 98 169
62 99 174
62 98 170
62 99 172
62 99 173
61 98 168
62 98 167
61 98 174
61 98 172
63 99 178
62 99 176
62 99 174
62 98 173
62 99 174
62 99 174
61 98 172
70 104 176
130 155 208
184 205 240
205 226 255
206 227 255
206 227 255
206 227 255
207 227 255
207 227 255
207 227 255
207 227 255
207 227 255
207 227 255
207 227 255
207 227 255
207 227 255
207 228 255
207 228 255
207 228 255
207 228 255
207 228 255
207 228 255
207 228 255
207 228 255
207 228 255
207 228 255
207 228 255
207 228 255
207 228 255
207 228 255
207 228 255
207 228 255
207 228 255
207 228 255
207 228 255
207 228 255
207 228 255
208 228 255
208 228 255
208 228 255
208 228 255
208 228 255
208 228 255
208 228 255
208 228 255
208 228 255
208 228 255
208 228 255
208 228 255
208 228 255
208 228 255
208 228 255
208 228 255
208 228 255
208 228 255
208 228 255
208 228 255
208 228 255
209 228 255
209 228 255
209 229 255
209 229 255
209 229 255
209 229 255
209 229 255
197 213 233
167 175 169
128 126 84
137 134 89
141 139 93
140 139 93
148 147 99
141 140 94
137 137 93
150 149 100
147 147 99
144 144 97
151 150 101
149 150 101
149 149 101
158 158 107
151 152 103
150 150 101
154 154 104
153 153 104
151 151 103
158 159 108
153 154 104
150 151 103
154 155 105
153 154 104
159 160 109
156 157 106
156 157 106
159 160 109
161 161 109
164 165 112
162 163 110
157 158 108
162 163 110
166 167 113
164 165 112
163 163 110
164 165 112
167 168 114
162 163 110
162 163 110
166 167 113
166 166 113
166 166 113
168 168 114
168 168 114
167 167 113
167 167 113
167 168 114
167 168 113
168 168 114
168 168 114
168 168 114
168 168 114
169 169 114
168 168 114
169 169 114
170 169 114
169 169 114
169 169 114
168 168 114
167 168 114
170 169 114
169 169 114
170 169 114
169 169 114
170 169 114
169 169 114
171 170 114
171 170 114
171 169 114
170 169 114
171 170 114
172 170 114
171 170 114
172 170 114
173 170 114
171 170 114
173 171 114
172 170 114
173 170 114
172 170 113
173 171 114
173 171 114
172 170 113
173 171 114
173 170 114
172 170 113
174 170 113
174 171 113
172 168 112
174 171 114
170 166 110
174 170 113
169 166 110
174 169 112
171 167 111
170 167 111
172 168 112
172 168 112
171 166 110
172 168 110
170 166 110
172 167 110
175 170 112
169 164 108
165 161 107
169 165 109
171 166 109
168 163 107
169 164 108
159 154 101
171 166 109
166 160 105
171 165 108
169 163 107
164 158 104
179 201 228
179 200 228
179 200 228
178 200 228
178 200 228
178 200 228
178 200 228
177 199 228
177 199 228
177 199 228
177 199 228
176 199 228
176 199 228
175 198 228
176 199 228
175 198 228
175 198 228
175 198 228
174 198 228
174 198 228
174 198 228
174 197 228
173 197 228
173 197 228
173 197 228
172 197 228
172 197 228
172 197 228
172 196 228
171 196 228
172 196 228
171 196 228
171 196 228
171 196 228
171 196 228
170 195 228
170 195 228
169 195 228
169 195 228
169 195 228
169 195 228
168 195 228
168 195 228
168 195 228
168 194 228
168 194 228
167 194 228
168 194 228
167 194 228
167 194 228
167 194 228
167 194 228
166 194 228
166 194 228
166 193 228
166 193 228
166 193 228
165 193 228
165 193 228
165 193 228
165 193 228
165 193 228
164 193 228
164 193 228
164 193 228
164 192 228
164 192 228
164 192 228
164 192 228
163 192 228
163 192 228
163 192 228
163 192 228
163 192 228
163 192 228
163 192 228
163 192 228
162 192 228
162 192 228
162 192 228
162 191 228
162 191 228
162 191 228
162 191 228
162 191 228
162 191 228
162 191 228
162 191 228
162 191 228
162 191 228
162 191 228
162 191 228
162 191 228
162 192 228
162 192 228
163 192 228
163 192 228
163 192 228
163 192 228
163 192 228
164 192 228
164 192 228
164 192 228
165 193 228
165 193 228
165 193 228
166 193 228
167 194 228
167 194 228
167 194 228
168 195 228
170 195 228
171 196 228
171 196 228
173 197 228
173 196 226
168 190 219
162 181 206
184 203 228
208 228 255
209 229 255
209 229 255
209 229 255
209 229 255
209 229 255
209 229 255
209 229 255
209 229 255
209 228 255
208 228 255
208 228 255
208 228 255
208 228 255
208 228 255
208 228 255
208 228 255
208 228 255
208 228 255
208 228 255
208 228 255
208 228 255
208 228 255
208 228 255
208 228 255
208 228 255
208 228 255
208 228 255
208 228 255
208 228 255
208 228 255
208 228 255
208 228 255
208 228 255
207 228 255
207 228 255
207 228 255
207 228 255
207 228 255
207 228 255
207 228 255
207 228 255
207 228 255
207 228 255
207 228 255
207 228 255
207 228 255
207 228 255
207 228 255
207 228 255
207 228 255
207 228 255
207 228 255
207 228 255
207 228 255
207 228 255
207 228 255
207 228 255
206 227 255
167 189 228
98 126 190
61 98 172
62 99 176
62 99 178
61 98 174
61 98 171
62 99 172
62 99 171
62 99 175
61 98 173
62 98 174
62 99 175
62 99 174
61 98 172
62 99 170
61 98 170
62 99 174
61 98 171
62 99 171
61 98 170
62 99 176
62 99 172
62 99 168
62 99 169
62 99 173
61 98 170
63 99 169
62 98 173
62 99 173
63 100 179
61 97 165
61 98 169
61 97 170
61 98 172
62 98 170
61 98 172
61 97 170
62 99 173
61 97 171
61 98 174
61 98 174
102 130 190
162 184 221
205 226 254
207 227 255
207 228 255
207 228 255
207 228 255
207 228 255
207 228 255
207 228 255
207 228 255
207 228 255
207 228 255
207 228 255
207 228 255
207 228 255
207 228 255
207 228 255
207 228 255
207 228 255
207 228 255
207 228 255
207 228 255
207 228 255
207 228 255
207 228 255
207 228 255
207 228 255
208 228 255
208 228 255
208 228 255
208 228 255
208 228 255
208 228 255
208 228 255
208 228 255
208 228 255
208 228 255
208 228 255
208 228 255
208 228 255
208 228 255
208 228 255
208 228 255
208 228 255
208 228 255
208 228 255
208 228 255
208 228 255
208 228 255
209 228 255
209 228 255
209 229 255
209 229 255
209 229 255
209 229 255
209 229 255
209 229 255
209 229 255
209 229 255
208 228 254
184 196 202
139 137 95
134 132 88
140 138 92
144 142 95
155 153 103
133 132 89
147 147 99
148 147 99
148 147 99
157 156 105
149 148 100
153 153 104
152 151 102
155 155 104
157 156 106
161 161 109
160 160 108
149 149 101
163 163 110
150 150 102
160 160 109
150 150 102
161 161 109
159 160 109
160 160 109
162 163 110
159 159 108
159 159 108
159 159 108
163 164 111
160 160 109
164 165 112
166 166 113
166 166 113
164 165 112
163 164 111
165 166 113
163 164 111
167 167 113
165 166 112
165 165 112
166 166 113
166 166 113
165 166 113
168 169 114
168 168 114
168 168 114
167 168 114
167 168 114
167 168 114
168 168 114
167 168 114
168 168 114
167 168 114
169 169 114
169 169 114
170 169 114
169 169 114
169 169 114
169 169 114
168 168 114
170 169 114
170 169 114
171 170 114
171 169 114
170 169 114
170 169 114
169 169 114
171 170 114
170 169 114
171 170 114
171 169 114
172 170 114
172 170 114
171 169 114
172 170 114
172 170 114
171 170 114
173 171 114
173 170 114
173 171 114
173 171 114
175 171 114
173 170 114
173 171 114
172 170 114
173 171 114
173 171 114
174 171 114
172 170 113
174 171 114
175 171 114
176 172 114
174 171 113
174 171 113
175 172 114
172 168 111
174 170 113
174 170 113
174 170 112
173 169 112
174 170 113
173 168 111
171 166 110
176 171 112
171 167 110
174 169 112
170 166 109
174 169 112
168 163 107
172 167 109
171 166 109
166 161 106
167 162 106
171 165 109
170 164 108
171 165 108
169 162 106
179 200 228
179 200 228
179 200 228
178 200 228
179 200 228
178 200 228
178 200 228
177 199 228
177 199 228
177 199 228
177 199 228
177 199 228
176 199 228
176 199 228
176 199 228
175 198 228
175 198 228
175 198 228
175 198 228
174 198 228
174 197 228
174 198 228
173 197 228
174 197 228
173 197 228
173 197 228
173 197 228
172 197 228
172 196 228
171 196 228
172 196 228
172 196 228
171 196 228
171 196 228
171 196 228
170 196 228
170 196 228
170 195 228
170 195 228
169 195 228
169 195 228
169 195 228
169 195 228
169 195 228
169 195 228
168 194 228
168 194 228
168 194 228
167 194 228
168 194 228
167 194 228
167 194 228
167 194 228
166 194 228
166 194 228
166 193 228
166 193 228
166 193 228
166 193 228
165 193 228
165 193 228
165 193 228
165 193 228
165 193 228
164 193 228
164 192 228
164 192 228
164 192 228
164 192 228
164 192 228
163 192 228
163 192 228
163 192 228
163 192 228
163 192 228
163 192 228
163 192 228
163 192 228
163 192 228
163 192 228
162 192 228
162 192 228
162 192 228
162 191 228
162 191 228
162 191 228
162 191 228
162 191 228
162 191 228
162 191 228
162 191 228
162 191 228
162 191 228
162 191 228
162 191 228
162 192 228
163 192 228
163 192 228
163 192 228
163 192 228
163 192 228
163 192 228
164 192 228
164 192 228
164 193 228
165 193 228
165 193 228
165 193 228
166 193 228
167 194 228
167 194 228
168 194 228
168 195 228
170 195 228
171 196 228
172 197 228
174 198 228
174 197 227
169 190 218
164 182 207
193 212 237
209 229 255
209 229 255
209 229 255
209 229 255
209 229 255
209 229 255
209 229 255
209 229 255
209 229 255
209 229 255
209 229 255
209 229 255
209 228 255
209 228 255
208 228 255
208 228 255
208 228 255
208 228 255
208 228 255
208 228 255
208 228 255
208 228 255
208 228 255
208 228 255
208 228 255
208 228 255
208 228 255
208 228 255
208 228 255
208 228 255
208 228 255
208 228 255
208 228 255
208 228 255
208 228 255
208 228 255
208 228 255
208 228 255
208 228 255
207 228 255
207 228 255
207 228 255
207 228 255
207 228 255
207 228 255
207 228 255
207 228 255
207 228 255
207 228 255
207 228 255
207 228 255
207 228 255
207 228 255
207 228 255
204 225 254
174 196 233
88 118 186
61 98 176
61 98 172
61 98 172
62 98 167
62 98 169
61 98 171
62 99 174
62 99 175
62 99 174
63 99 175
62 98 170
63 99 172
63 99 173
61 98 169
62 99 172
63 99 172
62 99 171
62 98 166
62 99 173
62 99 174
62 98 168
62 99 171
62 99 172
63 99 168
61 97 167
61 98 167
61 98 165
63 99 170
61 97 163
63 99 170
62 99 172
62 98 169
62 98 168
62 99 170
62 99 173
61 97 171
62 98 170
62 99 172
61 97 166
61 98 174
62 98 174
62 98 172
60 95 166
61 98 172
82 112 176
156 179 221
205 226 254
207 228 255
207 228 255
207 228 255
207 228 255
207 228 255
207 228 255
207 228 255
207 228 255
207 228 255
207 228 255
207 228 255
207 228 255
207 228 255
207 228 255
207 228 255
208 228 255
208 228 255
208 228 255
208 228 255
208 228 255
208 228 255
208 228 255
208 228 255
208 228 255
208 228 255
208 228 255
208 228 255
208 228 255
208 228 255
208 228 255
208 228 255
208 228 255
208 228 255
208 228 255
208 228 255
208 228 255
208 228 255
208 228 255
208 228 255
208 228 255
209 228 255
209 228 255
209 229 255
209 229 255
209 229 255
209 229 255
209 229 255
209 229 255
209 229 255
209 229 255
209 229 255
209 229 255
209 229 255
209 229 255
197 213 233
149 154 142
135 132 87
141 139 93
140 138 92
143 143 96
145 143 96
144 142 95
150 149 101
152 151 101
153 152 103
147 146 98
153 153 103
153 153 103
153 152 102
151 151 102
153 153 103
148 147 99
155 155 105
161 161 109
156 156 105
157 157 106
160 160 109
158 159 108
163 163 110
157 157 106
162 162 110
164 165 112
157 157 107
164 164 111
162 162 110
159 159 108
163 164 111
163 164 111
163 164 111
164 165 112
166 166 113
164 165 112
165 166 113
164 165 112
167 167 113
167 168 114
168 168 114
168 168 114
167 168 114
168 168 114
168 168 114
168 168 114
168 168 114
168 169 114
168 168 114
169 169 114
168 168 114
169 169 114
169 169 114
169 169 114
169 169 114
168 168 114
169 169 114
169 169 114
169 169 114
169 169 114
170 169 114
170 169 114
170 169 114
172 170 114
170 169 114
169 169 114
170 169 114
170 169 114
171 170 114
171 170 114
171 170 114
172 170 114
172 170 114
171 169 114
171 170 114
172 170 114
172 170 114
172 170 114
173 171 114
174 171 114
172 170 114
173 171 114
173 170 114
172 170 114
174 171 114
174 171 114
174 171 114
174 171 114
173 171 114
174 171 114
174 171 114
174 171 114
175 171 114
175 172 114
174 170 113
176 171 113
176 172 114
173 169 112
174 170 113
174 169 112
176 172 113
174 169 112
176 171 113
172 168 111
171 167 110
170 164 108
173 168 111
176 171 113
174 169 112
175 169 110
169 164 108
166 161 106
172 166 109
166 161 106
171 166 109
167 162 106
174 168 110
176 169 110
170 164 108
180 201 228
179 201 228
179 200 228
179 200 228
179 200 228
178 200 228
177 199 228
177 199 228
177 199 228
177 199 228
176 199 228
177 199 228
177 199 228
176 199 228
176 199 228
175 198 228
175 198 228
175 198 228
175 198 228
174 198 228
174 198 228
173 197 228
174 198 228
173 197 228
173 197 228
173 197 228
173 197 228
173 197 228
172 197 228
172 197 228
172 196 228
171 196 228
171 196 228
171 196 228
171 196 228
171 196 228
171 196 228
170 196 228
170 195 228
170 195 228
169 195 228
169 195 228
169 195 228
169 195 228
169 195 228
168 195 228
168 195 228
168 194 228
168 194 228
167 194 228
167 194 228
167 194 228
167 194 228
167 194 228
167 194 228
166 194 228
166 193 228
166 193 228
166 194 228
166 193 228
165 193 228
165 193 228
165 193 228
165 193 228
164 193 228
165 193 228
164 193 228
164 192 228
164 192 228
164 192 228
164 192 228
164 192 228
163 192 228
163 192 228
163 192 228
163 192 228
163 192 228
163 192 228
163 192 228
163 192 228
163 192 228
162 192 228
162 192 228
162 191 228
162 192 228
162 191 228
162 191 228
162 191 228
162 191 228
162 191 228
162 191 228
162 191 228
162 191 228
162 191 228
162 191 228
162 191 228
162 192 228
162 192 228
163 192 228
163 192 228
163 192 228
163 192 228
164 192 228
164 192 228
164 192 228
164 193 228
165 193 228
165 193 228
165 193 228
166 193 228
167 194 228
167 194 228
168 194 228
168 195 228
170 196 228
170 196 228
171 196 228
174 197 228
173 196 226
169 190 219
158 177 202
182 200 225
209 229 255
209 229 255
209 229 255
209 229 255
209 229 255
209 229 255
209 229 255
209 229 255
209 229 255
209 229 255
209 229 255
209 229 255
209 229 255
209 229 255
209 229 255
209 229 255
209 229 255
209 228 255
209 228 255
208 228 255
208 228 255
208 228 255
208 228 255
208 228 255
208 228 255
208 228 255
208 228 255
208 228 255
208 228 255
208 228 255
208 228 255
208 228 255
208 228 255
208 228 255
208 228 255
208 228 255
208 228 255
208 228 255
208 228 255
208 228 255
208 228 255
208 228 255
208 228 255
208 228 255
208 228 255
208 228 255
208 228 255
207 228 255
207 228 255
207 228 255
207 228 255
207 228 255
171 192 229
94 123 188
62 99 174
61 98 171
62 99 178
61 98 170
62 98 170
62 99 174
61 98 171
61 98 168
62 99 172
62 99 171
62 98 168
62 99 175
62 98 171
61 98 165
62 98 170
62 99 174
62 98 167
63 99 171
62 99 173
62 98 167
62 99 174
63 99 173
62 98 171
62 99 171
62 99 169
62 98 170
62 98 170
63 99 172
62 99 170
62 98 167
62 99 166
62 99 172
62 98 167
62 99 173
62 99 171
62 99 169
62 98 168
62 98 172
62 98 170
62 99 168
62 98 171
62 98 171
62 99 173
61 97 169
62 98 174
61 98 173
62 99 177
61 97 168
109 135 191
177 198 234
207 228 255
207 228 255
207 228 255
207 228 255
207 228 255
207 228 255
208 228 255
208 228 255
208 228 255
208 228 255
208 228 255
208 228 255
208 228 255
208 228 255
208 228 255
208 228 255
208 228 255
208 228 255
208 228 255
208 228 255
208 228 255
208 228 255
208 228 255
208 228 255
208 228 255
208 228 255
208 228 255
208 228 255
208 228 255
208 228 255
208 228 255
208 228 255
208 228 255
209 228 255
209 229 255
209 229 255
209 229 255
209 229 255
209 229 255
209 229 255
209 229 255
209 229 255
209 229 255
209 229 255
209 229 255
209 229 255
209 229 255
209 229 255
209 229 255
209 229 255
209 229 255
209 228 254
180 190 191
142 140 97
129 127 85
147 144 96
142 140 94
151 149 100
147 145 97
149 147 98
142 141 95
144 143 96
147 147 99
157 156 104
151 151 102
151 150 101
158 158 107
153 153 103
151 150 101
160 160 108
162 161 109
157 157 106
157 157 106
160 160 108
160 160 108
164 164 111
162 163 110
161 162 109
159 160 108
163 163 110
164 165 112
166 166 113
163 164 111
165 166 112
165 165 112
166 166 113
163 164 111
167 168 114
164 164 112
167 167 113
167 167 113
164 165 112
165 166 113
167 168 114
167 168 113
168 168 114
168 168 114
168 168 114
169 169 114
168 168 114
167 168 114
168 168 114
169 169 114
168 169 114
168 168 114
169 169 114
169 169 114
169 169 114
170 169 114
169 169 114
170 169 114
168 168 114
169 169 114
170 169 114
170 169 114
169 169 114
170 169 114
169 169 114
170 169 114
170 169 114
170 169 114
171 170 114
171 169 114
171 169 114
173 170 114
171 170 114
172 170 114
169 169 114
172 170 114
173 170 114
172 170 114
171 170 114
172 170 114
172 170 114
173 170 114
173 170 114
172 170 114
173 170 114
173 171 114
174 171 114
174 171 114
174 171 114
174 171 114
174 171 114
175 172 114
174 171 114
176 172 114
175 172 114
176 172 114
175 172 114
176 172 114
177 172 114
175 172 114
175 172 114
174 171 113
177 172 114
177 172 113
176 172 114
176 172 113
175 171 113
174 170 112
175 170 112
174 169 111
169 164 108
173 168 110
174 169 111
175 170 112
173 168 110
176 171 112
174 168 110
173 167 110
171 166 109
171 166 109
175 169 110
180 201 228
179 200 228
179 200 228
179 200 228
178 200 228
178 200 228
178 200 228
177 199 228
178 199 228
177 199 228
177 199 228
176 199 228
177 199 228
176 199 228
176 199 228
175 198 228
175 198 228
175 198 228
174 198 228
174 197 228
174 198 228
174 198 228
174 197 228
174 197 228
173 197 228
173 197 228
173 197 228
172 197 228
173 197 228
172 197 228
172 197 228
172 196 228
171 196 228
171 196 228
171 196 228
171 196 228
171 196 228
170 196 228
170 195 228
170 196 228
169 195 228
169 195 228
169 195 228
169 195 228
169 195 228
169 195 228
168 195 228
168 195 228
168 194 228
168 195 228
168 194 228
167 194 228
167 194 228
167 194 228
167 194 228
167 194 228
166 194 228
166 193 228
166 193 228
166 193 228
166 193 228
165 193 228
166 193 228
165 193 228
165 193 228
165 193 228
165 193 228
165 193 228
164 193 228
164 193 228
164 192 228
164 192 228
163 192 228
164 192 228
164 192 228
163 192 228
163 192 228
163 192 228
163 192 228
163 192 228
163 192 228
163 192 228
163 192 228
163 192 228
163 192 228
163 192 228
162 192 228
162 192 228
162 191 228
162 192 228
162 192 228
162 191 228
162 192 228
162 192 228
162 192 228
162 192 228
163 192 228
162 192 228
163 192 228
163 192 228
163 192 228
163 192 228
164 192 228
163 192 228
164 192 228
164 192 228
164 192 228
165 193 228
165 193 228
165 193 228
166 194 228
166 194 228
167 194 228
167 194 228
168 195 228
169 195 228
170 196 228
171 196 228
172 196 228
174 198 228
176 199 228
162 182 208
165 183 207
203 222 248
209 229 255
209 229 255
209 229 255
209 229 255
209 229 255
209 229 255
209 229 255
209 229 255
209 229 255
209 229 255
209 229 255
209 229 255
209 229 255
209 229 255
209 229 255
209 229 255
209 229 255
209 229 255
209 229 255
209 229 255
209 229 255
209 229 255
209 228 255
208 228 255
208 228 255
208 228 255
208 228 255
208 228 255
208 228 255
208 228 255
208 228 255
208 228 255
208 228 255
208 228 255
208 228 255
208 228 255
208 228 255
208 228 255
208 228 255
208 228 255
208 228 255
208 228 255
208 228 255
208 228 255
208 228 255
208 228 255
208 228 255
208 228 255
187 208 241
110 137 195
62 99 175
62 99 172
62 98 172
62 99 173
61 98 171
61 98 166
62 98 171
61 97 166
61 97 166
62 98 172
62 98 171
62 99 172
61 97 167
61 97 161
62 99 172
62 99 170
63 100 173
63 99 168
62 98 165
62 98 169
62 98 168
62 99 169
62 99 166
62 98 167
63 99 167
63 99 173
61 98 164
62 98 162
63 99 169
61 98 169
62 98 170
63 99 169
61 98 170
62 99 168
62 98 165
62 99 168
62 98 173
62 98 172
62 98 170
62 98 170
63 99 173
62 98 172
62 98 171
63 99 171
61 98 173
61 97 167
62 99 170
61 96 166
62 98 170
61 97 171
61 97 168
62 98 175
120 145 201
192 213 244
208 228 255
208 228 255
208 228 255
208 228 255
208 228 255
208 228 255
208 228 255
208 228 255
208 228 255
208 228 255
208 228 255
208 228 255
208 228 255
208 228 255
208 228 255
208 228 255
208 228 255
208 228 255
208 228 255
208 228 255
208 228 255
208 228 255
208 228 255
208 228 255
208 228 255
209 228 255
209 229 255
209 229 255
209 229 255
209 229 255
209 229 255
209 229 255
209 229 255
209 229 255
209 229 255
209 229 255
209 229 255
209 229 255
209 229 255
209 229 255
209 229 255
209 229 255
209 229 255
209 229 255
209 229 255
209 229 255
209 229 255
209 229 255
194 211 231
145 149 132
143 140 93
136 133 88
145 142 95
148 146 98
140 138 93
142 140 93
145 144 97
157 157 106
150 149 100
152 151 101
151 150 101
154 153 103
155 155 104
151 150 101
154 154 104
158 158 106
152 152 103
158 158 107
158 158 107
162 162 109
161 161 109
160 160 108
165 165 112
162 163 110
162 162 109
167 167 113
162 162 110
160 160 109
162 162 110
165 165 112
166 167 113
167 168 113
167 168 113
166 166 112
168 168 114
165 166 113
166 166 112
168 168 114
168 168 114
168 168 114
168 168 114
168 168 114
168 168 114
168 168 114
168 168 114
169 169 114
168 168 114
168 168 114
168 169 114
169 169 114
168 168 114
169 169 114
168 168 114
169 169 114
169 169 114
168 168 114
169 169 114
170 169 114
169 169 114
168 169 114
171 169 114
170 169 114
169 169 114
170 169 114
170 169 114
168 168 114
171 170 114
172 170 114
171 170 114
171 169 114
171 170 114
171 170 114
171 170 114
171 170 114
171 170 114
172 170 114
172 170 114
172 170 114
172 170 114
172 170 114
173 170 114
172 170 114
172 170 114
173 171 114
174 171 114
173 171 114
173 171 114
174 171 114
174 171 114
174 171 114
175 172 114
174 171 114
174 171 114
174 171 114
176 172 114
175 171 114
175 172 114
178 173 114
175 172 114
176 172 114
176 172 114
176 172 114
179 173 114
175 172 114
176 172 114
176 172 114
177 173 114
178 173 114
177 172 113
178 173 114
178 173 114
172 168 111
173 168 110
173 168 111
178 173 114
176 170 112
175 170 112
173 167 109
174 168 110
167 161 106
174 167 109
173 167 109
180 201 228
180 201 228
179 200 228
179 200 228
179 200 228
178 200 228
178 200 228
178 200 228
177 199 228
177 199 228
177 199 228
176 199 228
176 199 228
177 199 228
176 199 228
176 198 228
176 198 228
175 198 228
175 198 228
175 198 228
175 198 228
174 198 228
174 198 228
173 197 228
174 197 228
173 197 228
173 197 228
173 197 228
173 197 228
172 197 228
172 196 228
172 197 228
172 196 228
171 196 228
171 196 228
171 196 228
171 196 228
171 196 228
170 196 228
170 196 228
170 196 228
170 195 228
170 195 228
169 195 228
169 195 228
169 195 228
169 195 228
169 195 228
169 195 228
169 195 228
168 195 228
168 194 228
167 194 228
167 194 228
167 194 228
167 194 228
167 194 228
167 194 228
167 194 228
166 193 228
166 193 228
166 194 228
166 193 228
166 193 228
165 193 228
166 193 228
165 193 228
165 193 228
165 193 228
165 193 228
164 193 228
164 193 228
164 192 228
164 192 228
164 192 228
164 192 228
164 192 228
163 192 228
164 192 228
163 192 228
163 192 228
163 192 228
163 192 228
163 192 228
163 192 228
163 192 228
163 192 228
163 192 228
162 192 228
163 192 228
162 192 228
162 192 228
162 192 228
162 192 228
163 192 228
162 192 228
163 192 228
163 192 228
163 192 228
163 192 228
163 192 228
163 192 228
163 192 228
163 192 228
164 192 228
164 192 228
164 192 228
165 193 228
165 193 228
165 193 228
166 193 228
166 193 228
166 194 228
167 194 228
168 194 228
168 195 228
169 195 228
169 195 228
171 196 228
173 197 228
174 197 228
175 198 228
171 193 221
160 179 203
189 207 232
210 229 255
210 229 255
210 229 255
210 229 255
209 229 255
209 229 255
209 229 255
209 229 255
209 229 255
209 229 255
209 229 255
209 229 255
209 229 255
209 229 255
209 229 255
209 229 255
209 229 255
209 229 255
209 229 255
209 229 255
209 229 255
209 229 255
209 229 255
209 229 255
209 229 255
209 229 255
209 229 255
209 228 255
209 228 255
208 228 255
208 228 255
208 228 255
208 228 255
208 228 255
208 228 255
208 228 255
208 228 255
208 228 255
208 228 255
208 228 255
208 228 255
208 228 255
208 228 255
208 228 255
208 228 255
208 228 255
158 180 222
76 109 181
62 99 174
63 99 174
62 98 170
62 99 173
62 98 165
62 99 170
63 99 172
62 99 170
62 98 170
61 97 161
62 98 168
62 98 171
62 99 169
61 97 164
61 98 164
62 99 165
61 97 163
62 99 170
63 99 167
62 98 164
62 98 170
63 99 172
62 98 169
62 99 172
62 99 168
62 98 161
62 98 164
62 98 166
61 97 164
61 98 163
62 99 173
61 97 163
62 99 171
62 99 171
62 99 169
62 98 161
61 97 167
63 99 172
61 98 162
61 97 170
62 98 166
61 98 171
62 97 170
62 99 169
62 98 168
61 97 165
63 99 170
61 97 168
62 98 171
62 98 168
62 98 169
62 98 173
61 96 168
62 98 171
70 104 173
153 176 219
207 227 254
208 228 255
208 228 255
208 228 255
208 228 255
208 228 255
208 228 255
208 228 255
208 228 255
208 228 255
208 228 255
208 228 255
208 228 255
208 228 255
208 228 255
208 228 255
208 228 255
209 228 255
209 229 255
209 229 255
209 229 255
209 229 255
209 229 255
209 229 255
209 229 255
209 229 255
209 229 255
209 229 255
209 229 255
209 229 255
209 229 255
209 229 255
209 229 255
209 229 255
209 229 255
209 229 255
209 229 255
209 229 255
209 229 255
209 229 255
209 229 255
209 229 255
210 229 255
210 229 255
210 229 255
210 229 255
185 197 205
144 141 102
137 135 90
137 135 90
145 143 95
144 142 95
136 134 90
145 143 96
140 138 93
149 148 99
150 148 99
155 154 104
148 147 99
147 146 99
157 157 106
163 162 109
153 154 104
164 163 110
156 156 105
161 160 108
150 150 101
165 165 111
156 156 105
159 159 108
161 161 109
163 163 110
164 164 110
167 166 112
163 163 110
165 165 112
166 165 112
165 165 112
163 163 110
167 167 113
166 167 113
166 167 113
167 168 114
168 169 114
167 167 113
168 168 114
168 168 114
168 168 114
169 169 114
167 168 114
169 169 114
168 168 114
168 168 114
169 169 114
168 168 114
168 168 114
169 169 114
169 169 114
169 169 114
169 169 114
168 168 114
168 169 114
168 169 114
169 169 114
171 169 114
170 169 114
171 169 114
169 169 114
169 169 114
169 169 114
171 170 114
169 169 114
170 169 114
170 169 114
170 169 114
171 170 114
169 169 114
172 170 114
170 169 114
171 170 114
171 170 114
170 169 114
172 170 114
173 170 114
172 170 114
171 170 114
172 170 114
173 171 114
172 170 114
173 171 114
173 170 114
173 171 114
172 170 114
174 171 114
173 171 114
174 171 114
173 171 114
174 171 114
176 172 114
174 171 114
175 172 114
173 171 114
174 171 114
175 172 114
174 171 114
176 172 114
176 172 114
176 172 114
176 172 114
177 173 114
177 173 114
178 173 114
177 173 114
178 173 114
177 172 114
178 173 114
179 173 114
177 172 114
180 174 114
174 170 112
177 172 113
179 173 113
178 173 113
180 174 114
177 171 112
176 171 112
178 171 112
171 165 108
179 172 113
174 168 110
173 168 110
180 201 228
180 201 228
179 200 228
179 200 228
178 200 228
178 200 228
178 200 228
178 200 228
177 199 228
178 199 228
177 199 228
177 199 228
176 199 228
176 199 228
176 199 228
176 199 228
175 198 228
175 198 228
175 198 228
175 198 228
175 198 228
175 198 228
174 198 228
174 198 228
174 198 228
173 197 228
174 197 228
173 197 228
173 197 228
173 197 228
173 197 228
172 197 228
172 197 228
172 196 228
172 196 228
172 197 228
171 196 228
171 196 228
171 196 228
171 196 228
170 196 228
170 196 228
170 195 228
170 196 228
170 195 228
169 195 228
169 195 228
169 195 228
169 195 228
169 195 228
168 195 228
168 195 228
168 194 228
168 194 228
167 194 228
167 194 228
167 194 228
167 194 228
167 194 228
167 194 228
166 194 228
166 194 228
166 193 228
166 194 228
166 193 228
166 193 228
166 193 228
165 193 228
165 193 228
165 193 228
165 193 228
165 193 228
164 193 228
164 193 228
164 193 228
164 192 228
164 192 228
164 192 228
164 192 228
164 192 228
164 192 228
163 192 228
163 192 228
163 192 228
163 192 228
163 192 228
163 192 228
163 192 228
163 192 228
163 192 228
163 192 228
163 192 228
163 192 228
163 192 228
163 192 228
163 192 228
163 192 228
163 192 228
163 192 228
163 192 228
163 192 228
163 192 228
163 192 228
163 192 228
163 192 228
164 192 228
164 192 228
164 192 228
164 193 228
165 193 228
165 193 228
165 193 228
166 193 228
166 194 228
167 194 228
168 194 228
168 194 228
169 195 228
170 196 228
171 196 228
171 196 228
174 197 228
175 198 228
171 193 221
166 185 212
175 193 217
209 229 255
210 229 255
210 229 255
210 229 255
210 229 255
210 229 255
210 229 255
210 229 255
210 229 255
210 229 255
209 229 255
209 229 255
209 229 255
209 229 255
209 229 255
209 229 255
209 229 255
209 229 255
209 229 255
209 229 255
209 229 255
209 229 255
209 229 255
209 229 255
209 229 255
209 229 255
209 229 255
209 229 255
209 229 255
209 229 255
209 229 255
209 229 255
209 229 255
209 229 255
209 228 255
209 228 255
208 228 255
208 228 255
208 228 255
208 228 255
208 228 255
208 228 255
208 228 255
195 216 247
109 135 192
61 97 169
62 98 174
61 97 171
62 98 170
62 99 173
62 99 171
62 98 169
62 98 168
63 100 178
62 99 171
61 98 170
62 98 165
63 99 171
62 98 171
62 99 172
62 98 164
61 98 167
62 98 167
61 98 168
62 98 166
62 99 172
63 99 172
62 98 164
62 98 164
62 98 168
62 98 161
61 97 162
61 97 165
62 98 167
63 99 168
62 99 171
63 99 170
61 97 162
62 98 165
62 98 167
62 99 169
63 99 168
62 98 164
63 99 173
62 98 165
62 98 170
61 97 165
61 97 164
63 99 170
62 99 171
61 97 167
61 98 170
63 99 167
61 97 166
61 97 169
62 98 174
61 97 167
60 96 165
61 97 166
61 97 168
60 96 164
62 98 173
61 97 169
125 149 201
197 218 247
208 228 255
208 228 255
208 228 255
208 228 255
208 228 255
208 228 255
209 228 255
209 228 255
209 228 255
209 229 255
209 229 255
209 229 255
209 229 255
209 229 255
209 229 255
209 229 255
209 229 255
209 229 255
209 229 255
209 229 255
209 229 255
209 229 255
209 229 255
209 229 255
209 229 255
209 229 255
209 229 255
209 229 255
209 229 255
209 229 255
209 229 255
209 229 255
209 229 255
210 229 255
210 229 255
210 229 255
210 229 255
210 229 255
210 229 255
210 229 255
210 229 255
210 229 255
207 225 250
161 167 156
135 132 87
145 143 95
142 140 94
145 143 96
148 146 97
141 139 93
150 149 100
151 149 100
151 150 101
153 151 101
158 156 104
154 152 102
158 157 106
155 154 104
151 150 101
161 160 108
156 156 105
163 163 110
161 160 108
161 161 109
161 161 109
163 163 110
163 163 110
162 162 109
161 161 109
163 163 110
162 162 109
164 164 111
164 164 110
167 167 113
165 165 112
166 166 112
168 168 113
169 169 114
168 168 113
169 169 114
169 169 114
169 169 114
168 169 114
168 168 114
168 169 114
168 168 114
169 169 114
168 168 114
169 169 114
168 169 114
169 169 114
169 169 114
168 168 114
168 168 114
170 169 114
169 169 114
170 169 114
169 169 114
170 169 114
169 169 114
169 169 114
170 169 114
170 169 114
169 169 114
170 169 114
170 169 114
170 169 114
170 169 114
171 169 114
171 170 114
171 170 114
171 170 114
171 170 114
171 169 114
171 170 114
172 170 114
171 170 114
171 170 114
172 170 114
172 170 114
171 170 114
172 170 114
172 170 114
173 170 114
172 170 114
173 171 114
173 170 114
172 170 114
173 171 114
173 170 114
173 171 114
174 171 114
173 170 114
174 171 114
175 171 114
175 172 114
174 171 114
176 172 114
175 171 114
176 172 114
175 172 114
175 171 114
175 171 114
177 172 114
176 172 114
176 172 114
175 171 114
177 173 114
177 172 114
177 173 114
177 173 114
178 173 114
179 173 114
178 173 114
178 173 114
179 173 114
179 173 114
177 173 114
178 173 114
179 173 114
178 172 113
178 172 112
180 173 113
177 171 112
177 171 112
174 167 109
177 171 112
175 168 110
175 169 110
180 201 228
179 200 228
179 200 228
179 200 228
179 200 228
179 200 228
179 200 228
178 200 228
178 199 228
177 199 228
178 200 228
177 199 228
177 199 228
176 199 228
177 199 228
176 198 228
177 199 228
176 198 228
176 199 228
175 198 228
175 198 228
175 198 228
175 198 228
175 198 228
174 197 228
175 198 228
174 198 228
174 198 228
173 197 228
173 197 228
173 197 228
173 197 228
172 197 228
172 197 228
172 197 228
172 196 228
171 196 228
171 196 228
171 196 228
171 196 228
171 196 228
171 196 228
171 196 228
170 196 228
170 195 228
170 196 228
169 195 228
169 195 228
169 195 228
169 195 228
169 195 228
168 194 228
168 195 228
169 195 228
168 195 228
168 194 228
168 194 228
168 194 228
167 194 228
167 194 228
167 194 228
167 194 228
166 194 228
166 194 228
166 194 228
166 194 228
166 193 228
166 193 228
165 193 228
165 193 228
165 193 228
165 193 228
165 193 228
165 193 228
165 193 228
165 193 228
165 193 228
164 193 228
164 192 228
164 192 228
164 192 228
164 192 228
164 192 228
164 192 228
164 192 228
163 192 228
163 192 228
163 192 228
163 192 228
163 192 228
163 192 228
163 192 228
163 192 228
163 192 228
163 192 228
163 192 228
163 192 228
163 192 228
163 192 228
163 192 228
163 192 228
163 192 228
163 192 228
163 192 228
164 192 228
164 192 228
164 192 228
164 193 228
165 193 228
165 193 228
165 193 228
166 193 228
166 193 228
166 193 228
167 194 228
168 194 228
168 194 228
169 195 228
169 195 228
170 195 228
171 196 228
172 197 228
173 197 228
175 198 228
171 193 221
162 182 208
171 190 214
206 225 250
210 229 255
210 229 255
210 229 255
210 229 255
210 229 255
210 229 255
210 229 255
210 229 255
210 229 255
210 229 255
210 229 255
210 229 255
210 229 255
210 229 255
209 229 255
209 229 255
209 229 255
209 229 255
209 229 255
209 229 255
209 229 255
209 229 255
209 229 255
209 229 255
209 229 255
209 229 255
209 229 255
209 229 255
209 229 255
209 229 255
209 229 255
209 229 255
209 229 255
209 229 255
209 229 255
209 229 255
209 229 255
209 229 255
209 229 255
209 229 255
178 199 234
83 114 182
62 98 171
62 98 174
62 98 173
61 97 173
62 98 168
62 98 169
62 99 171
62 98 171
61 97 164
61 98 170
62 98 165
61 98 169
63 99 172
63 99 170
61 98 169
62 98 167
61 98 165
63 99 167
63 99 169
62 98 166
62 99 169
62 98 167
61 98 164
63 99 171
62 98 164
62 99 172
62 98 164
61 98 165
63 99 168
62 97 162
62 98 161
61 97 160
62 99 173
62 98 166
63 99 170
62 98 163
62 98 165
63 99 172
62 98 163
62 98 168
63 99 171
61 98 164
61 97 162
61 97 169
62 98 165
61 97 165
61 97 161
61 97 162
61 97 161
62 98 166
61 97 169
61 96 160
61 97 160
62 98 166
62 98 172
62 98 166
61 97 168
61 97 166
62 98 172
61 97 168
76 107 172
168 190 227
209 229 255
209 229 255
209 229 255
209 229 255
209 229 255
209 229 255
209 229 255
209 229 255
209 229 255
209 229 255
209 229 255
209 229 255
209 229 255
209 229 255
209 229 255
209 229 255
209 229 255
209 229 255
209 229 255
209 229 255
209 229 255
209 229 255
209 229 255
209 229 255
209 229 255
209 229 255
210 229 255
210 229 255
210 229 255
210 229 255
210 229 255
210 229 255
210 229 255
210 229 255
210 229 255
210 229 255
210 229 255
210 229 255
210 229 255
210 229 255
201 219 242
159 164 150
129 126 84
144 141 94
136 134 90
154 151 101
147 144 96
148 145 96
153 151 101
153 151 101
145 144 97
159 157 106
153 152 102
155 154 103
155 154 103
154 152 102
157 156 104
156 156 105
162 161 108
163 162 109
165 164 110
163 162 109
167 166 112
164 163 110
162 162 109
169 168 113
160 160 108
165 164 111
161 161 109
168 168 113
167 167 113
169 168 113
168 168 113
167 167 113
168 168 113
169 169 114
169 169 114
169 169 114
168 168 114
169 169 114
169 169 114
168 168 114
169 169 114
168 169 114
168 168 114
169 169 114
169 169 114
169 169 114
169 169 114
169 169 114
170 169 114
169 169 114
170 169 114
170 169 114
170 169 114
169 169 114
169 169 114
168 169 114
169 169 114
171 170 114
169 169 114
170 169 114
169 169 114
170 169 114
171 170 114
170 169 114
172 170 114
171 170 114
171 170 114
170 169 114
171 170 114
171 169 114
170 169 114
171 170 114
171 170 114
173 171 114
172 170 114
173 171 114
174 171 114
173 171 114
173 170 114
173 171 114
172 170 114
173 171 114
173 171 114
174 171 114
174 171 114
175 171 114
174 171 114
174 171 114
173 171 114
175 172 114
175 171 114
175 172 114
175 172 114
176 172 114
176 172 114
176 172 114
174 171 114
175 171 114
175 172 114
176 172 114
177 172 114
177 173 114
176 172 114
177 172 114
177 172 114
177 173 114
177 172 114
177 172 114
177 173 114
179 173 114
179 173 114
178 173 114
178 173 114
179 173 114
178 173 114
177 173 114
179 173 114
179 173 114
181 174 114
179 173 113
178 173 113
174 168 110
178 172 112
177 171 112
176 170 112
176 170 111
180 201 228
180 201 228
179 200 228
179 200 228
179 200 228
179 200 228
178 200 228
179 200 228
178 200 228
179 200 228
178 200 228
177 199 228
177 199 228
177 199 228
176 199 228
176 199 228
176 199 228
176 199 228
176 199 228
176 199 228
175 198 228
175 198 228
175 198 228
175 198 228
175 198 228
175 198 228
174 198 228
174 198 228
174 197 228
174 197 228
173 197 228
173 197 228
172 197 228
173 197 228
172 197 228
172 197 228
172 197 228
172 196 228
172 196 228
172 196 228
171 196 228
171 196 228
171 196 228
171 196 228
170 196 228
171 196 228
170 196 228
170 195 228
170 195 228
169 195 228
169 195 228
169 195 228
168 195 228
168 195 228
168 194 228
168 195 228
168 194 228
168 194 228
168 194 228
167 194 228
168 194 228
167 194 228
167 194 228
167 194 228
167 194 228
166 194 228
166 194 228
166 194 228
166 193 228
166 193 228
166 193 228
166 193 228
165 193 228
166 193 228
165 193 228
165 193 228
165 193 228
165 193 228
165 193 228
164 193 228
165 193 228
164 192 228
164 192 228
164 192 228
164 192 228
164 192 228
164 192 228
164 192 228
164 192 228
163 192 228
164 192 228
163 192 228
163 192 228
163 192 228
163 192 228
163 192 228
163 192 228
163 192 228
163 192 228
163 192 228
163 192 228
164 192 228
164 192 228
164 192 228
164 192 228
164 193 228
164 193 228
164 193 228
164 193 228
165 193 228
165 193 228
166 193 228
166 193 228
166 194 228
166 194 228
167 194 228
167 194 228
168 194 228
168 194 228
169 195 228
170 195 228
171 196 228
171 196 228
173 197 228
175 198 228
174 197 226
170 190 218
163 181 206
190 208 233
210 229 255
210 229 255
210 229 255
210 229 255
210 229 255
210 229 255
210 229 255
210 229 255
210 229 255
210 229 255
210 229 255
210 229 255
210 229 255
210 229 255
210 229 255
210 229 255
210 229 255
210 229 255
210 229 255
210 229 255
209 229 255
209 229 255
209 229 255
209 229 255
209 229 255
209 229 255
209 229 255
209 229 255
209 229 255
209 229 255
209 229 255
209 229 255
209 229 255
209 229 255
209 229 255
209 229 255
209 229 255
207 227 254
151 173 213
61 97 171
61 97 170
61 97 172
61 98 170
61 97 171
61 98 172
61 98 168
62 98 164
62 97 164
62 98 169
62 99 168
62 98 165
62 98 166
62 98 174
62 99 170
62 98 167
62 98 170
61 97 165
62 98 171
62 98 164
62 99 165
62 99 169
62 98 165
61 97 160
62 98 168
63 100 175
62 98 165
63 99 168
62 98 160
62 98 166
61 97 163
62 98 165
62 99 169
62 98 168
62 98 166
61 98 163
61 97 163
62 98 168
61 97 161
62 98 167
62 98 162
62 98 168
62 98 162
62 98 161
61 98 162
62 97 161
62 98 167
62 98 164
60 96 162
61 98 165
61 96 163
62 97 165
62 98 166
61 97 157
61 96 162
62 98 166
60 95 159
61 96 161
62 97 167
62 98 167
60 95 158
61 96 169
60 95 161
60 95 159
153 174 212
208 228 255
209 229 255
209 229 255
209 229 255
209 229 255
209 229 255
209 229 255
209 229 255
209 229 255
209 229 255
209 229 255
209 229 255
209 229 255
209 229 255
209 229 255
209 229 255
209 229 255
209 229 255
210 229 255
210 229 255
210 229 255
210 229 255
210 229 255
210 229 255
210 229 255
210 229 255
210 229 255
210 229 255
210 229 255
210 229 255
210 229 255
210 229 255
210 229 255
210 229 255
210 229 255
210 229 255
210 229 255
210 229 255
197 213 230
134 134 103
133 130 86
133 130 86
144 141 93
155 152 101
151 148 99
154 151 101
152 150 100
154 152 102
157 155 104
153 151 101
152 151 101
153 152 102
155 154 103
160 159 107
155 154 103
156 155 104
163 163 110
160 160 108
163 162 109
167 167 112
157 156 105
166 166 112
163 163 110
166 165 111
164 163 110
166 166 112
167 167 113
167 166 112
166 166 112
167 166 112
168 168 113
169 169 114
168 168 113
168 168 114
168 169 114
169 169 114
169 169 114
170 169 114
169 169 114
169 169 114
169 169 114
169 169 114
170 169 114
170 169 114
169 169 114
169 169 114
169 169 114
169 169 114
169 169 114
170 169 114
170 169 114
170 169 114
170 169 114
169 169 114
169 169 114
170 169 114
169 169 114
171 170 114
170 169 114
170 169 114
172 170 114
173 170 114
171 170 114
171 170 114
171 170 114
171 170 114
171 170 114
171 170 114
171 170 114
172 170 114
172 170 114
172 170 114
170 169 114
173 170 114
172 170 114
173 170 114
173 171 114
172 170 114
173 170 114
174 171 114
173 171 114
174 171 114
174 171 114
173 170 114
172 170 114
174 171 114
174 171 114
176 172 114
174 171 114
173 171 114
175 171 114
174 171 114
174 171 114
175 172 114
176 172 114
176 172 114
176 172 114
176 172 114
175 172 114
175 172 114
177 173 114
176 172 114
177 172 114
177 172 114
177 172 114
177 172 114
176 172 114
178 173 114
178 173 114
179 173 114
178 173 114
177 173 114
178 173 114
179 174 114
177 173 114
180 174 114
181 174 114
179 173 114
180 174 114
180 174 114
182 175 114
180 174 113
179 173 113
178 172 113
179 173 113
177 170 112
178 171 112
180 201 228
180 201 228
180 201 228
180 201 228
180 201 228
179 200 228
179 200 228
179 200 228
178 200 228
178 200 228
178 200 228
178 199 228
177 199 228
177 199 228
177 199 228
176 199 228
177 199 228
177 199 228
176 199 228
176 199 228
176 199 228
176 198 228
176 198 228
175 198 228
174 198 228
175 198 228
175 198 228
174 198 228
174 198 228
174 197 228
174 197 228
174 197 228
173 197 228
173 197 228
173 197 228
173 197 228
173 197 228
173 197 228
172 196 228
172 196 228
171 196 228
172 196 228
171 196 228
171 196 228
171 196 228
171 196 228
170 196 228
170 196 228
170 196 228
170 195 228
170 195 228
169 195 228
169 195 228
169 195 228
169 195 228
169 195 228
168 195 228
168 195 228
168 195 228
168 195 228
168 194 228
168 194 228
168 194 228
167 194 228
168 194 228
167 194 228
167 194 228
166 194 228
167 194 228
166 194 228
166 194 228
166 193 228
166 193 228
166 193 228
166 193 228
166 193 228
165 193 228
165 193 228
165 193 228
165 193 228
165 193 228
165 193 228
165 193 228
164 193 228
164 193 228
164 193 228
164 193 228
164 192 228
164 192 228
164 192 228
164 192 228
164 192 228
164 192 228
164 192 228
164 192 228
164 192 228
164 192 228
164 192 228
164 192 228
164 192 228
164 192 228
164 192 228
164 192 228
164 192 228
164 193 228
164 192 228
165 193 228
164 193 228
165 193 228
165 193 228
165 193 228
165 193 228
166 193 228
166 193 228
166 194 228
167 194 228
167 194 228
168 194 228
169 195 228
168 195 228
170 195 228
170 195 228
171 196 228
172 197 228
174 197 228
175 198 228
176 199 228
168 188 216
166 185 210
195 214 239
210 230 255
210 230 255
210 230 255
210 229 255
210 229 255
210 229 255
210 229 255
210 229 255
210 229 255
210 229 255
210 229 255
210 229 255
210 229 255
210 229 255
210 229 255
210 229 255
210 229 255
210 229 255
210 229 255
210 229 255
210 229 255
210 229 255
210 229 255
210 229 255
210 229 255
210 229 255
210 229 255
209 229 255
209 229 255
209 229 255
209 229 255
209 229 255
209 229 255
209 229 255
209 229 255
208 228 255
131 155 204
61 97 167
61 98 173
62 98 169
61 98 172
61 97 168
61 97 165
61 97 167
62 99 172
61 97 158
62 98 169
61 97 162
62 98 166
62 99 170
61 97 159
62 98 170
62 99 169
62 98 167
62 98 164
62 98 164
62 98 159
61 97 158
61 98 163
62 98 163
63 99 171
61 97 162
62 99 168
61 97 162
62 98 167
62 98 161
62 99 170
61 97 160
62 98 165
62 98 165
62 98 161
62 98 161
61 97 161
63 99 167
60 96 163
62 98 167
62 98 163
62 98 163
62 98 163
62 98 164
62 99 166
61 97 165
63 99 167
62 99 170
62 97 167
61 97 164
62 97 167
61 97 162
62 98 164
61 97 165
61 96 162
62 98 168
60 96 161
60 95 162
62 97 168
61 97 163
59 94 158
61 96 168
61 97 163
60 95 163
62 98 168
60 95 162
61 96 162
119 143 191
203 223 251
209 229 255
209 229 255
209 229 255
209 229 255
209 229 255
209 229 255
209 229 255
209 229 255
210 229 255
210 229 255
210 229 255
210 229 255
210 229 255
210 229 255
210 229 255
210 229 255
210 229 255
210 229 255
210 229 255
210 229 255
210 229 255
210 229 255
210 229 255
210 229 255
210 229 255
210 229 255
210 229 255
210 229 255
210 229 255
210 229 255
210 229 255
210 229 255
210 230 255
210 230 255
210 230 255
192 206 218
127 124 83
138 134 87
145 142 94
147 144 95
145 142 94
147 145 96
153 151 101
138 137 92
148 147 99
153 152 102
163 161 108
159 157 105
149 147 99
157 155 104
159 157 106
157 156 105
159 158 106
163 162 109
163 162 109
156 155 104
157 157 106
166 164 110
164 164 110
168 166 112
164 163 110
169 168 113
169 167 112
166 165 111
168 168 113
167 166 112
169 168 113
169 168 113
168 168 113
169 169 114
170 169 114
170 169 114
170 169 114
169 169 114
170 169 114
170 169 114
170 169 114
169 169 114
170 169 114
170 169 114
169 169 114
170 169 114
170 169 114
170 169 114
170 169 114
170 169 114
170 169 114
170 169 114
170 169 114
171 170 114
171 170 114
170 169 114
171 170 114
170 169 114
171 170 114
171 170 114
170 169 114
170 169 114
172 170 114
171 170 114
171 169 114
171 170 114
171 170 114
171 170 114
173 171 114
173 171 114
171 170 114
173 170 114
172 170 114
174 171 114
173 171 114
173 171 114
172 170 114
174 171 114
172 170 114
172 170 114
173 171 114
173 171 114
172 170 114
175 171 114
175 171 114
175 171 114
174 171 114
175 171 114
174 171 114
175 172 114
175 172 114
176 172 114
175 171 114
175 172 114
175 172 114
176 172 114
175 171 114
176 172 114
175 172 114
177 172 114
177 172 114
178 173 114
178 173 114
178 173 114
177 172 114
178 173 114
177 173 114
179 173 114
177 172 114
177 172 114
177 172 114
179 173 114
177 173 114
177 173 114
179 173 114
180 174 114
179 173 114
182 175 114
179 174 114
180 174 114
181 174 114
179 173 114
180 174 114
180 174 114
181 174 114
181 174 114
178 172 113
181 174 113
180 173 113
180 201 228
180 201 228
180 201 228
179 200 228
180 201 228
179 200 228
179 200 228
179 200 228
179 200 228
179 200 228
178 200 228
178 200 228
178 200 228
178 200 228
178 200 228
177 199 228
177 199 228
176 199 228
177 199 228
176 199 228
176 199 228
176 199 228
175 198 228
175 198 228
175 198 228
174 198 228
174 198 228
174 198 228
175 198 228
174 198 228
174 198 228
174 198 228
174 198 228
173 197 228
173 197 228
173 197 228
173 197 228
173 197 228
172 197 228
172 197 228
171 196 228
172 196 228
172 196 228
172 196 228
171 196 228
171 196 228
171 196 228
170 196 228
171 196 228
170 196 228
170 196 228
170 196 228
170 196 228
170 195 228
169 195 228
169 195 228
169 195 228
169 195 228
169 195 228
169 195 228
169 195 228
168 194 228
168 194 228
168 195 228
168 194 228
168 194 228
168 194 228
167 194 228
167 194 228
167 194 228
167 194 228
166 194 228
166 194 228
167 194 228
167 194 228
166 194 228
166 193 228
166 193 228
166 193 228
165 193 228
165 193 228
165 193 228
165 193 228
165 193 228
165 193 228
165 193 228
165 193 228
165 193 228
165 193 228
164 193 228
164 193 228
164 193 228
164 193 228
165 193 228
164 192 228
164 192 228
164 192 228
164 193 228
164 193 228
164 192 228
164 193 228
164 193 228
165 193 228
164 193 228
165 193 228
165 193 228
165 193 228
165 193 228
165 193 228
165 193 228
165 193 228
166 193 228
166 194 228
166 193 228
167 194 228
167 194 228
167 194 228
167 194 228
168 194 228
168 195 228
169 195 228
169 195 228
171 196 228
171 196 228
173 197 228
173 197 228
175 198 228
177 199 228
176 196 224
163 183 208
185 203 226
211 230 255
211 230 255
211 230 255
211 230 255
211 230 255
211 230 255
210 230 255
210 230 255
210 230 255
210 229 255
210 229 255
210 229 255
210 229 255
210 229 255
210 229 255
210 229 255
210 229 255
210 229 255
210 229 255
210 229 255
210 229 255
210 229 255
210 229 255
210 229 255
210 229 255
210 229 255
210 229 255
210 229 255
210 229 255
210 229 255
210 229 255
210 229 255
210 229 255
198 218 248
117 142 195
62 98 172
62 98 171
62 98 170
61 98 168
61 97 168
62 98 169
63 99 171
61 97 164
62 99 170
62 98 168
61 97 161
60 97 166
62 98 171
62 98 164
61 97 162
61 97 166
62 98 168
62 98 163
62 98 166
62 98 165
62 98 166
62 98 164
60 96 155
61 98 163
63 99 174
61 97 157
60 96 153
62 98 166
62 98 163
62 98 171
63 99 169
62 98 165
62 98 162
62 98 163
62 98 166
61 97 163
63 99 164
61 96 156
62 98 162
62 98 160
63 99 167
61 98 164
61 97 162
62 98 168
62 98 167
62 98 162
61 98 162
62 98 161
62 97 158
61 97 162
62 97 163
61 97 163
62 98 167
62 97 160
62 98 162
61 97 161
61 96 163
61 97 162
61 97 164
62 97 161
61 97 163
61 97 159
62 97 164
61 96 157
62 98 171
59 94 157
62 97 164
62 97 166
126 149 196
203 222 251
210 229 255
210 229 255
210 229 255
210 229 255
210 229 255
210 229 255
210 229 255
210 229 255
210 229 255
210 229 255
210 229 255
210 229 255
210 229 255
210 229 255
210 229 255
210 229 255
210 229 255
210 229 255
210 229 255
210 229 255
210 229 255
210 229 255
210 229 255
210 229 255
210 230 255
210 230 255
210 230 255
211 230 255
211 230 255
211 230 255
211 230 255
211 230 255
211 230 255
181 192 197
139 135 89
139 135 88
145 142 93
154 150 99
146 143 96
149 147 99
146 144 96
145 143 96
145 144 97
150 148 99
154 153 103
151 149 100
157 155 104
162 159 106
151 150 102
158 156 105
154 153 103
163 163 110
159 158 107
166 165 110
170 168 112
164 163 110
165 164 110
166 165 110
168 167 113
164 163 109
167 167 112
167 167 112
170 169 113
171 170 114
169 168 113
170 169 114
169 169 114
170 169 114
170 169 114
171 170 114
170 169 114
170 169 114
171 170 114
170 169 114
170 169 114
170 169 114
170 169 114
171 170 114
170 169 114
171 170 114
170 169 114
171 170 114
170 169 114
170 169 114
170 169 114
170 169 114
171 169 114
170 169 114
172 170 114
171 170 114
170 169 114
169 169 114
171 170 114
170 169 114
170 169 114
171 170 114
171 170 114
171 170 114
172 170 114
171 170 114
173 170 114
172 170 114
174 171 114
171 170 114
173 170 114
172 170 114
172 170 114
173 170 114
172 170 114
173 171 114
173 171 114
172 170 114
174 171 114
173 171 114
174 171 114
175 171 114
174 171 114
173 171 114
174 171 114
174 171 114
174 171 114
175 172 114
175 172 114
176 172 114
174 171 114
175 172 114
175 172 114
174 171 114
175 171 114
175 171 114
176 172 114
174 171 114
177 172 114
177 173 114
177 172 114
177 173 114
176 172 114
177 173 114
178 173 114
178 173 114
179 173 114
177 173 114
178 173 114
179 173 114
178 173 114
178 173 114
180 174 114
179 173 114
178 173 114
182 175 114
179 173 114
180 174 114
180 174 114
181 174 114
180 174 114
181 174 114
181 174 114
181 174 114
181 174 114
181 175 114
181 174 114
181 174 114
180 173 113
181 174 113
181 201 228
180 201 228
180 201 228
180 201 228
179 200 228
180 201 228
179 200 228
179 200 228
179 200 228
179 200 228
179 200 228
179 200 228
178 200 228
178 200 228
177 199 228
178 200 228
178 200 228
177 199 228
177 199 228
177 199 228
176 199 228
176 199 228
176 199 228
176 199 228
176 199 228
176 198 228
175 198 228
176 198 228
175 198 228
175 198 228
175 198 228
174 198 228
174 198 228
174 197 228
174 197 228
174 198 228
173 197 228
173 197 228
173 197 228
173 197 228
172 197 228
172 197 228
172 197 228
172 197 228
172 197 228
172 197 228
172 197 228
171 196 228
171 196 228
171 196 228
171 196 228
171 196 228
171 196 228
170 195 228
170 195 228
170 195 228
170 195 228
169 195 228
170 195 228
169 195 228
168 195 228
169 195 228
168 195 228
168 195 228
168 195 228
168 194 228
168 195 228
168 194 228
168 194 228
167 194 228
167 194 228
167 194 228
167 194 228
167 194 228
167 194 228
167 194 228
167 194 228
166 194 228
166 194 228
166 193 228
166 193 228
166 193 228
166 193 228
166 193 228
165 193 228
165 193 228
165 193 228
165 193 228
165 193 228
165 193 228
165 193 228
165 193 228
165 193 228
165 193 228
165 193 228
165 193 228
164 193 228
165 193 228
165 193 228
165 193 228
165 193 228
165 193 228
165 193 228
165 193 228
165 193 228
165 193 228
165 193 228
165 193 228
165 193 228
165 193 228
166 193 228
166 193 228
166 194 228
166 194 228
166 194 228
167 194 228
167 194 228
167 194 228
168 194 228
169 195 228
169 195 228
170 195 228
170 196 228
171 196 228
172 197 228
172 197 228
174 197 228
175 198 228
177 199 228
176 197 225
163 181 206
186 204 228
211 230 255
211 230 255
211 230 255
211 230 255
211 230 255
211 230 255
211 230 255
211 230 255
211 230 255
211 230 255
211 230 255
211 230 255
210 230 255
210 230 255
210 230 255
210 229 255
210 229 255
210 229 255
210 229 255
210 229 255
210 229 255
210 229 255
210 229 255
210 229 255
210 229 255
210 229 255
210 229 255
210 229 255
210 229 255
210 229 255
210 229 255
202 222 250
106 132 188
61 98 172
61 97 169
62 98 172
61 98 173
61 98 169
61 97 165
62 98 166
61 97 164
61 97 161
61 98 165
62 98 167
62 98 169
61 97 164
62 97 164
62 98 161
61 96 161
62 99 168
63 99 166
62 98 165
61 98 162
62 98 164
62 98 165
62 98 165
61 98 165
62 98 163
62 98 158
62 98 158
63 99 169
62 97 161
61 97 159
62 98 161
63 98 165
62 98 162
62 98 167
61 97 156
62 98 166
61 96 152
60 96 155
61 97 155
61 97 160
62 98 163
62 98 163
63 99 166
63 99 167
60 96 157
62 97 164
62 97 164
63 99 163
61 96 161
62 98 164
61 97 164
61 97 160
62 97 164
61 97 164
62 98 167
61 97 160
61 97 165
61 97 162
61 96 160
62 98 164
61 97 165
61 97 162
61 96 162
62 97 165
60 94 162
61 96 162
60 96 157
60 95 155
60 95 163
60 95 163
103 129 185
202 221 248
210 229 255
210 229 255
210 229 255
210 229 255
210 229 255
210 229 255
210 229 255
210 229 255
210 229 255
210 229 255
210 229 255
210 229 255
210 229 255
210 229 255
210 229 255
210 229 255
210 230 255
210 230 255
210 230 255
211 230 255
211 230 255
211 230 255
211 230 255
211 230 255
211 230 255
211 230 255
211 230 255
211 230 255
211 230 255
211 230 255
211 230 255
183 194 200
142 138 90
151 148 98
141 139 91
139 137 91
144 142 95
140 138 92
146 144 97
151 149 101
154 152 103
159 157 105
149 147 99
160 158 106
159 157 105
146 145 98
163 162 109
153 152 103
160 159 107
161 160 108
165 164 110
159 158 107
168 166 111
163 162 108
163 161 108
163 161 108
169 167 112
168 166 112
164 164 110
169 168 113
171 170 114
168 168 113
171 170 114
171 170 114
170 169 114
172 170 114
170 169 114
169 169 114
170 169 114
171 170 114
170 169 114
171 170 114
171 170 114
171 170 114
171 170 114
171 170 114
171 170 114
171 170 114
169 169 114
171 170 114
170 169 114
170 169 114
170 169 114
171 170 114
172 170 114
172 170 114
170 169 114
172 170 114
171 170 114
171 170 114
171 170 114
172 170 114
172 170 114
172 170 114
170 169 114
172 170 114
172 170 114
172 170 114
172 170 114
173 171 114
172 170 114
172 170 114
172 170 114
173 171 114
173 171 114
173 171 114
172 170 114
174 171 114
173 171 114
173 171 114
173 171 114
174 171 114
173 171 114
173 171 114
174 171 114
175 171 114
174 171 114
175 171 114
174 171 114
173 171 114
175 172 114
176 172 114
176 172 114
177 172 114
175 172 114
177 172 114
177 172 114
176 172 114
176 172 114
177 173 114
176 172 114
178 173 114
176 172 114
175 172 114
177 172 114
177 173 114
179 174 114
177 172 114
178 173 114
177 173 114
179 173 114
178 173 114
179 174 114
179 173 114
179 174 114
180 174 114
178 173 114
178 173 114
180 174 114
180 174 114
180 174 114
181 174 114
180 174 114
181 174 114
182 175 114
182 175 114
180 174 114
181 174 114
182 175 114
181 174 114
183 175 114
181 174 114
182 175 114
181 201 228
181 201 228
181 201 228
180 201 228
181 201 228
180 201 228
179 200 228
180 201 228
179 200 228
179 200 228
179 200 228
179 200 228
178 200 228
178 200 228
178 200 228
178 200 228
178 200 228
178 200 228
178 200 228
177 199 228
177 199 228
177 199 228
177 199 228
177 199 228
176 199 228
176 199 228
175 198 228
176 198 228
176 199 228
175 198 228
175 198 228
174 198 228
174 198 228
174 198 228
174 198 228
174 198 228
174 198 228
174 197 228
173 197 228
173 197 228
173 197 228
173 197 228
173 197 228
173 197 228
172 197 228
172 197 228
172 197 228
172 196 228
172 197 228
172 196 228
171 196 228
171 196 228
171 196 228
171 196 228
171 196 228
171 196 228
170 195 228
170 196 228
170 195 228
169 195 228
169 195 228
170 195 228
169 195 228
169 195 228
168 195 228
169 195 228
169 195 228
169 195 228
168 195 228
168 194 228
168 194 228
168 195 228
167 194 228
167 194 228
167 194 228
167 194 228
167 194 228
167 194 228
167 194 228
167 194 228
166 194 228
166 194 228
166 194 228
166 193 228
166 194 228
166 193 228
166 193 228
166 193 228
166 193 228
165 193 228
165 193 228
165 193 228
166 193 228
165 193 228
165 193 228
165 193 228
165 193 228
166 193 228
165 193 228
165 193 228
165 193 228
165 193 228
165 193 228
165 193 228
165 193 228
165 193 228
165 193 228
165 193 228
166 193 228
166 193 228
166 193 228
166 193 228
167 194 228
166 193 228
167 194 228
167 194 228
167 194 228
168 194 228
168 194 228
169 195 228
169 195 228
169 195 228
169 195 228
170 196 228
171 196 228
173 197 228
173 197 228
174 198 228
175 198 228
176 199 228
175 195 223
163 182 207
170 187 210
211 230 255
211 230 255
211 230 255
211 230 255
211 230 255
211 230 255
211 230 255
211 230 255
211 230 255
211 230 255
211 230 255
211 230 255
211 230 255
211 230 255
211 230 255
211 230 255
211 230 255
211 230 255
211 230 255
210 230 255
210 230 255
210 230 255
210 230 255
210 229 255
210 229 255
210 229 255
210 229 255
210 229 255
210 229 255
198 218 247
103 130 192
61 97 166
62 98 168
60 96 165
62 98 169
61 97 164
62 98 169
61 97 166
62 98 171
62 98 165
61 97 169
61 97 158
60 96 156
62 98 168
62 98 164
60 96 159
61 98 162
61 97 163
61 97 161
61 97 162
61 97 159
61 97 161
61 97 160
63 99 166
62 98 157
61 98 163
62 97 165
62 99 166
62 98 163
62 98 163
62 98 163
62 97 161
61 97 161
61 98 158
62 99 168
62 99 168
62 98 166
62 98 163
62 99 165
62 98 165
62 98 159
61 97 156
61 98 164
61 97 161
62 98 158
62 97 164
63 99 167
62 98 156
62 97 162
62 98 163
61 96 156
61 96 156
62 98 163
62 97 157
63 99 168
62 98 170
60 96 159
62 97 163
62 98 165
61 97 166
62 98 162
62 97 161
61 97 165
62 97 165
61 97 160
60 95 156
61 96 157
62 97 167
61 97 167
62 98 163
61 96 162
60 95 159
62 98 165
108 132 185
201 221 249
210 229 255
210 229 255
210 229 255
210 229 255
210 229 255
210 229 255
210 230 255
210 230 255
210 230 255
210 230 255
211 230 255
211 230 255
211 230 255
211 230 255
211 230 255
211 230 255
211 230 255
211 230 255
211 230 255
211 230 255
211 230 255
211 230 255
211 230 255
211 230 255
211 230 255
211 230 255
211 230 255
211 230 255
211 230 255
169 177 176
128 125 80
147 143 94
139 136 90
143 141 95
141 138 91
143 141 94
151 149 101
150 149 100
136 137 94
153 152 103
147 146 98
145 145 98
156 155 104
154 153 103
160 158 107
159 158 106
159 159 107
152 151 102
165 164 110
159 158 107
160 159 107
163 161 108
162 161 108
168 167 112
170 168 113
169 168 113
168 166 111
171 170 114
171 169 113
171 170 114
171 170 114
170 169 114
171 170 114
171 170 114
171 170 114
170 169 114
170 169 114
172 170 114
170 169 114
170 169 114
171 170 114
171 170 114
171 170 114
171 170 114
172 170 114
170 169 114
171 170 114
171 170 114
170 169 114
171 169 114
171 170 114
170 169 114
170 169 114
171 170 114
171 170 114
173 171 114
173 171 114
172 170 114
171 170 114
173 170 114
172 170 114
172 170 114
171 170 114
172 170 114
173 171 114
173 171 114
173 170 114
172 170 114
174 171 114
174 171 114
173 171 114
174 171 114
173 171 114
174 171 114
173 171 114
172 170 114
173 171 114
175 172 114
174 171 114
175 171 114
173 171 114
175 172 114
175 172 114
175 172 114
174 171 114
176 172 114
175 171 114
175 172 114
175 171 114
176 172 114
175 172 114
177 173 114
177 172 114
176 172 114
177 172 114
176 172 114
175 172 114
177 172 114
177 173 114
176 172 114
178 173 114
177 172 114
178 173 114
177 172 114
178 173 114
178 173 114
179 173 114
178 173 114
178 173 114
179 174 114
178 173 114
178 173 114
180 174 114
181 174 114
179 173 114
180 174 114
180 174 114
178 173 114
180 174 114
181 174 114
180 174 114
178 173 114
180 174 114
181 175 114
181 174 114
180 174 114
182 175 114
182 175 114
182 175 114
182 175 114
184 176 114
181 174 114
181 202 228
181 201 228
181 201 228
181 201 228
180 201 228
180 201 228
180 201 228
180 201 228
180 201 228
179 200 228
179 200 228
180 201 228
179 200 228
179 200 228
178 200 228
178 200 228
178 200 228
178 200 228
178 199 228
177 199 228
178 199 228
177 199 228
176 199 228
177 199 228
177 199 228
176 199 228
176 199 228
176 199 228
176 199 228
176 199 228
175 198 228
175 198 228
175 198 228
175 198 228
175 198 228
175 198 228
174 198 228
174 198 228
174 198 228
173 197 228
174 198 228
173 197 228
173 197 228
174 197 228
173 197 228
173 197 228
173 197 228
172 197 228
172 197 228
172 196 228
172 197 228
171 196 228
171 196 228
171 196 228
171 196 228
171 196 228
171 196 228
171 196 228
170 196 228
170 196 228
170 196 228
170 195 228
170 195 228
170 195 228
169 195 228
170 195 228
169 195 228
169 195 228
168 195 228
168 195 228
168 195 228
168 195 228
168 195 228
168 194 228
168 194 228
168 194 228
168 194 228
168 194 228
167 194 228
167 194 228
167 194 228
167 194 228
167 194 228
167 194 228
166 194 228
167 194 228
166 194 228
166 194 228
166 194 228
167 194 228
166 194 228
166 193 228
166 193 228
166 193 228
166 193 228
166 193 228
166 193 228
166 193 228
166 193 228
166 193 228
166 193 228
166 193 228
166 193 228
166 193 228
166 193 228
166 193 228
166 193 228
166 193 228
166 194 228
166 194 228
166 193 228
167 194 228
167 194 228
167 194 228
167 194 228
167 194 228
167 194 228
168 194 228
167 194 228
168 195 228
169 195 228
169 195 228
170 195 228
170 195 228
170 196 228
172 196 228
172 197 228
173 197 228
174 198 228
176 199 228
178 200 228
174 195 223
165 184 209
182 199 222
211 230 255
211 230 255
211 230 255
211 230 255
211 230 255
211 230 255
211 230 255
211 230 255
211 230 255
211 230 255
211 230 255
211 230 255
211 230 255
211 230 255
211 230 255
211 230 255
211 230 255
211 230 255
211 230 255
211 230 255
211 230 255
211 230 255
211 230 255
211 230 255
211 230 255
211 230 255
211 230 255
206 225 252
105 131 190
61 97 168
61 97 168
60 97 167
61 98 165
61 97 164
61 97 164
61 97 163
61 97 167
61 96 164
61 96 159
62 98 167
62 98 159
62 98 166
61 97 163
62 98 164
61 97 160
61 97 164
62 98 164
61 97 157
61 98 164
61 97 160
61 97 164
62 97 157
62 98 166
62 98 163
62 99 168
62 98 168
61 97 155
63 99 168
62 99 168
63 99 167
61 97 156
61 97 161
62 98 159
61 97 153
62 99 164
61 97 159
62 98 161
61 97 158
61 97 156
62 98 154
62 98 160
62 98 159
61 97 163
62 98 162
61 97 162
62 98 167
61 96 156
62 97 166
62 98 163
62 98 164
62 98 164
61 96 156
62 98 166
60 96 156
61 97 160
60 95 154
61 97 163
62 97 164
62 97 163
62 98 163
61 97 165
61 97 162
62 98 167
61 97 162
61 97 168
60 95 154
59 93 154
60 94 152
60 95 157
60 95 159
60 93 158
60 95 161
60 93 155
116 140 191
205 224 251
211 230 255
211 230 255
211 230 255
211 230 255
211 230 255
211 230 255
211 230 255
211 230 255
211 230 255
211 230 255
211 230 255
211 230 255
211 230 255
211 230 255
211 230 255
211 230 255
211 230 255
211 230 255
211 230 255
211 230 255
211 230 255
211 230 255
211 230 255
211 230 255
211 230 255
211 230 255
211 230 255
175 183 183
144 139 90
142 139 92
155 152 99
141 139 93
143 141 95
144 142 96
138 136 92
140 138 93
144 141 94
142 141 96
150 149 101
152 152 104
160 159 108
154 153 104
154 153 104
157 156 105
157 156 106
158 156 105
162 160 107
160 159 107
157 155 104
160 159 108
163 162 109
162 161 108
166 165 111
170 168 113
167 165 111
166 165 110
171 170 114
172 170 113
171 170 114
172 170 114
172 170 114
171 170 114
171 170 114
171 170 114
172 170 114
172 170 114
172 170 114
171 170 114
172 170 114
172 170 114
172 170 114
172 170 114
171 170 114
172 170 114
172 170 114
170 169 114
172 170 114
172 170 114
171 170 114
172 170 114
173 171 114
172 170 114
172 170 114
171 170 114
171 170 114
171 169 114
172 170 114
172 170 114
171 170 114
171 170 114
173 170 114
173 171 114
171 170 114
174 171 114
175 171 114
173 170 114
175 171 114
174 171 114
172 170 114
173 171 114
174 171 114
174 171 114
174 171 114
176 172 114
175 171 114
175 172 114
175 172 114
175 172 114
174 171 114
175 171 114
176 172 114
176 172 114
176 172 114
175 172 114
177 172 114
176 172 114
174 171 114
176 172 114
175 172 114
175 172 114
176 172 114
177 172 114
177 172 114
176 172 114
176 172 114
177 172 114
178 173 114
177 172 114
178 173 114
178 173 114
177 172 114
176 172 114
178 173 114
178 173 114
179 173 114
178 173 114
179 174 114
179 173 114
177 173 114
179 173 114
179 173 114
179 174 114
180 174 114
181 174 114
180 174 114
180 174 114
181 174 114
180 174 114
180 174 114
180 174 114
181 174 114
182 175 114
182 175 114
183 175 114
181 174 114
181 174 114
182 175 114
181 174 114
182 175 114
182 175 114
182 175 114
182 202 228
182 202 228
181 201 228
181 201 228
181 201 228
180 201 228
180 201 228
180 201 228
180 201 228
180 201 228
180 201 228
179 201 228
179 200 228
179 200 228
179 200 228
179 200 228
178 200 228
179 200 228
178 200 228
178 200 228
178 199 228
178 199 228
178 199 228
177 199 228
177 199 228
177 199 228
176 199 228
177 199 228
176 199 228
176 199 228
176 199 228
176 198 228
175 198 228
175 198 228
175 198 228
175 198 228
175 198 228
175 198 228
175 198 228
175 198 228
174 198 228
174 198 228
173 197 228
174 197 228
174 197 228
173 197 228
173 197 228
173 197 228
173 197 228
172 197 228
172 197 228
173 197 228
172 197 228
172 197 228
172 196 228
172 196 228
171 196 228
171 196 228
171 196 228
171 196 228
171 196 228
171 196 228
170 196 228
170 196 228
170 196 228
170 195 228
170 195 228
170 195 228
170 195 228
169 195 228
169 195 228
169 195 228
169 195 228
168 195 228
169 195 228
168 195 228
168 195 228
168 194 228
168 194 228
169 195 228
168 194 228
168 194 228
167 194 228
167 194 228
167 194 228
167 194 228
167 194 228
167 194 228
167 194 228
167 194 228
167 194 228
167 194 228
167 194 228
166 194 228
167 194 228
167 194 228
167 194 228
166 194 228
166 194 228
166 194 228
166 193 228
166 193 228
166 194 228
166 193 228
167 194 228
166 194 228
166 193 228
166 194 228
167 194 228
167 194 228
167 194 228
167 194 228
167 194 228
168 194 228
167 194 228
167 194 228
168 194 228
168 195 228
169 195 228
168 195 228
169 195 228
169 195 228
170 195 228
171 196 228
170 196 228
172 196 228
172 197 228
174 197 228
174 197 228
175 198 228
176 199 228
177 199 228
176 196 224
172 191 217
183 200 224
212 230 255
212 230 255
212 230 255
212 230 255
211 230 255
211 230 255
211 230 255
211 230 255
211 230 255
211 230 255
211 230 255
211 230 255
211 230 255
211 230 255
211 230 255
211 230 255
211 230 255
211 230 255
211 230 255
211 230 255
211 230 255
211 230 255
211 230 255
211 230 255
211 230 255
208 227 254
112 138 190
61 96 167
60 96 162
61 97 169
60 96 167
61 96 160
61 97 166
62 98 164
60 96 163
61 96 160
62 97 163
61 97 161
62 98 165
62 98 164
62 98 161
62 97 161
61 97 161
62 98 164
62 98 164
62 98 163
61 97 161
61 96 157
62 98 164
62 98 162
62 98 158
63 99 170
62 98 162
62 98 160
62 98 163
62 98 165
62 97 160
62 98 158
61 97 156
62 99 164
61 96 149
62 98 165
61 97 160
61 96 151
62 97 158
63 99 170
62 98 165
62 98 161
61 97 158
61 97 157
62 98 159
61 97 157
61 97 161
61 97 156
61 97 159
62 97 158
62 98 161
61 96 154
62 98 163
62 97 155
62 98 167
62 98 159
61 97 158
63 99 171
63 99 171
61 96 156
61 98 161
62 97 160
61 97 157
60 96 153
62 97 164
59 94 153
62 97 163
61 96 163
60 95 160
61 95 151
61 97 166
61 95 153
61 97 168
60 94 159
60 94 158
62 97 166
60 93 154
124 148 194
209 228 254
211 230 255
211 230 255
211 230 255
211 230 255
211 230 255
211 230 255
211 230 255
211 230 255
211 230 255
211 230 255
211 230 255
211 230 255
211 230 255
211 230 255
211 230 255
211 230 255
211 230 255
211 230 255
211 230 255
211 230 255
211 230 255
212 230 255
212 230 255
212 230 255
212 230 255
179 188 186
130 126 80
132 129 84
143 139 92
145 141 94
139 137 93
138 137 94
148 146 98
148 147 99
144 141 96
149 149 101
149 149 100
150 149 101
155 152 102
153 152 103
147 147 100
145 146 100
159 158 107
158 156 105
154 153 104
152 152 103
160 159 108
161 161 109
166 164 110
166 165 111
166 164 110
168 165 111
169 168 113
170 168 113
170 169 113
171 169 113
171 170 114
171 170 114
172 170 114
171 170 114
173 171 114
172 170 114
172 170 114
172 170 114
172 170 114
172 170 114
171 170 114
171 170 114
172 170 114
171 170 114
172 170 114
172 170 114
172 170 114
172 170 114
172 170 114
172 170 114
173 171 114
171 170 114
173 171 114
172 170 114
173 171 114
172 170 114
172 170 114
172 170 114
176 172 114
172 170 114
172 170 114
174 171 114
172 170 114
174 171 114
173 171 114
173 171 114
173 171 114
173 171 114
173 170 114
173 171 114
174 171 114
175 172 114
175 171 114
173 171 114
176 172 114
175 171 114
174 171 114
174 171 114
174 171 114
175 171 114
175 172 114
176 172 114
175 171 114
174 171 114
176 172 114
175 172 114
176 172 114
177 173 114
176 172 114
175 172 114
177 172 114
176 172 114
177 172 114
176 172 114
176 172 114
177 173 114
178 173 114
177 172 114
177 173 114
178 173 114
179 173 114
178 173 114
179 173 114
178 173 114
178 173 114
179 173 114
178 173 114
177 173 114
178 173 114
178 173 114
179 173 114
180 174 114
180 174 114
181 174 114
178 173 114
179 173 114
180 174 114
180 174 114
181 174 114
181 174 114
182 175 114
181 174 114
183 175 114
181 174 114
183 175 114
182 175 114
183 175 114
182 175 114
182 175 114
181 174 114
183 175 114
183 175 114
183 175 114
182 175 114
182 202 228
182 202 228
181 201 228
182 202 228
181 201 228
181 202 228
181 201 228
181 201 228
180 201 228
180 201 228
180 201 228
180 201 228
180 201 228
179 200 228
179 200 228
179 200 228
179 200 228
179 200 228
179 200 228
178 200 228
178 200 228
179 200 228
178 200 228
178 200 228
177 199 228
177 199 228
177 199 228
177 199 228
177 199 228
177 199 228
176 199 228
176 199 228
176 199 228
176 199 228
176 199 228
176 198 228
175 198 228
175 198 228
175 198 228
175 198 228
175 198 228
175 198 228
174 198 228
174 198 228
174 197 228
174 198 228
174 197 228
174 197 228
173 197 228
173 197 228
173 197 228
173 197 228
173 197 228
173 197 228
173 197 228
172 197 228
172 197 228
172 196 228
172 197 228
172 196 228
171 196 228
172 196 228
171 196 228
171 196 228
171 196 228
170 196 228
171 196 228
170 196 228
171 196 228
170 196 228
170 196 228
170 195 228
170 195 228
169 195 228
169 195 228
169 195 228
169 195 228
168 195 228
169 195 228
169 195 228
168 195 228
168 195 228
168 195 228
168 195 228
168 195 228
168 194 228
168 195 228
168 194 228
168 194 228
168 194 228
167 194 228
168 194 228
167 194 228
167 194 228
167 194 228
167 194 228
167 194 228
167 194 228
167 194 228
167 194 228
167 194 228
167 194 228
167 194 228
167 194 228
167 194 228
167 194 228
167 194 228
167 194 228
167 194 228
167 194 228
167 194 228
168 194 228
168 194 228
168 194 228
168 195 228
168 194 228
168 194 228
168 195 228
169 195 228
169 195 228
170 195 228
170 195 228
170 196 228
171 196 228
170 196 228
171 196 228
173 197 228
173 197 228
174 197 228
175 198 228
176 199 228
176 199 228
178 200 228
179 200 227
157 175 198
189 207 230
212 230 255
212 230 255
212 230 255
212 230 255
212 230 255
212 230 255
212 230 255
212 230 255
212 230 255
212 230 255
212 230 255
211 230 255
211 230 255
211 230 255
211 230 255
211 230 255
211 230 255
211 230 255
211 230 255
211 230 255
211 230 255
211 230 255
211 230 255
211 230 255
142 164 212
61 97 169
61 97 167
61 97 165
60 95 161
61 97 165
61 97 162
61 96 160
61 97 167
61 97 161
61 97 161
62 98 160
61 97 159
62 98 162
62 97 162
61 97 154
62 97 159
61 97 160
61 97 162
61 97 156
61 97 162
60 96 153
62 98 159
62 98 162
61 97 162
62 98 160
63 99 164
60 96 156
61 97 155
61 97 160
61 96 154
61 98 160
61 97 162
61 97 161
62 98 162
62 97 156
62 97 159
62 98 159
63 99 159
62 98 165
62 98 159
62 98 162
61 97 163
62 98 158
62 98 161
62 98 161
62 98 157
63 99 165
62 98 158
61 96 152
61 96 154
60 96 154
62 98 159
62 97 160
62 98 160
62 98 167
62 98 168
61 97 161
61 96 155
61 96 158
61 97 167
61 96 158
61 97 163
61 96 155
59 94 156
60 96 161
61 96 155
61 96 158
60 96 157
60 94 156
61 96 161
61 96 161
59 93 152
60 94 158
60 94 154
60 94 156
59 94 153
59 92 153
58 92 147
155 175 216
211 230 255
211 230 255
211 230 255
211 230 255
211 230 255
211 230 255
211 230 255
211 230 255
211 230 255
211 230 255
211 230 255
211 230 255
211 230 255
212 230 255
212 230 255
212 230 255
212 230 255
212 230 255
212 230 255
212 230 255
212 230 255
212 230 255
212 230 255
212 230 255
193 202 205
129 126 82
133 130 87
139 137 91
140 138 92
139 138 93
141 139 94
145 145 99
152 150 101
144 143 97
149 147 99
150 149 101
146 146 101
146 144 98
146 146 98
154 153 104
154 153 104
156 155 105
153 153 104
153 152 102
154 153 104
157 157 107
157 156 106
166 164 110
164 163 110
165 164 110
168 167 112
171 168 113
168 166 112
167 166 112
172 169 113
170 169 113
172 170 114
172 170 114
174 171 114
172 170 114
173 170 114
173 171 114
172 170 114
172 170 114
174 171 114
174 171 114
172 170 114
173 171 114
172 170 114
172 170 114
172 170 114
171 170 114
172 170 114
173 171 114
173 170 114
172 170 114
172 170 114
173 170 114
172 170 114
173 171 114
172 170 114
172 170 114
174 171 114
174 171 114
174 171 114
175 171 114
173 170 114
174 171 114
173 171 114
173 171 114
173 171 114
174 171 114
173 171 114
175 171 114
175 171 114
175 171 114
173 171 114
174 171 114
174 171 114
175 172 114
174 171 114
175 171 114
174 171 114
176 172 114
176 172 114
176 172 114
176 172 114
175 171 114
175 172 114
177 173 114
176 172 114
176 172 114
176 172 114
177 173 114
175 172 114
176 172 114
177 173 114
178 173 114
177 172 114
178 173 114
177 172 114
178 173 114
178 173 114
177 172 114
179 173 114
179 173 114
179 173 114
180 174 114
178 173 114
178 173 114
178 173 114
179 174 114
178 173 114
178 173 114
180 174 114
179 173 114
178 173 114
178 173 114
180 174 114
180 174 114
180 174 114
180 174 114
180 174 114
181 174 114
181 174 114
182 175 114
181 174 114
182 175 114
182 175 114
182 175 114
182 175 114
182 175 114
183 175 114
181 174 114
183 175 114
183 175 114
181 174 114
183 175 114
185 176 114
181 174 114
183 202 228
182 202 228
182 202 228
182 202 228
182 202 228
181 201 228
181 201 228
181 201 228
180 201 228
181 201 228
180 201 228
180 201 228
180 201 228
180 201 228
179 200 228
180 201 228
179 200 228
179 200 228
179 200 228
179 200 228
178 200 228
179 200 228
179 200 228
178 200 228
178 200 228
178 200 228
177 199 228
177 199 228
177 199 228
177 199 228
177 199 228
177 199 228
177 199 228
176 199 228
176 199 228
176 199 228
176 199 228
176 198 228
176 199 228
175 198 228
176 198 228
175 198 228
175 198 228
175 198 228
174 198 228
174 198 228
174 198 228
174 198 228
174 198 228
174 197 228
174 197 228
173 197 228
173 197 228
173 197 228
173 197 228
173 197 228
173 197 228
172 197 228
173 197 228
172 197 228
172 197 228
172 197 228
172 197 228
172 197 228
171 196 228
171 196 228
171 196 228
171 196 228
171 196 228
171 196 228
170 196 228
171 196 228
171 196 228
170 196 228
169 195 228
170 196 228
170 195 228
169 195 228
169 195 228
169 195 228
170 195 228
169 195 228
169 195 228
168 194 228
169 195 228
169 195 228
169 195 228
168 195 228
168 195 228
168 195 228
168 194 228
169 195 228
168 195 228
168 194 228
168 194 228
168 194 228
167 194 228
168 194 228
168 195 228
168 194 228
168 194 228
168 194 228
168 194 228
167 194 228
167 194 228
167 194 228
168 194 228
167 194 228
168 194 228
168 194 228
168 194 228
168 194 228
168 194 228
168 194 228
168 195 228
169 195 228
168 195 228
169 195 228
169 195 228
169 195 228
169 195 228
170 196 228
171 196 228
171 196 228
171 196 228
171 196 228
172 197 228
173 197 228
173 197 228
175 198 228
175 198 228
176 199 228
178 200 228
179 200 228
173 193 220
165 183 207
197 214 238
212 230 255
212 230 255
212 230 255
212 230 255
212 230 255
212 230 255
212 230 255
212 230 255
212 230 255
212 230 255
212 230 255
212 230 255
212 230 255
212 230 255
212 230 255
212 230 255
212 230 255
212 230 255
212 230 255
212 230 255
212 230 255
211 230 255
159 179 217
60 96 166
60 96 165
61 97 166
61 97 162
60 96 160
61 97 161
61 97 164
61 97 164
61 96 160
60 96 156
60 95 157
60 95 153
61 97 158
60 96 154
61 97 158
61 97 162
62 98 169
62 98 162
61 97 158
61 97 160
62 98 158
62 98 167
62 97 156
62 98 161
62 97 160
61 97 163
61 97 159
62 98 162
61 97 159
61 96 145
63 98 161
62 98 160
63 99 160
62 97 160
61 98 161
62 98 160
62 98 163
61 97 156
62 98 163
62 98 159
61 97 157
62 98 163
62 98 156
62 98 161
63 99 165
61 97 156
62 98 167
61 97 160
62 97 155
61 96 158
62 97 164
61 97 158
61 97 155
62 98 157
62 98 163
60 96 154
62 97 157
62 98 164
61 97 160
62 98 161
61 96 153
62 97 164
61 97 163
62 98 163
61 96 156
61 97 159
61 96 154
62 98 164
61 96 163
61 96 162
60 95 164
61 96 152
60 96 159
61 95 156
60 94 161
61 96 167
60 94 158
60 95 160
60 94 156
60 95 160
160 180 215
211 230 255
211 230 255
212 230 255
212 230 255
212 230 255
212 230 255
212 230 255
212 230 255
212 230 255
212 230 255
212 230 255
212 230 255
212 230 255
212 230 255
212 230 255
212 230 255
212 230 255
212 230 255
212 230 255
212 230 255
212 230 255
212 230 255
194 206 214
139 134 87
131 128 85
139 135 89
135 133 89
133 132 90
151 149 100
142 141 96
143 142 97
151 149 101
145 143 97
137 137 93
148 148 102
152 151 102
148 148 101
150 149 102
151 150 101
156 156 106
152 152 104
151 150 101
160 158 107
154 153 104
163 161 109
158 157 107
157 157 106
165 164 111
168 167 112
169 167 112
167 166 112
167 166 112
170 168 113
172 170 113
173 171 114
169 167 113
172 170 114
172 170 114
173 171 114
174 171 114
173 171 114
173 170 114
173 171 114
174 171 114
171 170 114
173 171 114
172 170 114
173 171 114
174 171 114
174 171 114
174 171 114
173 171 114
175 171 114
173 171 114
174 171 114
173 171 114
174 171 114
174 171 114
174 171 114
175 172 114
174 171 114
174 171 114
173 171 114
174 171 114
174 171 114
174 171 114
174 171 114
175 172 114
175 171 114
175 171 114
173 171 114
174 171 114
175 171 114
174 171 114
175 172 114
175 172 114
175 171 114
175 172 114
176 172 114
175 172 114
176 172 114
177 172 114
177 172 114
177 172 114
175 172 114
177 172 114
178 173 114
176 172 114
176 172 114
176 172 114
178 173 114
177 172 114
178 173 114
177 172 114
177 173 114
179 173 114
178 173 114
176 172 114
178 173 114
177 173 114
178 173 114
178 173 114
177 172 114
180 174 114
178 173 114
176 172 114
179 173 114
180 174 114
179 174 114
179 173 114
178 173 114
178 173 114
180 174 114
179 173 114
180 174 114
179 173 114
181 174 114
180 174 114
181 174 114
180 174 114
181 174 114
181 174 114
182 175 114
181 174 114
182 175 114
180 174 114
183 175 114
182 175 114
181 174 114
183 175 114
183 175 114
183 175 114
182 175 114
184 176 114
182 175 114
183 175 114
183 175 114
182 175 114
183 175 114
182 202 228
183 202 228
182 202 228
182 202 228
182 202 228
181 201 228
181 202 228
181 202 228
181 201 228
181 201 228
181 201 228
180 201 228
180 201 228
181 201 228
180 201 228
180 201 228
179 200 228
180 201 228
179 201 228
179 200 228
179 201 228
179 200 228
179 200 228
179 200 228
179 200 228
179 200 228
178 200 228
178 200 228
178 200 228
178 200 228
177 199 228
177 199 228
177 199 228
177 199 228
177 199 228
176 199 228
177 199 228
176 199 228
176 199 228
176 199 228
176 199 228
176 199 228
176 199 228
175 198 228
175 198 228
175 198 228
175 198 228
175 198 228
175 198 228
175 198 228
174 198 228
174 198 228
174 197 228
174 197 228
174 198 228
174 197 228
173 197 228
173 197 228
174 197 228
173 197 228
172 197 228
172 197 228
173 197 228
172 197 228
172 197 228
172 197 228
172 196 228
171 196 228
171 196 228
171 196 228
172 196 228
171 196 228
171 196 228
171 196 228
171 196 228
171 196 228
170 195 228
170 196 228
170 196 228
170 196 228
170 196 228
170 196 228
170 195 228
170 195 228
169 195 228
169 195 228
170 195 228
169 195 228
169 195 228
169 195 228
169 195 228
169 195 228
169 195 228
169 195 228
169 195 228
169 195 228
168 195 228
168 195 228
168 195 228
168 194 228
168 195 228
168 195 228
168 195 228
168 195 228
169 195 228
169 195 228
168 195 228
168 195 228
168 195 228
168 194 228
169 195 228
169 195 228
168 195 228
169 195 228
169 195 228
169 195 228
169 195 228
170 195 228
170 195 228
169 195 228
170 195 228
171 196 228
171 196 228
171 196 228
171 196 228
172 196 228
172 197 228
173 197 228
173 197 228
174 197 228
175 198 228
176 199 228
177 199 228
178 200 228
179 200 228
178 197 224
167 185 208
202 219 243
212 231 255
212 231 255
212 231 255
212 231 255
212 231 255
212 230 255
212 230 255
212 230 255
212 230 255
212 230 255
212 230 255
212 230 255
212 230 255
212 230 255
212 230 255
212 230 255
212 230 255
212 230 255
212 230 255
212 230 255
184 204 234
63 97 164
59 95 166
60 96 166
60 95 162
61 96 154
60 96 156
60 96 160
61 96 160
61 97 164
61 97 162
61 97 161
60 95 151
61 97 160
60 96 158
60 96 153
61 96 157
61 96 156
61 97 159
63 98 162
62 97 160
61 97 160
62 97 154
62 98 161
62 97 155
62 98 162
62 98 163
62 98 162
61 97 149
62 98 162
61 97 155
61 97 159
62 98 162
63 98 160
62 98 159
62 98 163
61 97 151
61 97 156
61 97 160
61 97 158
62 98 158
61 97 156
62 99 165
62 98 161
61 97 150
61 97 158
62 98 163
62 98 162
61 97 161
61 98 159
62 98 155
61 97 155
61 96 145
61 97 159
61 97 158
62 97 160
62 98 164
61 96 158
61 96 159
62 97 159
61 97 158
61 97 164
62 98 165
59 94 151
61 96 156
60 95 155
60 95 155
60 95 152
61 96 162
60 96 151
60 94 148
61 95 158
61 96 165
62 97 163
59 93 151
60 95 156
62 97 166
61 96 159
60 94 153
60 93 147
59 93 152
61 95 158
59 92 150
191 210 237
212 230 255
212 230 255
212 230 255
212 230 255
212 230 255
212 230 255
212 230 255
212 230 255
212 230 255
212 230 255
212 230 255
212 230 255
212 230 255
212 230 255
212 230 255
212 230 255
212 231 255
212 231 255
212 231 255
212 231 255
195 209 224
138 134 92
137 134 90
138 136 91
138 136 91
138 136 93
132 131 90
138 137 93
143 141 95
134 134 92
137 136 94
149 147 98
145 145 99
143 143 98
141 142 97
150 149 101
147 147 100
155 154 105
153 152 104
156 154 105
154 153 104
157 156 106
157 156 107
161 160 108
158 156 106
161 160 109
160 158 107
168 166 111
169 166 111
170 168 113
168 167 112
167 165 111
168 166 112
172 170 114
174 171 114
172 170 114
172 170 114
172 170 114
173 171 114
174 171 114
175 171 114
173 171 114
174 171 114
173 171 114
174 171 114
173 171 114
174 171 114
174 171 114
173 171 114
172 170 114
174 171 114
174 171 114
173 171 114
175 171 114
173 171 114
173 171 114
174 171 114
174 171 114
175 172 114
173 171 114
174 171 114
174 171 114
175 171 114
175 172 114
175 172 114
175 172 114
174 171 114
175 172 114
174 171 114
175 172 114
176 172 114
175 171 114
175 172 114
177 172 114
176 172 114
175 172 114
176 172 114
177 173 114
176 172 114
176 172 114
175 171 114
176 172 114
174 171 114
177 172 114
176 172 114
178 173 114
177 173 114
178 173 114
175 172 114
176 172 114
178 173 114
177 173 114
177 172 114
176 172 114
179 174 114
176 172 114
178 173 114
178 173 114
179 173 114
179 173 114
179 174 114
178 173 114
180 174 114
179 173 114
179 173 114
179 173 114
179 174 114
180 174 114
180 174 114
178 173 114
180 174 114
180 174 114
181 174 114
181 174 114
182 175 114
181 174 114
180 174 114
179 173 114
180 174 114
181 175 114
180 174 114
181 174 114
182 175 114
182 175 114
182 175 114
184 176 114
182 175 114
184 176 114
183 175 114
182 175 114
183 175 114
183 175 114
183 175 114
183 175 114
184 175 114
182 175 114
182 175 114
184 176 114
183 202 228
182 202 228
183 202 228
183 202 228
182 202 228
182 202 228
182 202 228
182 202 228
181 202 228
182 202 228
182 202 228
181 201 228
181 202 228
181 201 228
180 201 228
181 201 228
180 201 228
180 201 228
180 201 228
180 201 228
180 201 228
179 200 228
180 201 228
179 200 228
179 200 228
179 200 228
179 200 228
179 200 228
178 200 228
178 200 228
178 200 228
178 200 228
177 199 228
178 200 228
177 199 228
178 200 228
177 199 228
176 199 228
177 199 228
177 199 228
176 199 228
176 199 228
177 199 228
176 199 228
176 199 228
176 198 228
176 198 228
176 199 228
175 198 228
175 198 228
175 198 228
175 198 228
174 198 228
174 198 228
174 198 228
175 198 228
174 198 228
174 197 228
174 198 228
173 197 228
173 197 228
173 197 228
173 197 228
173 197 228
173 197 228
173 197 228
173 197 228
173 197 228
173 197 228
172 197 228
172 197 228
172 197 228
172 196 228
172 197 228
171 196 228
171 196 228
171 196 228
171 196 228
171 196 228
171 196 228
171 196 228
171 196 228
170 196 228
171 196 228
170 196 228
170 196 228
170 195 228
170 195 228
170 196 228
170 195 228
169 195 228
170 195 228
169 195 228
169 195 228
169 195 228
169 195 228
169 195 228
169 195 228
168 195 228
169 195 228
169 195 228
169 195 228
169 195 228
169 195 228
169 195 228
169 195 228
169 195 228
169 195 228
169 195 228
170 195 228
170 195 228
169 195 228
169 195 228
169 195 228
169 195 228
169 195 228
170 196 228
170 195 228
170 195 228
171 196 228
171 196 228
171 196 228
171 196 228
171 196 228
172 197 228
172 196 228
172 197 228
173 197 228
174 198 228
174 198 228
175 198 228
175 198 228
176 199 228
178 200 228
179 200 228
180 200 227
175 195 220
168 185 207
206 224 248
213 231 255
213 231 255
213 231 255
212 231 255
212 231 255
212 231 255
212 231 255
212 231 255
212 231 255
212 231 255
212 231 255
212 231 255
212 231 255
212 231 255
212 230 255
212 230 255
212 230 255
212 230 255
205 224 250
85 114 175
60 95 164
60 96 159
61 97 166
60 95 157
61 97 166
60 96 162
61 97 163
61 97 165
61 97 161
61 97 163
61 96 159
61 96 153
61 96 153
61 97 163
61 96 155
61 97 155
62 98 162
62 98 162
61 97 158
61 97 162
61 96 154
61 97 159
62 98 160
62 97 155
61 96 159
61 96 154
62 98 161
61 97 162
62 98 161
62 98 167
62 97 161
61 96 146
62 98 160
60 96 155
61 97 160
61 97 159
61 97 157
62 97 155
62 98 160
60 96 155
61 97 154
63 99 161
63 98 161
61 97 154
61 96 155
62 98 159
62 97 157
61 97 158
62 98 152
61 97 158
62 98 164
61 97 158
62 97 159
61 97 152
62 98 162
61 97 154
61 97 163
62 98 160
61 96 156
61 96 148
62 98 162
60 95 143
62 98 162
61 97 156
61 96 153
59 95 151
60 95 155
61 96 160
59 94 151
61 96 160
60 94 146
61 97 161
61 96 152
60 94 152
61 95 158
60 95 157
60 94 149
61 96 160
60 93 152
60 94 157
60 93 152
61 94 156
91 116 164
207 226 252
212 230 255
212 230 255
212 230 255
212 230 255
212 231 255
212 231 255
212 231 255
212 231 255
212 231 255
212 231 255
212 231 255
212 231 255
212 231 255
212 231 255
212 231 255
213 231 255
213 231 255
213 231 255
204 220 240
131 132 105
128 125 76
138 135 90
132 130 87
138 136 92
142 141 96
143 142 96
135 134 92
142 142 97
138 138 96
145 144 98
149 147 100
143 143 97
143 142 97
143 143 99
150 150 102
150 149 102
156 155 104
157 156 105
155 154 105
153 153 104
154 153 104
156 155 106
159 158 107
156 156 106
161 159 107
163 162 110
161 159 108
167 165 111
169 167 112
168 166 112
171 168 113
171 169 113
173 169 113
174 171 114
174 171 113
172 170 114
173 171 114
173 171 114
174 171 114
175 172 114
174 171 114
173 171 114
173 171 114
175 171 114
175 172 114
177 172 114
175 171 114
175 171 114
175 171 114
173 171 114
175 171 114
174 171 114
174 171 114
175 171 114
173 171 114
175 171 114
175 172 114
175 171 114
175 171 114
177 172 114
174 171 114
174 171 114
175 172 114
175 171 114
175 172 114
176 172 114
175 172 114
175 172 114
175 171 114
174 171 114
175 172 114
175 172 114
177 172 114
177 172 114
176 172 114
177 172 114
177 172 114
177 172 114
178 173 114
176 172 114
177 172 114
177 173 114
177 172 114
177 173 114
179 173 114
179 173 114
176 172 114
178 173 114
177 172 114
177 172 114
179 173 114
178 173 114
179 173 114
177 173 114
180 174 114
180 174 114
179 173 114
178 173 114
178 173 114
179 173 114
180 174 114
180 174 114
178 173 114
180 174 114
181 174 114
179 173 114
179 173 114
180 174 114
179 174 114
179 173 114
179 173 114
181 174 114
184 176 114
180 174 114
181 174 114
181 174 114
181 174 114
182 175 114
182 175 114
181 174 114
182 175 114
183 175 114
182 175 114
182 175 114
181 174 114
184 176 114
184 176 114
181 174 114
183 175 114
182 175 114
185 176 114
183 175 114
184 176 114
184 176 114
185 176 114
184 176 114
184 176 114
183 203 228
183 203 228
183 202 228
182 202 228
182 202 228
183 202 228
183 202 228
182 202 228
182 202 228
182 202 228
182 202 228
182 202 228
182 202 228
181 201 228
181 201 228
181 201 228
181 201 228
181 201 228
181 201 228
181 201 228
180 201 228
180 201 228
180 201 228
180 201 228
179 200 228
180 201 228
179 200 228
179 200 228
179 200 228
179 200 228
179 200 228
179 200 228
179 200 228
178 200 228
178 200 228
178 200 228
178 200 228
178 200 228
178 200 228
177 199 228
177 199 228
177 199 228
176 199 228
177 199 228
176 199 228
176 199 228
176 199 228
176 199 228
176 199 228
176 198 228
175 198 228
176 199 228
175 198 228
175 198 228
175 198 228
175 198 228
175 198 228
174 198 228
174 198 228
175 198 228
174 197 228
174 198 228
174 198 228
174 198 228
173 197 228
174 198 228
173 197 228
173 197 228
173 197 228
173 197 228
173 197 228
173 197 228
173 197 228
172 196 228
172 197 228
172 197 228
172 197 228
172 197 228
172 196 228
171 196 228
172 196 228
172 196 228
171 196 228
171 196 228
171 196 228
171 196 228
171 196 228
171 196 228
171 196 228
171 196 228
171 196 228
170 196 228
170 196 228
171 196 228
170 196 228
170 196 228
170 196 228
171 196 228
170 195 228
170 195 228
170 196 228
170 196 228
170 195 228
170 195 228
169 195 228
170 195 228
170 195 228
170 195 228
170 195 228
170 195 228
170 195 228
170 195 228
170 195 228
170 196 228
170 196 228
170 196 228
170 196 228
170 196 228
170 196 228
170 196 228
171 196 228
172 196 228
171 196 228
172 196 228
172 196 228
173 197 228
173 197 228
173 197 228
173 197 228
174 198 228
175 198 228
176 199 228
176 199 228
177 199 228
178 200 228
180 201 228
179 200 227
175 194 219
164 180 201
211 229 253
213 231 255
213 231 255
213 231 255
213 231 255
213 231 255
213 231 255
213 231 255
213 231 255
213 231 255
213 231 255
213 231 255
213 231 255
213 231 255
212 231 255
212 231 255
212 231 255
212 231 255
146 167 206
59 95 162
60 95 158
61 96 161
60 96 167
61 97 165
59 94 152
60 96 153
61 97 160
61 97 162
61 97 160
61 97 163
61 96 154
61 97 162
61 97 160
61 97 161
62 98 166
61 97 152
61 97 160
62 98 159
62 98 160
61 97 155
62 97 153
61 97 159
62 98 157
61 96 154
61 97 155
61 97 155
61 96 147
62 97 162
61 97 156
62 98 155
62 98 160
62 97 158
61 97 157
63 98 163
62 98 156
62 97 157
61 97 153
60 96 151
61 97 153
61 97 152
62 97 162
62 98 159
61 97 152
62 97 151
62 98 162
62 98 159
61 97 156
61 96 153
61 96 157
61 97 155
60 95 148
61 97 155
61 96 152
61 96 154
62 98 158
62 98 163
62 97 158
61 97 154
60 95 152
61 97 159
60 95 147
61 97 156
59 95 154
62 97 161
61 96 152
61 96 154
61 95 154
62 97 165
60 95 157
61 97 160
60 95 152
61 96 155
59 93 147
61 96 159
59 93 148
61 96 157
60 95 158
59 92 147
59 93 154
60 94 156
60 94 151
59 92 154
58 91 156
141 160 193
212 231 255
212 231 255
212 231 255
212 231 255
212 231 255
213 231 255
213 231 255
213 231 255
213 231 255
213 231 255
213 231 255
213 231 255
213 231 255
213 231 255
213 231 255
213 231 255
213 231 255
211 229 253
141 143 129
133 130 86
137 135 88
140 139 93
131 129 86
139 139 96
133 131 89
128 127 87
131 131 91
138 138 96
138 138 95
137 136 93
147 147 101
137 138 95
144 144 99
147 147 101
148 148 100
150 150 103
142 142 98
153 152 103
153 153 104
159 157 105
155 155 107
156 155 105
161 160 109
162 161 109
162 160 108
164 162 110
161 160 108
163 162 110
167 164 111
170 167 112
170 168 113
170 167 112
174 170 113
173 170 114
172 169 113
171 169 113
174 170 114
174 171 114
175 171 114
172 170 114
174 171 114
174 171 114
175 171 114
176 172 114
175 172 114
176 172 114
174 171 114
174 171 114
176 172 114
176 172 114
175 172 114
175 172 114
176 172 114
175 172 114
176 172 114
175 172 114
177 172 114
175 171 114
176 172 114
176 172 114
175 171 114
175 171 114
176 172 114
175 171 114
176 172 114
177 172 114
177 172 114
176 172 114
176 172 114
177 173 114
177 172 114
177 172 114
176 172 114
177 172 114
177 172 114
176 172 114
178 173 114
177 172 114
178 173 114
178 173 114
178 173 114
175 171 114
180 174 114
179 173 114
180 174 114
178 173 114
177 172 114
179 173 114
178 173 114
179 173 114
177 173 114
179 173 114
178 173 114
179 174 114
179 173 114
178 173 114
179 173 114
180 174 114
180 174 114
180 174 114
178 173 114
181 174 114
180 174 114
180 174 114
180 174 114
180 174 114
181 174 114
181 174 114
182 175 114
181 174 114
179 173 114
180 174 114
183 175 114
181 174 114
182 175 114
183 175 114
183 175 114
180 174 114
184 176 114
182 175 114
182 175 114
183 175 114
181 174 114
183 175 114
183 175 114
183 175 114
183 175 114
183 175 114
184 176 114
185 176 114
184 176 114
183 175 114
186 177 114
184 176 114
184 176 114
185 176 114
184 176 114
184 203 228
184 203 228
184 203 228
183 203 228
183 202 228
183 202 228
182 202 228
183 202 228
182 202 228
182 202 228
182 202 228
182 202 228
182 202 228
182 202 228
181 202 228
181 202 228
181 201 228
182 202 228
181 201 228
181 201 228
181 201 228
181 201 228
181 201 228
180 201 228
181 201 228
180 201 228
179 200 228
179 200 228
179 200 228
180 201 228
179 200 228
179 200 228
179 200 228
179 200 228
178 200 228
179 200 228
178 200 228
178 200 228
178 200 228
178 200 228
178 200 228
177 199 228
178 200 228
177 199 228
177 199 228
177 199 228
177 199 228
176 199 228
177 199 228
176 199 228
176 199 228
177 199 228
176 199 228
176 199 228
175 198 228
175 198 228
175 198 228
176 198 228
176 198 228
175 198 228
175 198 228
175 198 228
175 198 228
174 198 228
175 198 228
174 198 228
174 198 228
174 198 228
174 197 228
174 198 228
174 198 228
174 197 228
174 197 228
173 197 228
173 197 228
173 197 228
172 197 228
173 197 228
172 197 228
173 197 228
172 197 228
173 197 228
172 196 228
172 197 228
172 197 228
172 196 228
172 197 228
172 196 228
172 196 228
172 196 228
171 196 228
171 196 228
172 197 228
171 196 228
171 196 228
171 196 228
171 196 228
171 196 228
171 196 228
171 196 228
171 196 228
170 196 228
170 196 228
170 196 228
171 196 228
171 196 228
170 196 228
170 196 228
171 196 228
170 196 228
170 195 228
170 196 228
171 196 228
170 196 228
171 196 228
170 196 228
171 196 228
171 196 228
171 196 228
171 196 228
172 197 228
171 196 228
172 197 228
172 196 228
172 197 228
173 197 228
173 197 228
174 197 228
174 197 228
174 198 228
175 198 228
176 198 228
177 199 228
177 199 228
178 200 228
179 200 228
179 200 228
180 200 227
167 184 207
183 198 220
213 231 255
213 231 255
213 231 255
213 231 255
213 231 255
213 231 255
213 231 255
213 231 255
213 231 255
213 231 255
213 231 255
213 231 255
213 231 255
213 231 255
213 231 255
213 231 255
177 197 230
60 96 168
60 95 164
59 95 167
61 96 164
60 95 158
60 96 158
60 96 157
61 97 160
60 96 161
61 96 162
61 97 160
61 96 152
60 96 159
62 98 162
62 97 158
61 97 160
61 97 159
61 96 152
59 94 146
62 97 155
61 96 154
60 96 146
61 97 157
61 97 156
61 96 152
61 97 152
61 97 158
62 98 159
62 98 158
62 98 167
62 98 154
61 97 156
62 98 159
62 97 157
62 98 156
63 99 161
61 96 144
60 96 152
63 98 162
62 98 165
61 97 156
63 98 161
61 96 150
62 98 156
61 97 154
63 98 158
61 97 157
62 97 154
61 96 148
62 97 154
61 97 151
62 97 158
61 96 151
62 98 160
60 95 152
61 97 161
63 99 162
60 95 151
61 97 153
61 96 157
61 96 154
62 98 162
61 97 161
60 96 156
60 95 152
61 96 157
61 96 159
60 95 157
62 97 163
61 96 161
61 97 162
60 95 148
61 96 158
60 94 149
60 94 156
61 95 160
60 94 152
61 97 162
61 96 160
59 93 151
61 95 160
59 93 151
59 93 152
59 93 153
59 93 155
59 92 147
187 206 235
213 231 255
213 231 255
213 231 255
213 231 255
213 231 255
213 231 255
213 231 255
213 231 255
213 231 255
213 231 255
213 231 255
213 231 255
213 231 255
213 231 255
213 231 255
213 231 255
178 188 191
129 127 85
131 129 85
131 129 87
136 134 90
134 132 89
131 131 90
133 132 90
130 130 89
136 136 94
136 135 91
136 136 94
136 137 95
152 151 103
135 135 94
143 144 99
138 138 95
147 147 101
154 154 105
141 141 99
155 154 104
151 151 103
155 153 104
153 152 104
164 162 109
158 157 106
163 161 109
163 161 109
163 161 108
167 165 111
164 162 109
167 165 111
168 165 111
170 167 112
169 167 112
171 168 112
171 168 112
170 168 113
175 171 114
173 170 114
175 171 114
175 171 114
176 172 114
175 172 114
176 172 114
176 172 114
176 172 114
174 171 114
175 172 114
175 172 114
177 172 114
174 171 114
176 172 114
177 172 114
177 172 114
175 172 114
177 172 114
175 172 114
174 171 114
176 172 114
176 172 114
178 173 114
175 172 114
176 172 114
175 172 114
176 172 114
177 173 114
177 172 114
177 172 114
177 172 114
179 173 114
179 173 114
177 172 114
177 173 114
177 173 114
176 172 114
177 172 114
178 173 114
178 173 114
177 173 114
177 172 114
177 172 114
179 173 114
178 173 114
178 173 114
178 173 114
178 173 114
176 172 114
179 173 114
178 173 114
178 173 114
178 173 114
179 173 114
177 173 114
181 174 114
179 173 114
181 174 114
180 174 114
179 173 114
179 174 114
180 174 114
180 174 114
181 174 114
180 174 114
183 175 114
181 174 114
181 174 114
184 176 114
181 174 114
182 175 114
181 174 114
183 175 114
182 175 114
182 175 114
183 175 114
181 174 114
182 175 114
181 174 114
183 175 114
183 175 114
182 175 114
183 175 114
183 175 114
184 176 114
183 175 114
182 175 114
184 176 114
183 175 114
182 175 114
184 176 114
184 176 114
184 176 114
184 176 114
184 176 114
184 176 114
185 176 114
183 175 114
184 176 114
185 176 114
182 175 114
185 203 228
184 203 228
184 203 228
184 203 228
184 203 228
183 203 228
183 202 228
183 202 228
183 202 228
183 202 228
183 203 228
182 202 228
182 202 228
182 202 228
182 202 228
182 202 228
182 202 228
182 202 228
181 201 228
181 202 228
182 202 228
180 201 228
181 201 228
181 201 228
181 201 228
181 201 228
180 201 228
181 201 228
180 201 228
180 201 228
180 201 228
180 201 228
179 200 228
179 201 228
179 200 228
178 200 228
179 200 228
179 200 228
179 200 228
178 200 228
179 200 228
178 200 228
178 199 228
178 200 228
178 200 228
178 200 228
178 200 228
178 200 228
177 199 228
177 199 228
177 199 228
176 199 228
177 199 228
176 199 228
177 199 228
176 199 228
176 199 228
176 199 228
176 199 228
176 198 228
175 198 228
175 198 228
176 199 228
175 198 228
176 198 228
175 198 228
174 198 228
175 198 228
174 198 228
175 198 228
174 198 228
175 198 228
173 197 228
174 197 228
174 198 228
174 197 228
174 197 228
173 197 228
173 197 228
173 197 228
173 197 228
173 197 228
172 197 228
172 197 228
173 197 228
173 197 228
173 197 228
173 197 228
172 197 228
172 197 228
172 197 228
172 197 228
171 196 228
172 197 228
172 197 228
172 196 228
172 197 228
172 197 228
172 196 228
172 196 228
171 196 228
171 196 228
171 196 228
171 196 228
171 196 228
171 196 228
171 196 228
171 196 228
171 196 228
171 196 228
171 196 228
172 196 228
171 196 228
172 196 228
171 196 228
171 196 228
171 196 228
172 196 228
172 196 228
172 197 228
173 197 228
172 197 228
172 197 228
173 197 228
173 197 228
173 197 228
173 197 228
174 198 228
175 198 228
175 198 228
175 198 228
175 198 228
177 199 228
177 199 228
179 200 228
178 200 228
179 200 228
181 202 228
182 201 226
166 183 206
200 217 241
213 231 255
213 231 255
213 231 255
213 231 255
213 231 255
213 231 255
213 231 255
213 231 255
213 231 255
213 231 255
213 231 255
213 231 255
213 231 255
213 231 255
206 224 250
101 126 181
59 95 161
60 95 164
61 96 161
60 96 159
61 97 165
59 93 153
60 96 155
61 96 155
59 94 150
61 97 160
61 97 156
61 96 152
61 96 156
60 96 151
60 96 156
62 98 165
61 97 153
63 98 163
60 96 151
62 97 161
61 97 154
61 97 154
62 98 163
61 96 155
61 97 155
62 97 157
61 97 157
61 97 155
62 97 161
62 97 155
61 96 152
61 97 161
61 97 152
61 97 152
62 97 162
62 97 155
62 98 160
63 98 166
61 97 156
61 97 151
61 97 158
62 98 159
62 97 155
62 98 157
61 97 157
61 96 146
62 98 158
61 97 154
62 98 159
62 97 156
61 97 153
61 97 152
61 96 153
61 97 156
61 97 157
61 97 158
60 96 149
61 96 158
61 97 152
61 97 155
62 98 159
61 96 155
62 97 157
60 96 155
62 97 159
61 96 155
61 96 157
59 94 149
60 94 152
61 97 157
60 95 151
60 94 142
62 97 158
61 96 151
61 97 153
60 94 148
61 95 155
60 93 148
58 91 150
60 94 151
59 93 145
61 96 163
59 92 143
57 90 143
58 90 143
58 91 147
82 110 163
209 227 252
213 231 255
213 231 255
213 231 255
213 231 255
213 231 255
213 231 255
213 231 255
213 231 255
213 231 255
213 231 255
213 231 255
213 231 255
213 231 255
213 231 255
200 213 228
128 126 92
135 132 87
125 123 81
137 135 91
137 135 91
122 122 84
126 126 87
128 128 89
127 127 87
136 136 95
132 133 93
140 140 96
140 141 98
140 140 96
148 147 100
143 143 98
142 142 98
146 146 101
148 147 101
148 148 102
153 152 103
155 153 104
154 153 104
150 150 103
159 158 107
158 157 107
161 161 109
161 159 108
162 161 109
167 164 111
168 165 111
165 163 110
167 165 111
170 167 112
169 167 112
168 165 111
171 167 112
175 171 113
174 170 113
173 169 113
175 171 114
175 172 114
176 172 114
178 173 114
176 172 114
177 172 114
176 172 114
175 172 114
174 171 114
177 172 114
177 173 114
176 172 114
176 172 114
177 172 114
177 172 114
176 172 114
179 173 114
178 173 114
177 172 114
177 173 114
176 172 114
176 172 114
177 172 114
176 172 114
176 172 114
177 172 114
179 173 114
176 172 114
177 173 114
179 173 114
179 173 114
178 173 114
177 172 114
178 173 114
177 173 114
178 173 114
177 173 114
178 173 114
178 173 114
178 173 114
178 173 114
178 173 114
177 173 114
178 173 114
179 173 114
178 173 114
179 173 114
178 173 114
181 174 114
181 174 114
178 173 114
179 173 114
181 174 114
181 174 114
178 173 114
179 173 114
180 174 114
180 174 114
182 175 114
178 173 114
179 173 114
180 174 114
181 174 114
182 175 114
182 175 114
182 175 114
183 175 114
181 174 114
181 174 114
181 174 114
182 175 114
182 175 114
182 175 114
181 175 114
181 174 114
182 175 114
183 175 114
183 175 114
183 175 114
183 175 114
185 176 114
185 176 114
183 175 114
182 175 114
184 176 114
184 176 114
184 175 114
183 175 114
184 176 114
183 175 114
185 176 114
184 176 114
184 176 114
183 175 114
186 177 114
185 176 114
184 176 114
184 176 114
186 177 114
185 176 114
185 203 228
184 203 228
185 203 228
184 203 228
184 203 228
184 203 228
184 203 228
184 203 228
183 203 228
183 203 228
184 203 228
183 202 228
183 202 228
183 202 228
183 202 228
183 202 228
183 202 228
183 202 228
182 202 228
182 202 228
182 202 228
182 202 228
181 202 228
182 202 228
181 201 228
181 201 228
181 201 228
181 201 228
181 201 228
180 201 228
181 201 228
180 201 228
180 201 228
180 201 228
180 201 228
180 201 228
179 200 228
180 201 228
180 201 228
179 200 228
179 200 228
178 200 228
178 200 228
179 200 228
178 200 228
179 200 228
178 200 228
178 200 228
178 200 228
178 200 228
177 199 228
178 200 228
177 199 228
177 199 228
178 200 228
177 199 228
177 199 228
177 199 228
177 199 228
176 199 228
177 199 228
176 199 228
176 199 228
176 199 228
176 199 228
176 198 228
176 198 228
175 198 228
176 199 228
175 198 228
174 198 228
175 198 228
175 198 228
175 198 228
175 198 228
175 198 228
175 198 228
175 198 228
174 198 228
174 198 228
174 198 228
174 197 228
174 198 228
174 197 228
173 197 228
173 197 228
174 197 228
173 197 228
173 197 228
173 197 228
173 197 228
173 197 228
173 197 228
173 197 228
173 197 228
173 197 228
173 197 228
172 196 228
172 197 228
172 197 228
172 196 228
173 197 228
173 197 228
172 197 228
172 196 228
172 196 228
172 197 228
172 197 228
172 197 228
172 197 228
172 197 228
172 197 228
172 197 228
172 197 228
172 196 228
173 197 228
172 197 228
172 197 228
173 197 228
173 197 228
173 197 228
173 197 228
173 197 228
174 197 228
174 198 228
172 196 227
171 195 227
174 197 228
175 198 228
175 197 228
175 197 227
175 197 227
177 199 228
177 199 228
178 200 228
179 200 228
180 201 228
182 202 228
183 202 228
174 192 217
168 185 207
213 230 254
214 231 255
214 231 255
214 231 255
214 231 255
214 231 255
213 231 255
213 231 255
213 231 255
213 231 255
213 231 255
213 231 255
213 231 255
213 231 255
160 179 217
57 92 157
60 96 166
61 96 163
60 96 160
61 97 162
60 95 150
61 97 160
60 95 150
61 96 150
62 97 157
61 98 164
60 95 145
61 96 156
62 97 157
60 95 151
61 96 159
60 95 153
61 97 156
62 97 155
61 96 158
61 96 152
60 95 147
61 96 142
61 97 152
60 96 150
60 95 150
61 97 150
62 98 159
62 97 156
62 98 155
61 96 153
60 96 152
61 97 153
61 97 152
62 97 155
60 96 158
63 99 161
62 98 158
60 96 153
62 97 152
62 97 155
62 97 155
61 96 149
62 98 154
61 96 154
62 98 159
61 96 150
61 96 148
60 96 152
61 97 148
61 97 153
62 97 155
61 97 154
60 96 143
61 96 158
61 96 144
60 95 145
61 96 150
61 96 152
61 97 158
61 97 158
61 96 154
61 96 149
60 95 150
61 96 151
61 96 152
62 97 160
61 96 154
59 94 146
59 94 145
62 97 155
61 95 153
60 95 153
61 95 155
61 96 154
61 95 152
62 97 164
60 94 153
60 94 146
61 96 153
60 95 153
60 93 150
58 91 146
59 92 149
60 94 158
59 93 156
60 93 154
58 90 145
143 163 199
213 231 255
213 231 255
213 231 255
213 231 255
213 231 255
213 231 255
213 231 255
214 231 255
214 231 255
214 231 255
214 231 255
214 231 255
214 231 255
210 227 250
148 149 123
122 118 79
126 124 81
125 124 85
129 129 88
123 123 86
125 125 86
131 131 90
126 127 90
119 120 84
134 135 92
134 135 92
143 143 98
132 134 93
132 133 93
133 134 94
138 139 96
140 141 97
154 153 105
136 136 94
150 150 102
149 149 104
157 155 105
161 160 109
155 155 105
152 152 104
160 158 107
160 159 107
166 164 110
166 164 110
162 161 108
163 161 110
170 167 111
163 161 108
166 164 110
170 167 112
170 167 112
171 166 110
168 165 111
170 168 113
174 170 113
174 170 113
176 172 114
176 172 114
176 172 113
177 172 114
178 173 114
177 173 114
179 173 114
177 172 114
177 172 114
176 172 114
178 173 114
178 173 114
177 173 114
178 173 114
178 173 114
179 173 114
177 172 114
176 172 114
177 172 114
177 173 114
178 173 114
178 173 114
178 173 114
177 172 114
176 172 114
178 173 114
179 173 114
178 173 114
178 173 114
178 173 114
178 173 114
179 173 114
178 173 114
178 173 114
178 173 114
180 174 114
178 173 114
180 174 114
179 173 114
178 173 114
178 173 114
180 174 114
181 174 114
179 174 114
179 173 114
179 173 114
180 174 114
179 174 114
179 173 114
183 175 114
179 174 114
182 175 114
181 174 114
180 174 114
180 174 114
180 174 114
181 174 114
182 175 114
180 174 114
182 175 114
183 175 114
180 174 114
180 174 114
181 174 114
182 175 114
181 174 114
182 175 114
181 174 114
183 175 114
182 175 114
183 175 114
184 175 114
182 175 114
182 175 114
182 175 114
183 175 114
182 175 114
182 175 114
184 176 114
183 175 114
182 175 114
185 176 114
184 176 114
184 176 114
183 175 114
185 176 114
184 176 114
183 175 114
184 176 114
184 176 114
185 176 114
186 177 114
185 176 114
185 176 114
185 176 114
185 176 114
187 177 114
184 176 114
185 176 114
184 203 228
185 204 228
185 203 228
185 203 228
184 203 228
185 203 228
184 203 228
184 203 228
184 203 228
184 203 228
184 203 228
184 203 228
183 203 228
183 202 228
184 203 228
183 202 228
183 203 228
183 202 228
183 202 228
182 202 228
182 202 228
182 202 228
182 202 228
182 202 228
182 202 228
182 202 228
181 201 228
181 202 228
181 202 228
181 201 228
181 201 228
180 201 228
180 201 228
181 201 228
181 201 228
181 201 228
180 201 228
180 201 228
180 201 228
180 201 228
180 201 228
180 201 228
180 201 228
179 200 228
179 200 228
180 201 228
179 200 228
178 200 228
179 200 228
179 200 228
179 200 228
179 200 228
179 200 228
178 200 228
178 200 228
178 200 228
178 200 228
177 199 228
178 200 228
178 199 228
177 199 228
177 199 228
177 199 228
177 199 228
177 199 228
177 199 228
176 199 228
177 199 228
176 199 228
176 199 228
177 199 228
175 198 228
175 198 228
176 199 228
176 199 228
175 198 228
175 198 228
175 198 228
175 198 228
175 198 228
175 198 228
175 198 228
174 198 228
175 198 228
175 198 228
174 198 228
175 198 228
174 197 228
174 198 228
174 198 228
174 197 228
174 198 228
174 197 228
173 197 228
173 197 228
173 197 228
173 197 228
173 197 228
173 197 228
173 197 228
174 198 228
173 197 228
173 197 228
173 197 228
173 197 228
173 197 228
173 197 228
173 197 228
173 197 228
173 197 228
173 197 228
173 197 228
173 197 228
173 197 228
173 197 228
173 197 228
174 198 228
173 197 228
174 197 228
174 197 228
174 198 228
174 198 228
171 195 227
170 194 226
172 195 226
171 194 226
171 194 226
164 188 221
169 192 224
169 192 224
166 189 221
172 195 226
172 195 225
174 197 227
179 200 228
179 200 228
180 201 228
181 201 228
182 202 228
181 200 225
165 181 203
181 198 220
214 231 255
214 231 255
214 231 255
214 231 255
214 231 255
214 231 255
214 231 255
214 231 255
214 231 255
214 231 255
214 231 255
214 231 255
204 222 248
69 101 163
60 95 160
59 94 156
58 92 154
59 94 157
61 96 167
61 97 162
59 95 155
61 96 160
61 96 154
62 97 157
61 96 154
62 98 168
61 96 153
60 95 152
61 96 151
60 96 152
62 97 158
61 96 156
62 97 157
61 97 152
62 97 154
60 95 152
62 98 158
61 96 151
61 96 149
61 97 146
61 97 160
62 98 159
62 98 157
61 96 151
61 97 158
61 97 157
62 98 152
61 96 147
61 96 148
61 97 155
62 98 154
61 97 157
61 97 151
61 96 153
60 95 145
61 97 154
62 97 161
62 98 156
62 97 160
62 98 162
61 96 154
61 97 153
62 97 153
63 98 159
61 97 155
60 95 151
61 96 153
61 97 158
63 99 170
61 97 159
60 96 144
61 97 155
61 96 147
62 97 155
60 95 151
61 97 153
61 96 156
62 96 153
61 96 153
60 95 149
62 97 156
60 95 149
60 95 148
61 96 154
61 96 154
60 94 143
61 95 155
60 95 151
59 94 144
60 94 151
62 97 159
60 93 147
60 95 158
59 93 147
61 95 155
58 90 144
60 93 150
58 91 137
59 92 148
59 93 152
58 90 143
58 90 149
62 92 148
200 218 242
214 231 255
214 231 255
214 231 255
214 231 255
214 231 255
214 231 255
214 231 255
214 231 255
214 231 255
214 231 255
214 231 255
214 231 255
175 182 176
131 127 83
123 121 80
115 114 79
132 131 88
122 123 85
127 127 87
127 127 87
135 135 93
120 121 84
122 124 86
137 138 95
134 134 93
136 136 94
137 138 94
142 141 96
138 138 95
141 141 97
141 141 97
143 143 99
148 148 102
152 151 103
149 148 101
152 152 105
151 151 103
152 151 103
160 158 108
161 159 107
153 152 105
158 156 106
156 155 105
167 164 110
163 161 108
168 164 110
172 169 113
170 166 111
165 162 108
166 163 110
166 163 110
171 167 111
171 168 112
174 170 113
173 170 113
172 169 113
176 171 114
179 173 114
178 173 114
178 173 114
177 172 114
177 172 114
180 174 114
180 174 114
177 173 114
177 173 114
178 173 114
179 173 114
179 173 114
178 173 114
178 173 114
176 172 114
178 173 114
179 173 114
176 172 114
179 173 114
180 174 114
178 173 114
179 173 114
180 174 114
179 173 114
179 174 114
179 173 114
180 174 114
178 173 114
180 174 114
179 173 114
179 173 114
178 173 114
179 174 114
180 174 114
180 174 114
180 174 114
179 173 114
180 174 114
179 173 114
181 174 114
179 173 114
180 174 114
180 174 114
180 174 114
182 175 114
180 174 114
181 174 114
181 174 114
182 175 114
180 174 114
180 174 114
178 173 114
182 175 114
183 175 114
181 174 114
181 174 114
182 175 114
181 174 114
182 175 114
182 175 114
182 175 114
182 175 114
182 175 114
183 175 114
180 174 114
183 175 114
183 175 114
181 175 114
185 176 114
182 175 114
184 176 114
184 176 114
184 175 114
183 175 114
185 176 114
184 175 114
184 176 114
185 176 114
184 176 114
185 176 114
185 176 114
183 175 114
186 177 114
184 176 114
186 176 114
185 176 114
184 176 114
185 176 114
184 176 114
185 176 114
186 177 114
185 176 114
185 176 114
186 177 114
186 176 114
184 176 114
187 177 113
185 204 228
186 204 228
185 204 228
185 203 228
185 203 228
185 203 228
185 204 228
184 203 228
185 203 228
185 203 228
184 203 228
184 203 228
184 203 228
183 203 228
184 203 228
184 203 228
184 203 228
183 203 228
184 203 228
183 203 228
183 203 228
183 202 228
182 202 228
183 202 228
182 202 228
182 202 228
182 202 228
182 202 228
181 202 228
182 202 228
182 202 228
182 202 228
181 201 228
181 201 228
181 201 228
181 201 228
181 201 228
180 201 228
181 201 228
180 201 228
180 201 228
180 201 228
180 201 228
179 201 228
180 201 228
180 201 228
179 200 228
180 201 228
179 200 228
179 200 228
179 200 228
179 200 228
179 200 228
180 201 228
178 200 228
179 200 228
178 200 228
178 200 228
179 200 228
178 199 228
178 200 228
178 200 228
177 199 228
177 199 228
178 200 228
178 199 228
177 199 228
177 199 228
177 199 228
176 199 228
176 199 228
176 199 228
177 199 228
177 199 228
177 199 228
176 199 228
176 199 228
176 198 228
176 199 228
175 198 228
176 199 228
175 198 228
175 198 228
175 198 228
175 198 228
175 198 228
175 198 228
175 198 228
175 198 228
174 198 228
175 198 228
175 198 228
175 198 228
174 198 228
174 198 228
174 198 228
174 198 228
175 198 228
174 198 228
174 198 228
174 198 228
174 198 228
174 198 228
174 198 228
174 198 228
174 197 228
174 198 228
174 197 228
174 198 228
174 198 228
173 197 228
174 198 228
174 198 228
175 198 228
174 197 228
174 198 228
174 198 228
174 198 228
174 197 228
174 198 228
174 198 228
171 195 226
170 193 224
170 194 226
165 188 221
163 186 220
155 178 214
164 187 220
157 180 215
160 183 217
160 183 216
162 185 218
163 185 218
165 187 219
171 193 224
174 196 226
179 200 228
181 201 228
182 202 228
183 202 228
178 196 220
160 176 196
208 225 248
214 232 255
214 232 255
214 232 255
214 232 255
214 232 255
214 232 255
214 232 255
214 231 255
214 231 255
214 231 255
214 231 255
141 161 201
59 93 161
60 95 160
60 96 158
60 94 152
59 94 156
59 95 152
58 93 154
60 95 152
60 96 162
61 96 155
61 96 154
61 96 160
61 96 157
61 97 160
61 96 156
61 96 152
61 97 155
59 94 151
60 95 151
61 96 149
61 96 154
61 96 152
62 97 157
61 96 151
61 96 157
61 97 150
62 97 153
61 97 155
62 97 154
61 96 145
62 97 153
61 97 152
61 97 160
62 97 155
62 97 156
62 97 150
62 97 157
61 97 158
61 96 151
61 97 152
61 96 149
61 97 156
62 98 158
61 96 154
60 95 150
60 96 154
62 98 161
61 96 151
60 95 151
60 95 144
61 97 152
62 98 159
62 97 154
61 96 149
60 96 147
61 96 152
60 95 150
61 96 149
62 98 158
61 96 144
61 96 152
60 94 141
62 97 156
61 96 155
61 96 151
59 94 148
61 96 156
62 97 157
60 95 145
60 94 145
60 94 151
60 95 149
60 96 157
62 97 155
62 97 156
61 96 152
60 94 150
60 95 151
60 94 147
58 91 136
59 93 142
60 93 146
60 93 149
60 94 150
60 94 156
60 94 149
59 93 149
58 91 143
58 90 141
57 89 145
148 166 196
214 231 255
214 231 255
214 231 255
214 231 255
214 232 255
214 232 255
214 232 255
214 232 255
214 232 255
214 232 255
214 232 255
199 214 230
123 121 83
133 129 84
128 126 84
124 123 84
126 126 87
123 124 86
124 124 85
124 124 86
115 116 81
127 127 88
126 127 89
127 128 88
134 134 92
133 134 93
129 131 92
130 131 92
140 141 97
137 137 94
142 142 98
146 146 100
152 151 103
142 142 97
155 154 105
143 143 99
150 149 102
152 152 104
151 151 102
157 155 105
163 160 108
161 159 107
157 155 104
161 159 107
164 162 108
163 161 108
168 164 110
162 160 107
172 168 111
170 166 111
171 167 111
170 166 111
172 168 111
170 167 111
173 169 112
175 171 113
177 171 113
180 174 114
179 173 114
179 173 114
177 173 114
179 174 114
180 174 114
178 173 114
178 173 114
178 173 114
176 172 114
178 173 114
180 174 114
178 173 114
178 173 114
179 174 114
178 173 114
177 173 114
178 173 114
179 174 114
180 174 114
179 173 114
178 173 114
181 174 114
179 174 114
180 174 114
179 173 114
180 174 114
179 173 114
180 174 114
180 174 114
180 174 114
180 174 114
180 174 114
179 173 114
182 175 114
180 174 114
182 175 114
182 175 114
180 174 114
181 174 114
179 173 114
181 174 114
182 175 114
181 174 114
181 174 114
182 175 114
181 174 114
182 175 114
181 175 114
184 176 114
182 175 114
183 175 114
179 173 114
181 175 114
183 175 114
182 175 114
181 174 114
181 174 114
183 175 114
183 175 114
184 176 114
181 174 114
183 175 114
183 175 114
183 175 114
184 176 114
184 175 114
184 176 114
183 175 114
183 175 114
184 176 114
185 176 114
182 175 114
183 175 114
182 175 114
184 176 114
185 176 114
182 175 114
184 176 114
184 176 114
185 176 114
185 176 114
186 177 114
186 176 114
185 176 114
185 176 114
185 176 114
185 176 114
184 176 113
186 177 114
186 177 114
185 176 114
184 175 113
187 177 114
188 178 114
185 176 114
186 176 113
186 204 228
186 204 228
186 204 228
185 204 228
185 204 228
185 204 228
186 204 228
185 203 228
185 203 228
184 203 228
185 203 228
184 203 228
185 203 228
184 203 228
184 203 228
184 203 228
184 203 228
184 203 228
184 203 228
184 203 228
183 203 228
183 203 228
183 203 228
183 202 228
183 202 228
182 202 228
183 202 228
182 202 228
182 202 228
182 202 228
183 202 228
182 202 228
182 202 228
182 202 228
182 202 228
182 202 228
181 201 228
181 201 228
181 202 228
182 202 228
181 201 228
181 202 228
181 201 228
181 201 228
180 201 228
180 201 228
181 201 228
181 201 228
180 201 228
180 201 228
180 201 228
180 201 228
179 200 228
179 200 228
179 200 228
179 200 228
179 200 228
179 200 228
179 200 228
178 200 228
179 200 228
178 200 228
178 200 228
179 200 228
178 200 228
178 200 228
178 200 228
177 199 228
178 200 228
178 200 228
178 200 228
177 199 228
177 199 228
177 199 228
177 199 228
177 199 228
177 199 228
177 199 228
177 199 228
177 199 228
177 199 228
176 199 228
177 199 228
177 199 228
177 199 228
176 199 228
175 198 228
176 199 228
176 199 228
175 198 228
176 199 228
176 198 228
175 198 228
176 199 228
175 198 228
175 198 228
175 198 228
175 198 228
175 198 228
175 198 228
175 198 228
175 198 228
174 198 228
175 198 228
175 198 228
175 198 228
175 198 228
175 198 228
175 198 228
175 198 228
174 198 228
175 198 228
174 198 228
175 198 228
175 198 228
175 198 228
175 198 228
175 198 228
174 198 228
173 196 227
171 194 225
165 188 220
160 184 218
160 183 218
156 180 215
153 176 213
153 176 212
147 170 207
147 170 207
156 180 215
153 176 211
147 169 206
151 174 210
154 176 210
166 188 219
166 187 219
170 191 221
179 199 227
182 202 228
182 202 228
183 202 227
175 192 216
173 189 211
214 232 255
214 232 255
214 232 255
214 232 255
214 232 255
214 232 255
214 232 255
214 232 255
214 232 255
214 232 255
191 209 238
62 95 158
59 94 161
58 93 159
61 96 164
59 94 150
60 95 160
61 96 156
61 96 153
60 95 157
61 96 154
60 96 147
60 96 160
60 95 158
61 96 147
61 97 160
61 96 146
61 96 153
62 97 158
61 97 153
60 96 155
59 95 148
61 96 149
61 96 151
62 98 159
61 96 154
60 96 149
62 97 157
62 97 157
60 94 142
61 97 150
61 96 151
61 97 160
62 97 155
62 97 157
62 97 153
60 96 150
61 97 153
61 97 149
61 97 152
62 98 160
61 97 149
62 97 153
62 98 162
62 97 157
61 97 152
62 97 156
61 96 147
61 97 155
61 97 154
62 98 156
62 97 157
62 98 158
61 97 153
61 96 152
61 97 150
61 96 152
61 96 154
61 96 150
61 96 156
62 98 160
61 97 156
61 96 153
62 97 156
61 96 149
62 96 152
62 97 155
61 96 150
60 94 151
61 96 152
60 95 147
60 95 152
60 95 148
60 95 150
59 94 137
60 95 152
59 93 144
60 95 152
61 97 161
59 93 146
60 94 150
60 94 145
61 95 155
59 93 151
60 94 155
60 94 151
59 92 149
60 94 150
59 91 146
57 90 138
59 92 147
55 86 127
64 94 148
197 214 240
214 232 255
214 232 255
214 232 255
214 232 255
214 232 255
214 232 255
214 232 255
214 232 255
214 232 255
214 231 254
154 158 142
127 124 82
118 117 80
118 118 82
125 124 84
129 128 88
128 128 88
116 116 80
126 127 88
125 126 88
120 122 85
125 126 88
113 116 84
128 129 90
129 131 91
128 129 89
130 132 92
136 136 94
137 138 96
152 151 103
135 136 94
141 142 98
142 142 97
150 149 102
160 158 106
150 150 102
156 154 104
160 158 107
154 153 104
165 161 108
162 159 107
164 161 108
167 163 109
163 160 106
166 163 110
165 162 109
167 164 109
169 165 110
169 165 110
172 168 112
170 167 112
172 167 111
175 170 112
175 170 113
176 171 113
177 172 113
178 173 114
176 171 113
180 174 114
178 173 114
178 173 114
179 173 114
178 173 114
180 174 114
178 173 114
180 174 114
179 173 114
179 173 114
181 174 114
180 174 114
182 175 114
179 173 114
178 173 114
181 174 114
181 174 114
181 174 114
179 174 114
183 175 114
183 175 114
180 174 114
181 174 114
180 174 114
179 173 114
181 174 114
177 172 114
181 174 114
182 175 114
180 174 114
182 175 114
183 175 114
181 174 114
183 175 114
181 174 114
181 175 114
182 175 114
183 175 114
181 175 114
181 174 114
180 174 114
183 175 114
181 174 114
183 175 114
182 175 114
182 175 114
183 175 114
181 174 114
184 176 114
182 175 114
180 174 114
182 175 114
183 175 114
184 176 114
183 175 114
184 176 114
183 175 114
182 175 114
183 175 114
183 175 114
184 176 114
184 176 114
184 176 114
184 176 114
184 176 114
185 176 114
184 176 114
185 176 114
183 175 114
185 176 114
185 176 114
186 176 114
184 176 114
186 177 114
185 176 114
185 176 114
185 176 114
185 176 113
185 176 114
185 176 114
186 177 114
187 177 114
187 177 114
187 177 113
184 176 113
184 175 112
185 176 113
185 176 114
185 176 113
185 176 112
185 176 113
186 176 112
185 176 111
185 176 112
184 175 111
186 204 228
186 204 228
187 204 228
186 204 228
186 204 228
186 204 228
186 204 228
186 204 228
185 204 228
186 204 228
185 204 228
186 204 228
185 204 228
185 203 228
185 203 228
185 203 228
184 203 228
185 203 228
185 204 228
184 203 228
184 203 228
184 203 228
184 203 228
183 203 228
184 203 228
184 203 228
183 203 228
184 203 228
183 203 228
183 203 228
184 203 228
183 202 228
182 202 228
183 202 228
183 202 228
182 202 228
182 202 228
182 202 228
182 202 228
182 202 228
182 202 228
182 202 228
182 202 228
181 201 228
181 201 228
181 201 228
181 201 228
181 201 228
180 201 228
181 201 228
180 201 228
180 201 228
180 201 228
180 201 228
180 201 228
179 200 228
180 201 228
180 201 228
180 201 228
180 201 228
180 201 228
179 200 228
180 201 228
179 200 228
179 200 228
179 200 228
179 200 228
178 200 228
179 200 228
179 200 228
178 200 228
178 200 228
178 200 228
178 200 228
178 200 228
178 200 228
178 200 228
178 200 228
177 199 228
177 199 228
177 199 228
177 199 228
177 199 228
178 200 228
177 199 228
177 199 228
176 199 228
177 199 228
177 199 228
177 199 228
177 199 228
176 199 228
176 199 228
176 199 228
176 199 228
176 199 228
176 199 228
176 199 228
176 199 228
176 199 228
176 199 228
176 199 228
176 199 228
175 198 228
176 198 228
176 199 228
176 199 228
176 198 228
176 199 228
175 198 228
176 198 228
176 199 228
175 198 228
176 199 228
176 199 228
176 198 228
176 199 228
176 199 228
174 197 227
168 191 223
167 190 221
165 188 221
150 173 210
157 180 215
153 176 212
151 174 211
143 167 204
145 168 205
148 171 208
146 169 206
144 167 203
138 161 201
146 169 205
146 168 205
150 172 207
156 177 212
154 176 210
174 195 224
177 197 225
182 202 228
183 203 228
184 203 227
166 182 204
189 205 226
215 232 255
215 232 255
215 232 255
215 232 255
215 232 255
215 232 255
215 232 255
215 232 255
215 232 255
151 170 207
58 93 153
59 94 161
59 93 153
59 93 154
61 96 158
59 93 157
61 96 162
61 96 159
61 96 157
61 96 155
61 97 162
61 97 160
59 93 145
61 96 151
61 96 151
61 97 158
61 96 155
60 95 155
62 97 160
61 96 157
61 96 154
62 98 158
61 97 158
61 96 153
61 96 149
61 96 148
59 94 137
61 96 144
61 97 156
60 95 150
62 97 157
62 97 156
62 98 158
61 96 148
61 97 151
62 98 162
62 97 159
61 96 150
62 98 159
60 96 147
62 98 151
60 96 143
61 97 153
62 98 155
61 97 152
61 97 150
62 98 155
60 95 143
62 97 150
61 96 148
61 97 156
62 97 159
63 98 159
63 99 161
60 95 150
62 97 156
61 97 155
61 97 156
60 95 145
62 97 154
61 96 158
60 95 141
60 94 148
62 98 153
60 95 149
61 96 148
62 97 157
62 97 159
59 93 146
61 95 150
61 97 153
61 95 151
61 96 153
61 96 153
59 93 145
60 93 147
61 95 151
59 93 152
62 97 161
60 94 148
60 94 153
60 95 151
59 93 147
59 91 136
59 93 149
59 91 139
59 93 142
59 92 143
58 92 143
57 89 141
58 90 142
58 89 139
141 161 195
215 232 255
215 232 255
215 232 255
215 232 255
215 232 255
215 232 255
215 232 255
215 232 255
215 232 255
186 198 210
119 116 76
127 124 83
128 127 85
116 116 79
120 120 82
125 125 86
114 115 80
118 119 83
113 115 83
118 119 84
124 126 88
129 130 90
125 127 91
131 132 92
133 133 93
131 132 92
130 131 93
135 136 96
133 134 94
146 145 100
133 134 94
145 145 99
148 147 99
150 149 101
153 151 103
147 146 100
156 153 103
152 150 102
158 156 106
150 149 101
161 159 106
163 160 108
165 162 108
165 161 107
167 164 110
164 161 107
163 161 108
170 166 110
170 166 109
167 163 107
169 164 107
174 170 112
172 168 111
173 169 112
176 170 112
176 171 113
178 172 112
179 173 113
176 172 112
179 173 114
180 173 113
179 173 113
179 173 112
179 173 113
181 174 114
179 173 114
179 174 114
182 175 114
181 174 114
180 174 114
180 174 114
181 175 114
180 174 114
179 173 114
181 174 114
181 174 114
181 174 114
179 173 113
182 175 114
180 174 114
180 174 114
183 175 114
180 174 114
182 175 114
182 175 114
182 175 114
182 175 114
182 175 114
182 175 114
182 175 114
183 175 114
181 174 114
182 175 114
182 175 114
180 174 114
181 174 114
182 175 114
181 174 114
182 175 114
183 175 114
184 176 114
184 176 114
182 175 114
182 175 114
182 175 114
182 175 114
182 175 114
182 175 114
181 174 113
184 176 113
183 175 114
182 175 113
183 175 113
186 176 114
183 175 113
183 175 113
184 176 114
185 176 114
186 177 114
185 176 114
182 175 113
183 175 114
183 175 113
185 176 114
183 175 113
185 176 113
184 175 114
183 175 113
183 175 113
183 175 113
184 176 113
184 176 113
183 175 114
184 176 113
184 176 114
185 176 112
185 176 114
182 174 112
185 176 112
185 176 113
186 176 113
185 176 112
186 176 113
185 176 112
185 176 112
184 176 113
183 175 110
186 176 112
187 177 113
183 175 110
186 176 113
183 175 109
186 177 113
187 204 228
187 205 228
187 204 228
187 204 228
186 204 228
186 204 228
187 205 228
186 204 228
186 204 228
186 204 228
186 204 228
186 204 228
185 204 228
186 204 228
185 203 228
186 204 228
185 203 228
185 203 228
185 203 228
185 203 228
185 203 228
185 203 228
185 203 228
184 203 228
185 203 228
184 203 228
184 203 228
184 203 228
184 203 228
183 203 228
183 202 228
183 203 228
183 202 228
183 202 228
183 202 228
183 202 228
183 203 228
183 202 228
183 202 228
183 202 228
182 202 228
182 202 228
182 202 228
182 202 228
182 202 228
182 202 228
182 202 228
181 202 228
182 202 228
181 202 228
181 201 228
181 201 228
181 201 228
181 201 228
181 202 228
180 201 228
181 201 228
181 201 228
181 201 228
180 201 228
180 201 228
180 201 228
180 201 228
180 201 228
180 201 228
180 201 228
179 200 228
180 201 228
180 201 228
179 200 228
179 200 228
179 200 228
179 200 228
179 200 228
179 200 228
179 200 228
178 200 228
178 200 228
178 200 228
178 200 228
179 200 228
178 200 228
177 199 228
178 200 228
179 200 228
178 200 228
178 200 228
178 200 228
178 200 228
178 200 228
178 200 228
178 200 228
177 199 228
177 199 228
177 199 228
177 199 228
177 199 228
177 199 228
177 199 228
177 199 228
177 199 228
176 199 228
177 199 228
176 199 228
177 199 228
177 199 228
177 199 228
176 199 228
176 199 228
176 199 228
176 199 228
176 198 228
176 199 228
177 199 228
177 199 228
176 199 228
176 198 228
173 196 226
170 192 223
162 184 217
160 183 217
152 175 212
155 177 211
155 178 213
144 167 201
137 160 199
131 154 195
134 157 198
131 154 195
131 155 197
128 151 192
133 156 196
138 161 200
134 157 196
137 160 199
146 168 204
141 162 199
160 181 214
170 190 220
176 196 223
183 203 228
183 202 227
180 198 221
167 182 203
215 232 255
215 232 255
215 232 255
215 232 255
215 232 255
215 232 255
215 232 255
215 232 255
201 219 245
61 93 158
58 93 153
58 92 150
61 95 154
59 93 156
61 97 162
58 92 144
60 95 152
59 95 158
60 95 160
60 95 152
59 94 151
62 97 159
61 96 154
60 95 149
61 96 157
62 98 163
61 96 151
60 95 148
60 95 152
61 97 150
61 96 159
62 97 157
60 96 152
61 96 153
61 96 152
60 95 144
61 97 157
61 96 151
60 95 142
62 97 149
61 96 152
61 97 151
62 97 153
60 95 140
62 98 159
60 96 148
61 97 155
61 97 151
62 97 155
61 97 152
61 96 148
60 95 143
62 98 156
61 97 160
61 96 149
60 96 150
60 96 151
61 96 153
60 96 150
60 95 142
63 98 156
60 95 145
61 96 144
60 96 145
61 96 148
62 98 157
60 94 141
61 96 156
61 96 147
61 96 147
61 96 149
60 95 144
60 96 147
62 97 153
62 98 156
61 96 149
60 95 142
62 97 151
61 96 148
60 95 151
61 96 156
60 94 149
60 95 149
59 94 138
61 96 150
60 94 148
61 96 147
59 93 145
59 92 136
60 95 146
61 95 148
59 93 144
61 96 156
58 92 138
58 91 140
58 90 139
59 91 138
59 91 136
59 92 145
60 94 152
57 89 143
57 89 142
74 101 154
203 220 244
215 232 255
215 232 255
215 232 255
215 232 255
215 232 255
215 232 255
215 232 255
213 230 253
120 122 103
120 119 80
125 124 84
120 119 81
112 112 79
119 119 81
124 124 86
118 120 85
118 119 85
112 115 82
121 122 85
117 119 84
125 126 87
119 121 87
125 127 89
126 128 89
130 130 89
138 138 95
140 140 97
147 146 99
143 143 98
150 149 101
146 146 102
144 144 98
150 149 102
151 149 101
149 149 102
151 150 102
156 154 103
165 161 106
158 156 104
157 155 105
160 158 106
160 158 106
163 160 107
161 159 107
164 161 107
167 163 107
167 163 107
171 167 110
168 164 108
174 169 112
174 169 111
172 167 109
171 167 109
176 170 112
173 169 110
175 170 110
177 171 111
178 172 112
179 173 113
178 173 113
180 174 113
182 174 112
181 174 112
179 173 112
180 174 113
179 173 112
180 174 113
181 174 112
182 174 113
180 174 113
179 173 112
177 172 113
180 174 114
182 175 113
179 174 113
181 174 114
180 174 113
182 174 112
182 174 113
183 175 113
181 174 113
180 174 114
182 175 114
182 175 113
180 174 114
182 175 114
182 175 114
181 174 114
182 175 114
183 175 114
181 174 113
182 175 114
182 175 113
181 174 113
183 175 113
181 174 113
182 175 113
182 175 113
183 175 114
183 175 114
182 175 113
183 175 113
181 174 113
184 175 113
181 174 113
182 175 113
184 176 114
184 175 113
182 175 114
184 175 113
183 175 114
183 175 113
181 174 112
182 175 113
184 176 113
185 176 114
182 175 113
183 175 112
183 175 112
185 176 113
184 175 112
184 176 113
184 175 113
183 175 113
184 176 113
185 176 113
185 176 113
184 176 112
182 174 112
185 176 113
183 175 112
185 175 110
184 175 112
184 175 111
185 176 112
185 176 112
186 176 112
185 176 112
183 175 112
184 175 110
186 177 113
184 175 110
185 176 112
185 176 111
185 176 109
185 176 112
186 176 112
184 175 110
185 176 110
185 176 110
186 176 112
185 176 110
187 205 228
187 205 228
187 205 228
187 205 228
187 205 228
187 204 228
187 204 228
187 204 228
186 204 228
187 204 228
186 204 228
186 204 228
186 204 228
186 204 228
186 204 228
186 204 228
186 204 228
186 204 228
186 204 228
186 204 228
185 203 228
185 203 228
185 204 228
185 203 228
185 204 228
185 203 228
184 203 228
185 203 228
184 203 228
184 203 228
184 203 228
184 203 228
184 203 228
184 203 228
184 203 228
183 203 228
184 203 228
184 203 228
183 203 228
183 202 228
183 203 228
184 203 228
183 203 228
183 202 228
183 202 228
183 202 228
183 202 228
182 202 228
182 202 228
182 202 228
182 202 228
181 202 228
182 202 228
182 202 228
182 202 228
182 202 228
181 202 228
182 202 228
181 201 228
181 201 228
180 201 228
181 201 228
181 201 228
181 201 228
181 201 228
181 201 228
180 201 228
180 201 228
180 201 228
180 201 228
180 201 228
181 201 228
180 201 228
180 201 228
180 201 228
179 200 228
179 200 228
179 200 228
179 200 228
179 200 228
179 200 228
179 200 228
179 200 228
179 200 228
180 201 228
179 200 228
179 200 228
178 200 228
179 200 228
178 200 228
178 200 228
178 200 228
178 200 228
178 200 228
178 200 228
178 200 228
178 199 228
178 200 228
177 199 228
178 200 228
177 199 228
177 199 228
177 199 228
178 200 228
178 199 228
178 200 228
177 199 228
177 199 228
177 199 228
178 200 228
177 199 228
177 199 228
177 199 228
177 199 228
178 200 228
177 199 228
175 197 226
169 191 223
165 187 219
165 187 219
153 175 210
149 171 206
150 173 209
146 169 205
144 167 204
134 157 195
133 156 195
132 156 196
132 156 195
131 154 194
129 152 195
129 152 194
126 149 193
116 139 184
133 155 196
133 155 194
126 148 190
136 157 194
145 166 203
165 184 216
177 197 224
184 203 228
186 204 228
169 185 207
193 209 231
215 232 255
215 232 255
215 232 255
215 232 255
215 232 255
215 232 255
215 232 255
161 180 214
58 92 155
58 93 156
59 94 157
60 95 158
60 94 155
60 95 151
60 95 152
60 95 147
60 94 150
59 94 145
60 95 148
59 94 145
60 94 134
60 95 148
62 97 158
61 96 151
61 96 156
60 95 146
61 97 155
59 94 144
61 96 151
60 95 148
62 97 156
62 97 158
61 97 150
62 97 158
60 95 151
60 96 147
61 97 153
62 97 153
61 97 147
62 98 155
61 97 152
62 97 155
60 95 138
60 95 142
61 96 157
60 96 154
61 96 154
61 96 154
60 95 148
61 97 149
61 96 150
60 96 149
61 96 142
61 96 149
61 97 150
62 97 148
61 96 150
60 95 137
62 98 156
62 97 153
62 97 153
61 96 153
62 97 153
62 97 154
61 96 146
60 95 150
60 95 149
61 96 150
59 94 140
61 96 149
61 97 157
62 98 159
62 98 156
62 97 153
60 95 147
59 94 147
62 97 156
60 94 140
62 97 159
61 96 150
58 92 140
59 94 151
61 96 148
59 93 142
59 93 148
60 94 144
61 95 147
60 95 148
60 94 148
60 95 153
60 94 144
59 93 145
60 94 153
60 94 139
59 92 141
61 95 150
60 93 155
59 90 138
60 93 151
57 89 140
58 89 142
57 87 130
160 177 208
215 232 255
215 232 255
215 232 255
215 232 255
215 232 255
215 232 255
215 232 255
186 198 210
118 115 72
128 125 83
113 113 77
101 102 73
115 115 81
119 119 82
114 115 81
125 125 87
119 120 85
109 111 78
117 119 84
112 115 84
106 109 77
136 136 93
117 119 85
123 125 87
117 120 87
137 137 95
138 138 94
137 137 95
134 134 91
138 139 97
149 149 101
147 147 100
145 144 98
149 148 99
152 150 101
155 154 103
162 159 105
158 156 104
155 152 102
155 154 104
154 153 103
157 154 103
161 158 103
165 161 105
167 163 107
164 160 104
163 159 105
168 163 108
169 165 108
172 168 109
167 163 108
170 167 110
172 166 109
176 171 112
175 170 110
175 170 109
178 172 112
178 172 110
181 174 112
177 172 110
181 174 113
179 173 112
178 172 110
180 173 110
180 174 114
182 174 113
179 173 112
180 174 113
181 174 112
180 174 111
180 174 112
180 174 112
183 175 112
182 174 112
179 173 113
181 174 112
181 174 111
181 174 113
182 175 113
183 175 112
182 175 112
183 175 113
180 174 112
181 174 111
182 174 112
181 174 111
182 175 113
181 174 113
181 174 112
183 175 113
182 174 112
182 175 113
183 175 112
181 174 112
182 175 112
181 173 109
180 173 111
183 175 112
185 176 113
183 175 111
184 175 112
182 174 110
181 174 113
181 174 110
183 175 112
184 176 113
183 175 112
182 175 112
183 175 112
182 174 110
182 174 112
184 175 112
183 175 113
182 174 109
181 174 110
184 176 114
185 176 111
184 175 112
185 176 112
185 176 113
185 176 113
185 176 113
184 175 112
185 176 112
184 175 112
183 175 110
184 175 111
184 176 112
183 175 110
183 175 110
184 175 110
186 177 113
185 176 112
185 176 113
185 176 112
184 176 112
184 176 112
184 176 112
183 174 109
185 176 112
185 176 111
184 175 109
186 176 113
183 174 109
186 176 110
185 175 110
186 176 109
186 177 112
185 176 113
183 175 109
185 175 109
185 175 110
188 205 228
188 205 228
187 205 228
188 205 228
187 204 228
187 205 228
187 205 228
188 205 228
187 205 228
187 205 228
187 204 228
187 205 228
187 205 228
187 204 228
186 204 228
187 204 228
186 204 228
187 204 228
186 204 228
186 204 228
186 204 228
186 204 228
186 204 228
185 204 228
185 204 228
186 204 228
185 204 228
185 204 228
185 204 228
185 203 228
185 203 228
185 203 228
184 203 228
184 203 228
185 203 228
184 203 228
185 203 228
185 203 228
184 203 228
184 203 228
184 203 228
183 203 228
184 203 228
184 203 228
184 203 228
184 203 228
183 203 228
183 203 228
183 202 228
183 203 228
183 202 228
183 202 228
183 202 228
182 202 228
183 202 228
182 202 228
183 202 228
182 202 228
182 202 228
182 202 228
182 202 228
182 202 228
181 201 228
182 202 228
182 202 228
181 201 228
181 202 228
182 202 228
181 201 228
180 201 228
181 201 228
181 201 228
181 201 228
181 202 228
181 201 228
181 201 228
180 201 228
181 201 228
181 201 228
181 201 228
180 201 228
179 200 228
180 201 228
180 201 228
180 201 228
180 201 228
179 200 228
179 200 228
179 200 228
179 200 228
179 200 228
179 200 228
179 200 228
179 200 228
179 200 228
179 200 228
179 200 228
178 200 228
179 200 228
178 200 228
179 200 228
179 200 228
179 200 228
179 200 228
179 200 228
179 200 228
178 200 228
178 200 228
178 200 228
179 200 228
178 200 228
178 200 228
178 200 228
179 200 228
178 200 228
177 198 227
173 195 224
167 189 220
166 188 220
161 183 215
159 181 214
150 172 205
146 169 205
131 154 192
137 160 199
123 147 191
117 140 183
124 147 188
108 132 181
111 135 181
99 123 175
115 139 184
114 137 182
111 134 181
120 143 187
122 145 187
125 147 190
131 153 191
144 165 201
151 171 205
163 182 213
177 195 223
185 203 228
177 193 216
161 174 193
215 232 255
216 232 255
216 232 255
216 232 255
216 232 255
215 232 255
211 228 252
78 105 158
57 91 153
59 93 150
59 94 156
57 91 154
59 93 151
61 97 159
61 97 162
58 92 142
60 95 151
60 95 154
60 94 146
62 97 156
61 96 155
60 95 150
61 96 154
60 95 152
61 95 149
60 94 141
60 95 143
60 95 143
61 97 152
60 96 147
61 96 150
61 95 143
60 96 154
62 98 159
62 97 146
61 97 152
62 97 158
60 95 145
62 98 155
61 97 153
61 96 148
61 96 151
61 97 146
60 95 147
61 96 139
61 96 148
61 96 152
60 95 143
62 97 155
61 96 150
62 97 154
61 96 147
62 97 152
62 97 151
61 96 149
61 96 144
61 96 152
61 97 158
59 94 142
62 97 151
60 94 140
59 94 134
61 96 155
62 97 156
61 96 154
60 95 147
62 97 156
60 96 152
61 96 151
61 97 153
59 94 143
62 97 154
59 94 140
61 95 151
59 94 136
62 97 155
59 93 146
61 95 142
61 95 145
60 94 135
61 96 151
60 94 146
60 94 148
61 96 149
60 95 155
61 95 153
59 92 142
59 92 142
60 94 145
59 92 142
59 93 143
60 94 145
59 93 144
59 91 136
59 94 146
61 95 150
60 93 145
58 91 136
59 92 144
57 89 133
59 91 147
55 85 132
85 110 161
211 228 252
215 232 255
215 232 255
216 232 255
216 232 255
216 232 255
213 230 253
140 140 120
113 111 74
112 111 74
110 109 75
100 102 72
124 124 86
105 106 75
114 116 82
108 111 79
110 112 78
119 122 87
119 121 85
118 120 84
125 127 89
119 122 87
122 124 88
121 122 84
127 129 91
125 127 89
133 133 92
145 145 99
137 137 94
140 141 98
139 139 96
146 145 99
152 150 101
152 151 102
151 149 101
143 143 98
154 153 101
146 146 101
152 151 102
155 153 99
150 149 100
161 157 104
159 156 103
160 157 103
165 161 104
162 158 102
168 164 109
171 166 107
166 162 106
167 163 106
171 166 108
168 164 106
176 170 111
173 168 108
174 168 107
181 174 110
179 172 112
176 170 109
180 173 112
176 171 107
180 173 110
178 172 107
181 174 111
178 173 112
178 172 110
179 173 110
182 174 112
181 174 111
181 174 113
179 173 111
182 175 113
182 174 110
181 174 113
182 174 110
181 174 109
179 173 110
182 174 112
183 175 113
182 175 113
180 174 113
181 174 110
181 174 112
182 174 110
182 174 111
183 175 112
180 174 112
182 175 113
182 174 112
181 174 112
181 174 110
180 173 112
183 175 112
182 174 111
183 175 112
181 174 112
183 175 113
183 175 113
181 174 113
182 174 111
183 175 110
180 173 110
182 174 113
183 175 112
184 175 112
182 174 110
184 175 112
183 175 110
182 174 112
183 175 112
184 176 113
184 175 109
183 175 110
184 175 110
183 175 109
184 175 111
184 175 111
183 174 112
182 174 110
183 174 109
183 175 111
183 175 111
183 175 110
186 176 112
185 176 112
185 176 111
183 175 110
185 176 112
185 175 109
185 175 110
185 176 111
184 175 109
185 176 110
184 175 107
185 176 112
184 175 110
184 176 113
186 176 112
184 175 110
186 176 112
185 176 112
185 176 111
185 175 108
183 175 109
183 174 109
183 174 108
185 175 110
185 176 109
185 176 111
186 176 110
184 175 108
186 176 110
185 175 109
189 206 228
189 205 228
188 205 228
189 205 228
187 205 228
187 205 228
188 205 228
187 205 228
187 205 228
188 205 228
187 205 228
187 205 228
187 204 228
187 205 228
187 205 228
187 205 228
187 205 228
187 204 228
187 204 228
187 204 228
186 204 228
187 205 228
186 204 228
186 204 228
186 204 228
186 204 228
186 204 228
186 204 228
186 204 228
185 204 228
185 204 228
186 204 228
185 204 228
186 204 228
185 204 228
185 203 228
185 203 228
184 203 228
185 203 228
184 203 228
184 203 228
184 203 228
184 203 228
185 203 228
185 203 228
184 203 228
184 203 228
184 203 228
184 203 228
184 203 228
184 203 228
184 203 228
184 203 228
184 203 228
184 203 228
184 203 228
183 202 228
182 202 228
184 203 228
183 202 228
182 202 228
183 202 228
182 202 228
183 202 228
182 202 228
182 202 228
183 202 228
181 201 228
182 202 228
182 202 228
182 202 228
181 202 228
181 201 228
182 202 228
182 202 228
182 202 228
182 202 228
181 201 228
181 201 228
182 202 228
181 202 228
181 201 228
181 201 228
181 201 228
180 201 228
181 201 228
180 201 228
180 201 228
180 201 228
181 201 228
180 201 228
180 201 228
180 201 228
180 201 228
180 201 228
180 201 228
180 201 228
180 201 228
180 201 228
180 201 228
180 201 228
180 201 228
180 201 228
180 201 228
179 200 228
180 201 228
179 200 228
179 201 228
180 201 228
180 201 228
180 201 228
179 200 228
179 200 228
180 201 228
179 200 228
177 198 227
169 190 221
162 184 215
156 178 212
155 177 211
152 174 209
147 169 206
127 150 191
130 152 191
123 146 189
124 147 185
109 133 178
107 131 177
107 131 178
101 125 173
97 121 168
98 122 171
107 131 178
94 117 163
97 121 168
100 123 171
101 124 173
116 138 181
133 154 191
129 150 190
155 175 208
163 182 213
183 201 226
183 200 224
167 182 203
195 210 231
216 233 255
216 233 255
216 233 255
216 232 255
216 232 255
177 195 226
58 92 156
58 92 156
57 90 141
58 92 137
60 95 160
59 93 149
60 96 160
60 95 156
61 96 151
60 96 154
60 95 148
60 94 148
61 96 153
60 96 146
61 96 156
60 95 144
61 96 151
61 96 154
59 94 146
62 97 155
61 96 146
61 96 148
62 98 158
61 95 147
60 95 143
60 96 143
61 96 147
61 96 151
60 95 149
61 96 149
61 96 145
60 95 140
62 97 151
61 95 150
62 97 150
61 97 153
60 95 140
61 97 148
60 95 145
61 96 149
62 98 159
62 98 158
61 96 148
62 97 155
61 96 153
61 96 150
62 97 152
61 96 149
61 97 147
61 96 152
61 96 148
61 96 147
60 95 142
60 96 147
61 97 151
60 96 150
61 96 144
60 95 150
60 95 148
61 96 147
60 95 148
60 95 145
61 96 147
60 94 146
63 98 165
61 96 147
61 95 147
61 96 158
60 94 143
61 96 149
59 94 142
61 97 154
59 93 145
60 94 148
61 96 149
60 94 149
61 94 149
61 96 154
59 94 137
59 93 143
60 93 145
59 93 148
59 92 140
60 93 146
61 96 155
59 93 150
59 93 143
58 90 136
59 93 139
56 87 128
59 92 145
56 88 131
57 89 141
58 90 140
56 86 133
56 85 136
174 191 217
216 232 255
216 232 255
216 233 255
216 233 255
216 233 255
197 210 224
123 121 77
118 116 77
122 121 80
115 115 79
103 105 75
100 102 72
90 93 68
100 103 73
113 115 80
112 115 80
110 113 81
110 113 81
120 123 87
121 122 84
121 123 86
114 116 81
129 131 92
125 127 88
127 128 89
132 133 92
136 137 95
136 136 93
126 128 88
136 135 92
141 142 97
152 150 100
144 143 97
149 147 100
156 153 101
157 154 103
156 154 102
153 150 99
156 153 99
157 155 101
161 158 101
158 155 100
160 157 102
165 162 106
164 161 105
170 166 107
168 164 102
170 165 104
170 164 105
171 166 108
171 166 107
172 166 105
173 168 108
173 168 108
175 169 107
178 172 111
178 171 106
179 173 110
179 173 110
178 172 109
179 173 110
179 172 109
177 171 107
181 174 112
178 171 105
179 173 109
179 173 112
180 173 110
181 173 109
182 175 111
179 173 108
180 173 111
178 172 109
181 174 112
180 173 110
181 174 110
182 174 112
181 174 111
181 174 110
180 173 110
182 174 109
183 175 110
182 174 112
182 174 110
181 174 110
184 175 112
180 173 110
181 174 110
181 174 110
183 175 111
183 175 111
181 174 110
182 174 111
184 175 110
183 175 111
181 174 112
181 174 110
182 174 110
183 175 110
187 177 113
183 175 111
184 175 112
181 173 108
180 173 109
183 174 110
184 175 110
184 176 112
182 174 110
184 175 111
182 174 109
182 174 108
182 174 110
183 175 111
183 175 111
184 175 110
182 174 107
183 175 109
181 174 109
184 175 110
180 173 108
184 175 109
179 172 106
180 173 109
181 174 110
184 175 111
183 174 108
183 174 107
182 174 109
184 175 109
184 175 110
184 175 110
184 175 109
181 173 107
185 176 112
184 175 108
185 175 110
185 176 112
185 176 110
182 174 108
184 175 109
184 175 108
185 176 110
185 176 112
182 174 108
185 176 111
184 174 105
186 176 109
184 175 109
185 176 109
184 175 108
184 175 109
188 205 228
189 206 228
189 206 228
189 205 228
188 205 228
188 205 228
188 205 228
188 205 228
188 205 228
188 205 228
188 205 228
188 205 228
188 205 228
188 205 228
188 205 228
188 205 228
188 205 228
188 205 228
187 205 228
187 205 228
187 205 228
187 204 228
187 204 228
187 205 228
187 205 228
187 204 228
187 205 228
187 204 228
186 204 228
186 204 228
187 204 228
186 204 228
186 204 228
186 204 228
186 204 228
186 204 228
186 204 228
185 203 228
185 204 228
186 204 228
185 204 228
185 204 228
186 204 228
185 204 228
185 204 228
185 204 228
185 203 228
184 203 228
185 204 228
184 203 228
185 203 228
184 203 228
184 203 228
184 203 228
184 203 228
185 203 228
184 203 228
184 203 228
184 203 228
183 203 228
184 203 228
184 203 228
183 203 228
183 202 228
183 203 228
183 202 228
183 202 228
183 203 228
183 202 228
183 202 228
183 202 228
182 202 228
183 202 228
182 202 228
182 202 228
182 202 228
181 202 228
182 202 228
182 202 228
182 202 228
181 202 228
182 202 228
182 202 228
182 202 228
182 202 228
182 202 228
181 201 228
182 202 228
182 202 228
182 202 228
180 201 228
182 202 228
181 201 228
181 201 228
182 202 228
180 201 228
180 201 228
181 201 228
181 201 228
181 201 228
181 201 228
180 201 228
180 201 228
180 201 228
180 201 228
180 201 228
181 201 228
180 201 228
180 201 228
180 201 228
180 201 228
181 201 228
180 201 228
181 201 228
176 197 225
172 192 222
163 184 217
159 181 212
157 178 211
153 175 207
145 166 201
146 167 203
135 158 198
128 150 191
107 130 176
100 124 169
109 132 173
104 128 177
100 125 175
80 106 160
84 109 162
86 111 158
89 114 167
84 109 161
82 106 158
86 110 162
100 122 169
105 128 176
98 120 169
109 130 176
144 164 197
146 165 199
163 182 211
188 205 228
178 194 216
167 181 200
216 233 255
216 233 255
216 233 255
216 233 255
216 233 255
133 153 193
58 92 152
58 92 149
58 93 152
58 92 151
58 93 151
59 94 154
59 94 149
60 95 146
58 93 146
60 95 149
59 94 149
59 93 142
59 93 135
62 97 156
60 95 145
60 96 147
59 94 141
61 96 154
61 96 151
60 95 146
60 95 145
61 96 149
61 96 154
60 95 150
61 96 152
60 95 148
60 96 146
59 93 142
59 94 140
60 96 149
61 96 144
61 96 146
60 95 144
61 96 152
62 97 150
61 96 148
60 95 142
62 98 159
61 97 149
61 96 145
61 97 153
60 96 150
60 96 143
62 97 147
62 97 153
61 97 149
60 95 137
61 97 148
61 96 150
60 94 141
61 96 151
61 96 144
60 95 141
61 96 142
61 96 153
61 96 151
61 95 140
61 97 148
60 95 142
61 96 155
60 95 147
61 96 145
60 95 146
61 96 149
61 95 139
61 95 145
60 95 144
60 95 143
60 94 139
60 95 144
60 94 142
60 94 145
60 95 145
61 95 147
60 94 142
60 95 149
61 96 152
60 94 145
61 95 154
60 94 150
58 91 138
60 94 146
60 94 144
59 93 136
57 90 140
60 94 146
60 94 151
60 93 147
60 94 149
58 92 135
58 91 135
59 93 144
58 90 138
58 90 144
54 84 129
57 87 131
139 157 188
216 233 255
216 233 255
216 233 255
216 233 255
216 233 255
144 148 137
123 120 80
114 114 77
115 114 77
99 100 70
108 108 75
97 100 72
103 106 77
93 97 69
95 100 73
100 103 74
98 101 74
105 108 80
109 112 81
118 119 82
117 119 83
113 115 82
124 125 88
114 117 82
127 129 90
129 130 90
132 133 92
134 135 96
143 143 97
140 140 95
137 137 93
142 142 95
148 146 94
145 145 98
155 153 101
153 151 101
155 152 101
149 147 96
153 151 100
156 154 103
160 157 103
161 157 104
160 158 103
154 152 101
166 161 102
163 158 100
168 164 105
168 163 106
168 162 103
171 167 110
173 168 107
171 166 107
173 167 105
167 163 102
172 166 105
175 169 109
178 172 109
177 171 108
178 172 107
179 172 109
179 172 107
177 172 108
180 173 109
181 173 109
181 174 112
180 173 108
180 173 110
180 173 110
180 173 109
181 174 110
182 175 112
180 173 111
181 174 112
181 174 110
183 174 110
181 174 110
179 172 106
179 172 106
181 173 108
179 172 107
180 173 109
180 173 109
180 173 109
181 174 112
183 175 111
183 175 112
179 172 108
180 173 107
182 174 108
184 175 113
183 175 111
181 174 112
181 173 107
179 172 105
182 174 110
180 173 108
179 172 107
182 174 110
183 175 109
182 174 107
180 173 108
182 174 109
183 174 110
184 175 110
182 174 108
181 174 110
185 176 111
180 173 108
183 174 109
183 174 107
181 173 108
184 175 110
182 174 110
183 174 109
183 174 108
183 175 109
182 174 109
183 174 108
181 173 108
182 174 109
184 175 110
183 174 109
183 174 108
183 174 108
184 175 109
184 175 109
184 175 109
184 175 112
182 174 109
183 174 107
182 174 106
184 176 112
184 175 111
184 175 109
183 174 107
184 175 108
181 173 105
184 175 108
185 175 110
184 174 107
182 174 107
185 176 110
186 176 110
183 174 108
186 176 110
184 175 109
184 175 107
185 175 109
185 176 110
184 174 106
184 174 106
189 206 228
190 206 228
189 206 228
189 206 228
189 206 228
189 206 228
188 205 228
189 206 228
188 205 228
188 205 228
188 205 228
189 205 228
188 205 228
188 205 228
188 205 228
189 205 228
188 205 228
188 205 228
188 205 228
188 205 228
188 205 228
188 205 228
188 205 228
187 205 228
187 205 228
188 205 228
187 204 228
187 205 228
187 205 228
187 205 228
187 205 228
187 204 228
187 204 228
187 204 228
187 205 228
187 204 228
186 204 228
187 204 228
186 204 228
186 204 228
186 204 228
186 204 228
185 204 228
186 204 228
185 204 228
186 204 228
185 204 228
186 204 228
186 204 228
186 204 228
186 204 228
185 203 228
185 204 228
185 204 228
185 204 228
185 203 228
185 203 228
184 203 228
185 203 228
185 204 228
184 203 228
185 203 228
184 203 228
184 203 228
183 203 228
184 203 228
184 203 228
184 203 228
183 203 228
183 202 228
184 203 228
183 203 228
183 203 228
184 203 228
183 202 228
183 203 228
183 202 228
183 202 228
183 203 228
183 202 228
183 202 228
182 202 228
182 202 228
183 203 228
182 202 228
183 202 228
182 202 228
182 202 228
182 202 228
182 202 228
182 202 228
182 202 228
182 202 228
182 202 228
181 202 228
182 202 228
181 202 228
181 201 228
182 202 228
181 202 228
182 202 228
182 202 228
182 202 228
181 202 228
182 202 228
182 202 228
181 202 228
182 202 228
182 202 228
181 201 228
181 201 228
181 201 228
181 201 228
181 201 228
177 197 225
167 187 216
161 182 214
159 180 213
157 178 208
143 165 201
137 159 195
131 153 191
130 152 192
122 145 187
123 146 187
105 129 174
92 117 166
90 115 164
84 111 165
69 98 155
65 93 147
61 89 150
57 86 147
63 91 149
52 81 140
62 89 149
75 101 158
81 105 159
91 113 162
103 123 168
128 147 185
118 138 180
147 166 199
175 192 218
181 197 220
159 173 191
202 218 239
216 233 255
216 233 255
216 233 255
211 228 251
59 91 150
58 92 154
56 90 144
59 93 148
58 93 157
59 93 148
59 93 148
58 92 141
60 94 150
59 93 147
60 94 145
60 95 154
60 96 154
60 95 145
60 95 146
62 97 156
61 96 147
60 95 141
60 95 147
61 96 154
60 95 144
61 96 151
60 96 147
61 97 151
60 94 147
61 96 156
61 97 156
62 97 149
61 96 149
60 96 151
61 97 151
60 95 143
60 95 144
61 97 148
62 97 149
61 96 147
62 97 152
61 96 152
60 95 143
59 94 133
60 94 141
61 96 148
59 94 136
61 97 151
62 97 151
61 96 150
61 96 147
61 96 149
60 95 143
60 95 149
61 96 149
61 96 144
61 96 152
60 94 145
60 95 147
61 96 146
62 98 154
61 96 145
60 95 142
62 97 150
60 95 146
61 95 143
59 93 139
61 96 145
59 93 140
60 95 151
60 94 144
61 96 146
60 94 145
60 95 141
59 94 140
60 95 148
59 93 140
61 95 147
60 95 139
61 96 153
60 95 150
61 96 152
61 96 150
60 95 140
60 94 146
60 93 148
59 93 145
60 95 148
58 92 145
60 94 142
59 93 140
59 92 144
59 93 141
58 90 132
58 90 138
57 89 135
57 89 133
60 92 148
56 86 126
57 88 138
55 87 127
73 98 136
208 225 248
216 233 255
216 233 255
216 233 255
205 219 236
115 113 69
104 103 68
91 94 68
100 100 70
91 93 64
96 98 69
91 94 67
93 96 70
86 91 68
97 99 71
108 111 78
102 105 73
106 109 79
111 114 80
111 113 79
106 111 79
110 112 79
109 112 80
130 130 89
129 130 90
120 124 91
138 139 97
134 134 90
127 129 88
142 141 95
138 138 92
147 145 98
146 146 98
140 140 92
144 143 91
150 148 96
147 145 96
153 151 101
148 146 93
156 153 101
153 151 99
161 158 100
166 162 105
167 162 104
161 158 101
166 161 103
165 161 100
164 160 102
168 163 104
163 159 101
172 166 107
172 166 103
170 165 101
171 166 99
174 169 105
176 170 104
173 168 104
177 171 107
178 172 107
179 172 106
177 171 109
177 172 107
178 172 107
180 173 110
179 172 105
182 174 110
182 174 108
180 173 109
181 174 109
180 173 109
178 172 106
180 173 109
179 172 104
181 174 110
181 174 110
181 174 108
180 173 111
180 173 110
179 172 108
183 175 112
182 174 109
180 173 107
181 173 106
178 172 107
182 174 109
180 173 106
184 175 110
182 174 111
182 174 109
181 173 109
182 174 112
184 175 110
181 173 106
181 173 108
182 174 109
183 174 110
181 173 108
179 172 106
182 174 109
184 175 109
182 174 106
184 175 110
183 175 110
183 174 107
183 174 109
181 173 107
180 172 101
182 174 107
183 174 106
180 173 107
181 173 104
184 175 110
180 173 106
181 173 106
182 174 107
184 175 109
184 175 108
181 173 103
182 174 109
185 175 109
182 174 106
183 174 106
185 175 108
184 175 108
181 173 108
183 175 109
183 175 110
184 174 107
185 176 111
184 175 107
184 174 106
184 175 107
182 173 106
184 175 109
185 175 108
183 174 106
184 175 110
184 175 108
184 174 104
182 173 106
184 175 109
184 175 110
185 175 107
182 173 106
184 175 108
184 175 108
183 174 106
182 173 104
185 175 109
184 174 104
183 174 104
190 206 228
190 206 228
190 206 228
190 206 228
189 206 228
190 206 228
189 206 228
189 206 228
189 206 228
189 206 228
190 206 228
189 206 228
189 206 228
189 205 228
189 206 228
189 205 228
188 205 228
189 206 228
189 206 228
189 206 228
188 205 228
189 206 228
188 205 228
188 205 228
187 205 228
188 205 228
188 205 228
187 205 228
188 205 228
188 205 228
188 205 228
188 205 228
188 205 228
188 205 228
187 205 228
187 205 228
187 205 228
187 205 228
187 205 228
187 204 228
187 205 228
187 205 228
186 204 228
186 204 228
187 205 228
187 204 228
186 204 228
186 204 228
186 204 228
187 204 228
186 204 228
186 204 228
186 204 228
186 204 228
186 204 228
186 204 228
186 204 228
186 204 228
185 203 228
185 204 228
185 203 228
185 204 228
185 204 228
185 203 228
185 203 228
185 204 228
185 203 228
185 204 228
185 203 228
184 203 228
185 203 228
185 203 228
184 203 228
184 203 228
184 203 228
185 203 228
184 203 228
184 203 228
183 202 228
184 203 228
184 203 228
184 203 228
183 203 228
184 203 228
183 203 228
184 203 228
183 203 228
183 202 228
183 203 228
183 202 228
183 202 228
183 203 228
182 202 228
183 202 228
182 202 228
183 202 228
183 202 228
183 202 228
183 203 228
182 202 228
182 202 228
183 203 228
182 202 228
182 202 228
183 203 228
183 203 228
183 202 228
182 202 228
182 202 228
183 202 228
182 202 228
182 202 228
182 202 228
178 198 225
172 192 221
163 183 211
160 181 213
155 176 209
161 182 212
143 164 197
138 160 194
128 150 186
110 133 177
106 130 170
98 122 170
97 121 168
97 121 173
73 100 156
68 96 148
58 89 153
52 83 144
51 82 140
52 84 144
51 82 144
49 78 141
49 79 142
50 79 140
52 80 141
76 100 151
75 97 148
103 124 171
119 138 178
137 155 189
162 180 207
178 195 218
179 194 216
193 208 229
217 233 255
217 233 255
217 233 255
179 196 226
55 88 144
57 90 149
57 91 146
59 94 155
59 93 144
58 92 136
58 93 149
59 93 146
59 93 148
59 93 148
59 93 143
60 95 156
61 95 148
61 96 149
60 95 148
60 95 148
60 96 154
61 96 153
60 95 143
61 97 153
59 94 141
60 96 151
59 94 141
60 95 143
60 95 147
60 95 150
61 96 144
60 95 143
61 96 149
60 95 146
60 95 147
62 97 149
60 95 141
61 96 145
60 95 142
59 93 142
61 96 150
60 95 141
61 97 151
61 96 144
59 93 137
59 94 144
60 96 148
61 96 149
61 96 149
60 95 143
61 96 153
62 97 152
61 96 148
61 96 145
60 95 135
62 97 158
61 97 149
61 97 148
61 96 150
60 95 147
61 96 144
61 96 151
59 94 140
62 96 146
61 96 147
61 96 152
60 94 144
62 97 156
60 95 140
59 93 141
61 95 148
61 95 149
62 96 153
59 94 141
61 96 153
59 93 134
60 95 145
60 95 147
59 93 140
59 93 137
60 94 150
61 95 146
60 94 148
59 93 142
60 94 144
59 92 144
60 95 156
58 90 135
60 94 149
58 92 139
60 93 141
58 90 133
59 92 144
60 93 142
58 90 141
59 93 147
57 90 136
58 89 133
58 90 130
57 89 132
55 84 123
56 85 133
176 192 217
217 233 255
217 233 255
217 233 255
176 184 186
99 97 60
108 107 70
106 107 74
93 94 65
95 98 71
89 93 67
100 103 73
92 95 67
94 98 72
87 92 68
94 99 73
107 110 77
99 103 74
109 112 80
113 115 82
114 116 83
119 121 85
125 127 89
126 127 88
123 125 87
128 128 87
128 129 88
124 125 87
135 135 90
138 139 93
145 145 94
150 149 100
148 146 97
135 135 85
146 144 95
148 147 98
147 146 94
165 160 104
152 149 98
161 158 102
159 156 101
159 156 104
158 154 96
157 154 97
164 160 100
166 161 103
166 161 100
170 165 102
165 160 98
175 168 107
170 165 105
173 166 100
170 165 103
174 167 105
173 166 104
176 170 104
178 172 108
177 170 105
181 173 108
179 172 107
180 172 107
178 171 107
180 172 106
179 172 106
181 173 107
179 172 104
177 171 105
180 173 109
181 173 108
180 173 107
181 173 108
181 173 108
180 173 107
182 173 105
180 173 110
183 175 109
181 173 108
180 172 103
181 173 107
181 173 107
181 173 108
182 173 107
180 173 107
182 174 109
181 173 106
182 174 109
180 173 106
183 174 107
182 174 108
182 174 109
180 173 108
179 172 107
181 174 108
182 174 107
182 174 109
181 174 109
181 173 107
182 174 107
182 174 108
182 174 109
184 175 108
181 173 106
182 173 104
179 171 103
182 174 107
180 172 104
181 173 104
182 173 106
182 174 106
181 173 108
184 175 108
181 173 107
183 175 110
182 174 108
183 174 108
183 174 106
184 175 109
184 175 108
182 173 104
182 173 104
183 174 106
182 174 106
181 172 102
184 175 106
185 176 112
183 174 107
184 175 108
179 171 100
184 175 107
182 173 104
184 175 109
183 174 105
183 174 106
184 174 106
183 174 107
183 174 106
183 174 108
184 174 107
183 174 104
186 176 110
183 174 106
186 176 108
183 174 105
184 174 106
181 173 104
184 175 106
186 175 104
185 175 108
183 174 106
182 173 104
183 174 105
191 207 228
190 206 228
190 206 228
190 206 228
190 206 228
190 206 228
190 206 228
190 206 228
190 206 228
190 206 228
189 206 228
190 206 228
189 206 228
190 206 228
189 206 228
189 206 228
189 206 228
190 206 228
189 206 228
189 206 228
188 205 228
189 206 228
189 206 228
189 206 228
188 205 228
189 206 228
188 205 228
188 205 228
188 205 228
189 206 228
189 205 228
189 205 228
188 205 228
188 205 228
188 205 228
188 205 228
188 205 228
188 205 228
188 205 228
188 205 228
187 205 228
187 205 228
187 205 228
187 205 228
187 205 228
187 205 228
187 205 228
187 205 228
187 205 228
187 204 228
187 205 228
186 204 228
187 204 228
187 205 228
186 204 228
185 204 228
186 204 228
187 204 228
185 204 228
186 204 228
186 204 228
185 204 228
186 204 228
186 204 228
186 204 228
186 204 228
186 204 228
186 204 228
186 204 228
186 204 228
185 203 228
185 203 228
185 204 228
186 204 228
185 204 228
185 203 228
185 204 228
185 204 228
184 203 228
184 203 228
185 203 228
184 203 228
184 203 228
185 204 228
184 203 228
184 203 228
185 203 228
184 203 228
184 203 228
184 203 228
184 203 228
184 203 228
184 203 228
184 203 228
184 203 228
184 203 228
184 203 228
184 203 228
184 203 228
183 203 228
184 203 228
184 203 228
184 203 228
184 203 228
184 203 228
183 203 228
183 203 228
183 203 228
184 203 228
184 203 228
183 203 228
183 202 228
182 201 227
175 195 223
169 189 217
160 180 211
163 183 215
160 180 210
139 160 196
147 168 201
128 150 190
132 153 190
101 124 166
98 121 164
91 115 160
88 113 164
67 95 151
54 84 140
53 85 142
51 82 145
50 81 143
51 81 138
50 81 139
49 78 139
51 82 145
49 79 139
48 78 139
47 76 137
54 82 144
55 81 137
88 109 158
105 125 167
122 140 178
148 166 199
165 182 209
182 198 219
176 191 210
216 232 254
217 233 255
217 233 255
149 168 202
55 89 147
57 90 150
58 93 155
57 91 144
60 95 156
59 93 142
59 93 145
58 93 139
60 95 153
59 93 145
61 95 146
59 93 139
59 93 133
59 94 146
61 96 154
59 94 144
61 96 149
60 95 144
60 95 147
62 97 158
61 96 149
61 96 144
60 95 151
60 94 139
60 95 144
60 94 137
59 94 139
60 95 141
62 97 156
60 95 147
60 95 146
62 97 157
61 96 143
61 96 148
60 95 143
60 94 142
60 95 148
61 96 152
62 98 153
61 97 151
61 96 147
61 96 153
60 95 143
61 97 151
59 93 136
61 96 145
60 95 143
60 95 142
60 96 142
60 95 147
61 96 148
61 97 152
62 97 152
60 94 144
61 96 145
61 96 149
60 95 143
61 97 151
60 95 143
60 94 140
60 95 142
61 95 150
60 95 138
60 94 138
61 96 151
61 95 142
62 98 154
61 96 146
60 94 148
60 94 139
61 95 150
60 94 142
60 95 147
60 94 145
60 95 144
62 96 151
59 94 140
60 94 135
60 93 140
60 94 147
60 94 142
60 94 148
58 91 131
58 91 135
60 94 152
60 93 138
60 93 142
59 93 142
58 90 140
58 91 142
59 91 137
57 89 132
57 89 134
58 89 136
58 90 139
58 89 136
56 86 125
57 87 135
134 151 178
217 233 255
217 233 255
216 233 254
129 131 113
104 102 69
95 94 63
95 95 65
97 98 68
93 95 67
75 80 61
89 93 67
87 92 69
95 97 69
90 95 70
95 99 72
100 104 75
98 102 73
100 104 75
109 112 79
115 117 84
117 119 83
107 111 79
124 126 88
122 124 85
129 130 90
128 129 91
143 142 92
144 143 95
143 142 94
146 145 95
137 136 93
147 145 94
142 141 94
146 145 96
140 138 88
149 147 91
149 147 92
157 154 100
152 151 100
155 153 99
161 156 99
162 159 104
157 153 98
164 160 101
165 161 102
163 159 101
169 164 102
165 160 97
170 164 101
172 166 102
170 165 104
173 167 100
171 165 103
169 163 100
173 167 100
174 168 101
175 169 102
177 171 104
180 172 109
180 172 108
181 174 110
179 172 107
179 172 108
180 172 104
179 172 107
182 174 109
181 173 106
183 175 110
180 172 104
180 173 106
179 172 107
180 173 109
179 172 104
178 171 103
180 172 108
180 173 106
180 173 107
179 172 106
181 173 108
181 173 104
179 172 106
180 172 104
179 172 106
182 174 108
177 170 99
177 171 104
180 173 105
183 174 109
181 173 104
180 173 107
183 174 108
178 171 100
181 173 105
180 172 102
182 173 106
180 172 103
181 173 103
184 175 108
180 172 106
181 173 105
183 174 107
182 174 107
182 174 106
184 175 109
182 174 107
182 174 106
182 174 106
183 174 109
180 172 103
181 173 105
179 172 104
182 173 104
182 173 102
183 175 109
184 175 107
184 174 105
185 175 108
183 174 104
183 174 108
181 173 104
180 172 102
184 175 108
182 173 101
183 174 107
184 174 106
182 173 103
183 174 106
182 173 105
183 174 104
183 174 106
181 173 102
183 174 107
183 174 104
183 174 107
184 174 104
184 175 108
184 174 106
181 173 103
182 173 104
183 174 104
181 173 104
182 173 105
183 174 104
184 175 108
182 173 103
184 175 106
184 175 105
185 175 108
182 173 104
185 175 106
191 207 228
191 207 228
190 206 228
191 207 228
191 207 228
190 206 228
190 206 228
190 206 228
190 206 228
191 207 228
191 207 228
190 206 228
190 206 228
190 206 228
190 206 228
190 206 228
190 206 228
190 206 228
189 206 228
190 206 228
189 206 228
190 206 228
189 206 228
189 206 228
189 206 228
190 206 228
190 206 228
189 206 228
189 205 228
189 206 228
188 205 228
189 205 228
189 206 228
189 206 228
189 206 228
188 205 228
188 205 228
188 205 228
189 205 228
188 205 228
188 205 228
188 205 228
189 206 228
188 205 228
189 205 228
188 205 228
188 205 228
187 204 228
188 205 228
188 205 228
188 205 228
187 205 228
188 205 228
187 205 228
187 205 228
187 205 228
187 205 228
187 205 228
187 205 228
187 205 228
187 204 228
187 205 228
187 204 228
187 204 228
186 204 228
187 205 228
186 204 228
187 204 228
187 205 228
186 204 228
186 204 228
186 204 228
186 204 228
186 204 228
186 204 228
185 203 228
186 204 228
186 204 228
185 204 228
186 204 228
186 204 228
185 204 228
185 204 228
185 204 228
186 204 228
186 204 228
185 204 228
186 204 228
185 204 228
185 203 228
185 204 228
185 203 228
184 203 228
185 203 228
184 203 228
185 203 228
185 204 228
184 203 228
184 203 228
185 203 228
185 203 228
185 203 228
185 203 228
184 203 228
185 204 228
185 203 228
184 203 228
185 203 228
185 203 228
185 203 228
183 203 228
185 203 228
179 198 225
172 191 220
172 192 218
162 182 212
152 172 201
140 161 195
149 170 203
138 159 194
116 138 176
121 143 182
104 127 169
88 112 151
83 109 157
77 103 149
58 87 142
53 84 148
53 83 144
52 83 142
52 83 142
50 80 139
49 79 135
49 80 141
49 79 134
46 74 132
47 76 135
45 72 128
46 75 134
46 74 133
51 77 136
70 92 144
100 119 160
123 141 178
161 178 204
180 196 219
163 177 195
207 223 244
217 233 255
217 233 255
85 109 156
57 90 151
54 87 143
57 89 141
58 93 150
59 93 148
59 94 148
58 93 143
61 96 157
59 93 133
58 93 140
60 94 148
60 95 147
59 93 139
60 94 142
61 96 156
59 94 134
60 96 145
61 97 153
61 96 143
60 95 137
59 93 133
60 95 142
61 96 148
60 95 151
61 96 149
60 95 148
61 96 149
61 95 145
60 95 153
61 95 143
61 96 147
61 96 141
61 96 149
61 96 145
60 94 134
61 96 149
60 95 142
60 95 142
62 97 153
59 95 139
59 94 140
61 96 147
61 96 145
61 96 141
60 95 149
60 95 148
61 96 149
60 95 144
62 97 152
60 95 146
61 96 141
60 95 141
61 96 144
61 95 141
61 95 143
61 96 143
59 94 139
61 97 147
60 95 142
61 96 147
61 96 151
60 95 145
62 96 145
61 96 140
59 93 137
61 96 151
60 95 140
61 96 152
59 94 139
61 97 153
62 97 150
61 96 145
61 95 149
60 93 142
60 94 146
62 96 149
60 95 142
59 92 129
60 94 147
60 95 145
60 94 144
60 94 149
60 94 144
60 94 147
60 93 144
60 93 147
59 92 138
58 90 139
58 90 137
58 90 130
58 89 135
57 89 133
59 91 141
56 87 133
57 88 130
57 88 129
55 85 126
54 84 130
82 103 135
217 233 255
217 233 255
200 213 227
106 105 61
102 100 64
89 90 62
109 109 73
84 86 60
89 92 66
88 92 67
82 86 63
93 96 68
87 92 65
96 100 74
84 89 66
106 109 76
92 96 70
99 101 71
108 112 79
111 114 82
107 111 79
112 115 83
123 125 88
128 129 88
120 122 85
135 135 89
131 131 87
124 125 84
138 138 92
136 136 91
140 139 92
139 138 91
140 140 95
146 145 93
139 138 87
152 149 95
149 147 94
160 156 101
150 148 93
153 150 95
158 155 97
154 151 99
156 153 98
159 155 95
164 160 98
165 161 99
168 163 101
160 156 97
168 163 103
163 159 100
174 168 104
172 166 101
177 169 102
173 167 99
171 165 104
175 169 101
175 168 102
179 172 106
177 171 105
181 173 106
178 171 106
180 172 106
180 173 106
181 173 107
179 172 104
177 170 101
176 170 101
179 172 108
179 172 104
177 171 101
176 170 101
179 172 102
179 172 103
181 173 105
180 172 103
178 171 103
178 171 101
182 173 106
180 172 106
180 172 104
179 171 103
180 172 104
181 173 104
180 173 108
183 174 107
184 175 109
180 172 104
181 173 104
179 172 103
178 171 103
180 172 104
180 173 104
182 174 108
178 171 101
181 173 107
182 173 105
181 173 104
180 172 104
179 172 102
182 174 108
181 173 104
183 174 106
186 176 110
182 173 103
179 172 104
183 174 106
181 173 102
184 175 108
181 173 103
181 173 106
183 174 108
182 174 105
183 174 108
183 174 106
183 174 106
180 172 104
182 173 103
184 175 109
183 174 106
181 173 107
183 174 108
182 173 104
183 174 108
182 173 104
180 172 100
183 174 106
180 172 100
185 175 107
185 175 106
180 171 100
183 174 104
183 174 104
183 174 104
183 173 103
182 173 103
184 175 106
184 175 108
182 174 106
184 174 103
184 174 104
181 172 100
181 173 103
183 174 105
184 174 104
184 174 103
180 172 98
186 176 108
183 173 104
186 176 109
182 173 103
191 207 228
191 207 228
191 207 228
192 207 228
191 207 228
191 207 228
191 207 228
191 207 228
191 207 228
191 207 228
191 207 228
191 207 228
191 207 228
191 207 228
191 207 228
190 206 228
191 207 228
190 206 228
191 207 228
191 207 228
190 206 228
190 206 228
190 206 228
191 207 228
190 206 228
190 206 228
190 206 228
190 206 228
190 206 228
190 206 228
190 206 228
189 206 228
189 206 228
189 206 228
190 206 228
189 206 228
189 206 228
189 206 228
189 206 228
189 206 228
189 206 228
189 205 228
190 206 228
189 206 228
188 205 228
189 206 228
188 205 228
189 206 228
188 205 228
188 205 228
189 206 228
188 205 228
188 205 228
187 205 228
188 205 228
188 205 228
188 205 228
188 205 228
188 205 228
187 205 228
188 205 228
187 205 228
188 205 228
188 205 228
187 205 228
187 204 228
187 205 228
187 205 228
187 205 228
187 205 228
187 205 228
187 205 228
187 205 228
186 204 228
188 205 228
187 205 228
187 204 228
188 205 228
187 205 228
187 205 228
186 204 228
187 205 228
186 204 228
187 204 228
186 204 228
186 204 228
186 204 228
187 204 228
187 204 228
186 204 228
187 204 228
186 204 228
186 204 228
186 204 228
186 204 228
186 204 228
186 204 228
186 204 228
185 204 228
185 204 228
185 204 228
185 204 228
185 204 228
185 204 228
185 204 228
186 204 228
185 204 228
185 204 228
186 204 228
186 204 228
185 203 228
185 203 228
180 198 223
176 194 221
171 189 217
155 175 203
162 181 210
142 163 198
133 153 188
120 141 177
116 138 171
101 124 168
102 125 168
80 106 153
67 94 145
55 86 138
52 84 139
52 82 139
51 82 137
51 83 145
51 82 139
50 81 138
50 80 137
48 77 132
49 79 139
46 75 132
47 76 134
47 75 134
45 73 135
43 71 130
43 71 130
45 70 128
90 110 155
117 135 173
137 153 185
163 179 206
181 196 217
185 199 217
218 234 255
199 216 239
52 84 140
58 92 151
54 87 138
58 92 145
57 91 144
58 92 149
58 92 142
57 91 143
60 94 153
59 93 137
59 94 147
60 95 151
61 96 151
61 95 149
60 95 150
59 93 144
60 94 145
61 97 155
58 92 132
60 95 143
59 94 139
60 94 137
60 95 149
60 95 145
59 94 136
60 95 142
60 95 139
61 96 147
61 96 147
61 96 151
60 94 139
60 95 138
61 95 139
60 96 149
60 95 147
61 96 146
61 97 151
59 94 135
61 96 140
59 94 131
60 94 143
61 96 149
60 94 145
61 96 147
61 96 147
60 94 139
60 95 141
61 97 149
60 95 134
60 95 145
62 97 145
61 96 150
60 95 142
60 95 140
61 96 149
61 97 149
58 92 131
60 94 141
61 96 143
59 94 140
61 96 142
62 97 157
59 93 135
61 96 148
61 96 147
59 94 135
60 94 134
60 95 148
58 92 132
60 95 150
60 95 137
60 95 141
60 95 145
60 93 148
60 94 140
59 92 136
59 93 147
60 95 142
59 93 136
58 90 133
60 93 144
60 94 150
59 93 141
60 93 135
60 93 140
60 95 146
59 93 143
58 91 132
60 92 142
58 90 132
58 90 133
57 89 124
58 89 133
58 89 132
59 92 139
58 87 127
57 88 123
55 86 125
56 85 129
51 78 114
203 219 240
218 233 255
171 181 188
101 100 64
91 91 63
86 89 64
92 93 64
77 79 55
66 72 53
99 102 71
85 90 65
81 85 59
96 99 72
87 93 69
98 102 74
82 87 65
87 94 71
100 104 76
98 103 74
99 104 75
105 108 76
112 114 79
122 123 87
120 123 82
116 119 82
123 125 86
135 136 92
139 138 92
138 138 90
135 136 90
139 137 89
130 131 86
140 138 87
143 142 89
150 148 96
147 145 92
153 150 96
150 147 95
159 156 97
144 143 89
152 149 92
162 158 97
161 157 99
153 150 94
157 152 87
165 160 101
157 154 94
163 159 96
165 160 98
166 161 98
169 164 101
167 162 99
170 164 100
172 166 104
176 169 104
175 168 97
176 169 101
177 171 107
180 172 104
179 172 106
182 173 107
178 171 105
180 172 103
181 174 110
180 172 103
182 173 106
179 172 104
179 172 104
180 172 106
178 170 103
179 172 104
181 173 108
181 173 106
179 172 106
180 172 104
182 174 106
178 171 99
178 171 99
180 172 103
179 172 104
181 173 103
181 173 105
180 173 106
181 173 103
179 172 106
180 172 103
178 171 99
181 173 104
178 171 101
182 173 105
181 172 101
177 170 101
176 170 99
183 174 108
182 173 104
180 173 105
181 173 104
182 173 101
180 172 101
182 174 105
181 173 105
181 173 105
180 172 103
182 173 104
182 173 104
184 174 105
180 172 102
183 174 106
179 171 101
181 172 102
183 174 105
179 171 99
181 173 103
183 173 104
184 174 106
178 170 99
179 171 97
182 173 104
182 173 103
182 173 104
182 173 101
181 172 101
182 173 101
182 173 105
181 172 101
185 175 106
181 172 101
183 174 104
181 173 104
181 173 102
184 174 103
183 173 101
184 174 101
185 175 106
183 174 106
183 173 104
184 174 104
184 174 104
182 173 102
181 172 98
183 174 103
181 172 101
182 173 102
184 174 105
183 173 103
184 175 106
179 171 99
183 173 103
183 174 102
183 174 103
192 207 228
192 208 228
192 207 228
192 207 228
192 207 228
191 207 228
191 207 228
192 207 228
191 207 228
191 207 228
192 207 228
192 207 228
191 207 228
191 207 228
191 207 228
191 207 228
191 207 228
191 207 228
191 207 228
192 207 228
191 207 228
191 207 228
191 207 228
191 207 228
191 207 228
191 207 228
190 207 228
190 206 228
190 206 228
190 206 228
190 206 228
190 206 228
190 206 228
190 206 228
190 206 228
190 206 228
190 206 228
190 206 228
190 206 228
190 206 228
189 206 228
190 206 228
190 206 228
189 206 228
189 206 228
190 206 228
189 206 228
189 206 228
190 206 228
189 206 228
189 206 228
188 205 228
189 206 228
189 206 228
189 206 228
189 205 228
189 206 228
189 206 228
189 206 228
189 205 228
189 205 228
188 205 228
188 205 228
189 205 228
188 205 228
188 205 228
187 205 228
188 205 228
189 205 228
188 205 228
189 205 228
188 205 228
187 205 228
188 205 228
188 205 228
188 205 228
188 205 228
187 205 228
187 205 228
188 205 228
187 204 228
186 204 228
187 205 228
187 205 228
187 205 228
187 205 228
187 205 228
187 205 228
187 205 228
187 204 228
187 205 228
188 205 228
187 205 228
187 205 228
187 205 228
187 204 228
187 204 228
187 204 228
187 205 228
187 205 228
186 204 228
187 205 228
187 205 228
187 205 228
187 204 228
186 204 228
187 204 228
186 204 228
186 204 228
186 204 228
185 203 228
178 196 219
180 198 221
171 189 213
165 183 213
156 175 204
148 168 196
148 168 198
136 156 189
117 138 170
112 134 172
105 127 166
95 118 159
74 100 143
61 90 148
52 83 139
53 84 142
54 86 145
50 80 136
51 81 135
50 80 133
50 80 136
48 77 127
48 78 132
48 77 134
44 72 128
46 74 129
46 74 132
43 70 125
44 72 132
41 67 124
41 66 123
61 83 137
99 118 161
121 138 170
150 166 194
176 191 212
176 189 206
218 234 255
177 194 222
56 90 145
58 92 151
58 91 145
57 91 146
59 93 145
56 89 131
59 93 142
59 92 137
60 95 150
59 93 152
59 93 143
60 94 142
61 96 147
60 94 143
60 94 147
60 94 143
59 93 135
59 94 137
59 94 143
60 95 142
61 96 145
60 94 147
61 97 150
60 95 138
60 95 145
60 95 142
61 96 146
60 94 137
60 95 147
61 96 140
61 96 147
61 96 149
60 95 147
62 97 153
61 95 146
60 95 140
61 96 150
60 95 143
59 94 139
60 95 141
60 95 142
62 97 149
60 94 140
60 94 137
61 97 150
61 96 140
59 93 134
59 94 134
60 95 142
60 95 144
61 97 149
60 96 151
60 95 140
61 96 147
61 95 147
60 95 142
60 95 141
61 96 139
59 93 135
61 96 148
60 95 139
60 95 141
59 94 141
61 96 148
61 96 142
60 94 135
60 94 147
59 93 133
62 97 147
61 96 149
61 96 145
60 94 140
61 95 143
60 94 142
60 94 141
61 96 147
59 92 132
58 92 135
60 94 146
60 94 138
58 92 134
60 94 138
59 94 143
60 95 145
59 93 141
58 90 131
57 91 138
58 89 138
58 91 130
59 92 133
56 88 131
59 92 140
58 89 129
57 88 123
56 87 128
57 89 134
57 88 131
56 85 120
56 85 133
51 78 109
181 197 219
218 234 255
131 134 117
97 96 63
84 84 57
79 81 57
84 85 57
74 76 55
83 87 63
73 78 60
85 90 67
88 91 66
82 87 65
82 87 63
98 102 73
92 96 68
102 106 75
91 96 70
94 99 71
94 99 71
104 107 76
111 114 79
106 110 79
126 127 89
127 128 88
129 129 84
137 137 91
130 130 84
129 129 85
142 140 93
135 135 90
137 136 90
153 149 98
138 137 86
147 146 94
148 145 88
153 150 93
147 145 90
156 152 96
154 152 94
156 152 100
152 149 95
154 151 96
155 152 89
162 157 94
165 160 100
164 160 97
169 163 100
168 163 97
169 164 98
169 164 98
176 169 104
171 165 98
174 168 102
170 165 98
174 168 100
175 169 98
176 170 102
175 169 99
179 172 106
176 169 99
180 172 105
177 170 100
179 170 99
177 170 99
181 173 106
177 170 99
179 172 103
181 172 103
178 171 106
176 169 95
179 171 103
177 170 96
180 173 105
180 172 103
177 170 99
178 171 103
180 172 104
178 170 101
181 173 103
181 172 102
181 173 104
179 171 99
178 171 101
180 172 105
181 173 104
178 171 101
183 174 104
180 172 102
183 175 108
180 172 101
179 171 99
181 173 104
180 171 97
180 172 103
182 174 106
179 171 100
182 173 102
179 171 98
183 174 106
181 173 103
181 172 103
182 173 105
183 174 106
181 173 103
182 174 105
179 170 97
179 171 98
179 171 99
182 173 100
181 173 103
182 173 104
182 173 105
180 172 100
181 172 101
184 174 105
180 172 101
183 173 104
182 173 104
182 173 104
181 172 100
181 172 101
180 172 99
182 173 103
184 175 107
181 172 101
183 174 105
181 172 98
181 173 103
182 173 101
183 173 103
183 174 104
184 174 104
183 173 104
180 171 99
184 174 104
182 173 101
180 171 98
182 173 101
182 173 101
182 173 102
183 174 103
182 172 99
184 174 102
182 173 101
183 174 103
182 173 103
181 172 100
181 172 98
184 174 103
193 208 228
192 208 228
192 207 228
193 208 228
192 207 228
192 207 228
192 207 228
192 207 228
192 207 228
192 207 228
192 207 228
192 207 228
192 208 228
191 207 228
192 208 228
192 207 228
192 207 228
191 207 228
192 207 228
191 207 228
191 207 228
191 207 228
191 207 228
192 207 228
191 207 228
191 207 228
190 206 228
191 207 228
191 207 228
191 207 228
191 207 228
191 207 228
190 207 228
191 207 228
190 206 228
191 207 228
190 206 228
190 206 228
191 207 228
191 207 228
190 206 228
190 206 228
191 207 228
190 206 228
190 206 228
190 206 228
190 206 228
190 206 228
190 206 228
190 206 228
190 206 228
190 206 228
189 206 228
190 206 228
190 206 228
190 206 228
190 206 228
190 206 228
189 206 228
189 206 228
189 206 228
189 206 228
189 206 228
190 206 228
189 206 228
189 206 228
189 206 228
188 205 228
189 205 228
188 205 228
189 206 228
188 205 228
188 205 228
189 206 228
188 205 228
189 205 228
188 205 228
188 205 228
188 205 228
188 205 228
188 205 228
188 205 228
189 206 228
188 205 228
189 205 228
188 205 228
189 206 228
187 205 228
188 205 228
188 205 228
188 205 228
188 205 228
187 205 228
188 205 228
188 205 228
188 205 228
188 205 228
188 205 228
187 205 228
187 205 228
188 205 228
187 205 228
188 205 228
187 205 228
187 205 228
188 205 228
188 205 228
188 205 228
187 205 228
186 203 225
183 200 223
180 197 221
175 193 218
168 186 211
168 185 210
156 173 198
150 169 201
130 149 183
135 155 186
124 145 179
121 141 176
90 114 160
93 116 157
71 97 143
53 83 136
52 83 137
51 81 136
51 81 133
51 81 142
51 81 138
49 79 137
48 77 130
50 80 136
49 78 133
46 75 130
47 77 133
46 74 128
44 71 123
44 71 127
41 67 118
43 70 125
42 67 126
42 66 122
61 81 128
112 127 161
148 164 191
161 175 199
159 172 187
214 229 249
147 165 198
54 86 140
54 87 137
57 91 143
57 91 141
57 91 149
57 91 145
57 91 142
59 93 141
60 95 147
59 92 137
60 95 145
60 95 152
60 95 140
60 95 149
60 94 146
60 95 143
59 94 139
59 94 144
60 95 148
59 93 141
59 94 148
61 96 151
61 96 147
60 95 139
60 94 146
60 95 148
60 95 143
61 96 148
60 96 151
60 95 133
60 95 137
59 94 135
61 96 145
60 95 149
59 93 147
60 95 138
61 96 142
60 94 137
60 95 137
61 96 147
60 94 137
61 96 143
59 94 142
62 97 153
60 95 144
61 96 143
60 95 142
60 95 140
61 97 141
60 95 136
61 96 150
61 96 147
61 96 141
62 97 151
60 94 139
61 96 150
62 97 151
60 95 142
60 95 141
60 95 136
60 94 137
60 95 140
59 94 135
60 95 137
62 97 145
61 95 146
60 94 147
61 95 141
63 99 157
61 95 143
62 97 147
62 96 152
60 95 147
59 92 134
60 94 150
59 94 138
59 93 145
60 95 149
59 94 141
60 94 135
58 92 137
59 93 139
58 90 128
60 94 145
60 93 139
58 92 139
59 92 133
58 92 135
59 91 134
59 92 142
59 92 145
60 92 137
57 89 132
56 88 126
58 89 136
56 86 118
56 87 123
56 86 127
54 83 120
52 79 112
151 166 187
216 231 253
96 94 59
88 87 57
83 84 55
65 67 49
89 91 63
76 78 55
82 86 62
73 77 56
82 86 62
80 85 61
76 82 61
76 82 60
84 90 66
88 92 67
97 101 73
95 100 71
90 94 68
92 98 69
109 112 76
119 120 83
122 123 83
120 122 83
123 124 84
109 112 76
119 122 83
135 134 86
126 126 83
126 127 82
136 136 90
131 131 86
137 136 88
146 144 93
139 139 85
153 150 91
155 151 92
146 143 87
155 152 94
154 150 87
160 156 95
156 152 95
155 151 93
157 153 89
158 155 94
161 157 98
157 153 93
165 160 97
160 156 96
163 158 95
169 164 94
167 162 97
166 161 99
172 166 97
170 164 94
176 169 102
174 168 99
174 167 98
176 169 98
178 171 102
180 172 103
179 171 102
178 171 101
177 169 99
181 172 103
179 171 101
180 172 104
177 169 98
181 172 101
181 172 103
179 171 98
175 168 99
178 171 101
177 170 101
176 169 97
179 172 103
177 170 97
180 172 104
179 171 99
179 171 100
179 171 97
179 171 100
180 172 102
179 172 101
178 170 97
180 172 99
183 174 109
178 171 101
181 173 104
180 172 99
180 172 101
179 171 99
182 173 103
182 173 104
179 171 99
178 170 99
180 171 99
179 171 99
183 174 106
182 173 101
180 172 100
182 173 104
181 172 101
179 171 98
180 172 103
178 171 97
179 171 101
181 173 103
180 172 103
182 173 104
180 172 99
180 172 99
180 171 98
181 173 101
182 173 101
180 172 100
181 172 99
182 173 104
180 171 96
183 174 103
180 172 98
181 172 97
182 173 101
181 172 100
180 172 101
180 171 99
180 171 99
181 172 99
183 173 102
183 174 104
181 172 99
185 175 104
182 173 101
182 173 102
183 174 102
180 172 99
179 171 99
182 173 101
180 171 95
182 173 100
184 174 105
183 173 101
181 172 97
184 174 104
183 173 102
181 172 99
185 175 106
182 172 98
182 173 100
182 173 99
193 208 228
193 208 228
193 208 228
192 208 228
193 208 228
193 208 228
193 208 228
193 208 228
193 208 228
192 207 228
192 207 228
193 208 228
192 208 228
193 208 228
192 208 228
192 207 228
192 207 228
191 207 228
192 207 228
192 207 228
192 207 228
192 208 228
192 207 228
192 207 228
192 208 228
193 208 228
192 208 228
192 207 228
192 207 228
192 207 228
192 207 228
192 207 228
191 207 228
192 207 228
191 207 228
191 207 228
192 207 228
191 207 228
191 207 228
191 207 228
192 207 228
191 207 228
192 207 228
192 207 228
191 207 228
192 207 228
190 206 228
191 207 228
191 207 228
191 207 228
191 207 228
191 207 228
191 207 228
191 207 228
191 207 228
191 207 228
190 206 228
191 207 228
190 206 228
191 207 228
190 206 228
189 206 228
190 206 228
190 206 228
189 206 228
190 206 228
190 207 228
189 206 228
190 206 228
190 206 228
190 206 228
190 206 228
189 206 228
190 206 228
190 206 228
190 206 228
190 206 228
189 206 228
189 206 228
190 206 228
190 206 228
190 206 228
189 206 228
189 206 228
189 206 228
189 205 228
190 206 228
189 206 228
188 205 228
190 206 228
189 206 228
189 206 228
189 206 228
189 206 228
188 205 228
188 205 228
188 205 228
189 206 228
189 206 228
189 205 228
189 205 228
189 206 228
189 206 228
188 205 228
188 205 228
188 205 228
188 205 228
189 206 228
188 205 228
187 203 225
183 199 220
180 196 219
177 193 217
158 175 200
155 172 196
150 167 193
158 176 200
135 154 182
123 143 174
111 132 170
115 136 170
101 123 161
80 105 145
61 89 139
53 83 131
51 82 132
53 84 135
52 82 134
50 79 129
49 79 128
49 78 128
48 77 125
49 78 128
47 76 131
47 75 127
46 74 127
44 72 129
42 69 119
44 71 126
43 69 125
41 66 121
38 63 116
39 65 122
49 70 115
78 96 138
130 146 175
153 168 190
171 185 198
208 223 242
128 146 179
56 89 149
56 89 145
57 90 139
57 91 149
58 91 135
58 92 139
57 91 145
58 92 139
59 93 141
58 92 135
59 93 137
59 93 144
58 92 137
61 95 147
60 94 138
60 95 139
58 93 130
58 93 135
61 95 148
61 96 147
60 95 141
61 95 148
61 96 140
59 93 127
60 95 143
61 96 143
61 96 147
60 95 147
59 93 136
60 95 139
58 91 132
61 96 144
60 95 139
60 95 136
61 96 146
59 94 139
60 95 142
60 95 151
60 94 137
61 96 146
61 96 146
61 97 150
62 97 151
59 93 141
60 95 139
61 96 145
60 94 137
60 95 135
62 98 156
58 93 134
62 98 150
61 96 149
59 93 135
60 95 140
61 97 151
62 97 151
60 95 142
59 93 134
59 93 126
60 95 141
60 94 141
59 93 136
59 94 135
61 96 150
60 94 140
59 94 142
60 94 136
59 93 132
61 95 144
60 95 148
61 95 143
59 93 130
59 92 139
60 95 140
61 95 139
61 95 140
60 94 141
59 92 140
59 93 143
56 88 118
59 92 137
59 93 141
60 94 140
59 92 141
60 93 144
58 90 127
57 89 127
59 93 135
59 93 137
59 93 141
57 90 133
59 91 136
58 91 133
58 90 132
57 88 125
57 87 126
56 86 124
55 84 117
55 83 118
53 81 118
111 129 156
198 210 224
99 98 62
98 97 65
80 81 53
74 75 51
66 70 49
77 80 57
71 76 56
73 78 58
70 75 57
82 87 64
80 85 59
84 89 64
93 98 72
84 90 66
94 98 69
96 101 72
96 100 70
111 112 78
111 114 80
105 109 76
114 116 79
115 118 81
119 121 77
136 135 88
129 130 84
124 124 80
131 132 89
136 134 86
132 132 85
140 137 87
144 142 89
148 145 92
154 150 93
146 144 94
139 138 90
149 146 88
152 149 89
149 146 92
150 147 91
162 157 94
153 149 88
161 156 95
157 154 97
157 154 93
168 162 99
162 157 94
163 158 97
168 162 98
171 165 99
176 169 103
165 160 91
167 162 97
172 165 102
177 169 100
174 167 101
174 168 98
177 170 99
175 168 96
177 170 101
176 169 98
178 171 99
175 168 94
179 171 100
179 172 103
176 168 99
178 170 99
178 171 102
180 172 103
179 170 98
178 171 103
175 168 92
176 169 97
175 168 92
177 170 101
177 170 98
179 171 101
182 173 106
177 170 99
179 171 100
180 172 102
178 170 95
182 173 102
179 171 101
179 171 97
181 173 104
181 172 102
181 172 99
182 173 104
178 171 101
179 172 101
178 170 97
179 171 97
181 172 99
180 172 103
179 171 97
176 169 95
183 174 105
180 171 97
177 170 96
180 172 100
182 173 101
181 172 102
180 172 99
181 172 101
178 170 96
182 173 102
181 172 101
180 172 99
181 173 101
180 172 99
179 171 97
181 172 99
183 174 103
180 172 99
181 172 101
179 171 98
179 171 96
182 173 101
180 171 97
179 171 99
181 173 101
182 173 102
182 172 100
182 173 103
179 171 97
181 172 101
182 173 103
181 172 99
182 173 101
179 171 97
181 172 97
180 171 96
182 173 99
182 172 99
181 172 100
181 172 99
182 173 102
183 173 103
184 174 103
181 172 97
184 174 103
183 173 102
180 171 96
180 172 98
183 173 101
181 172 99
180 172 101
183 173 101
194 208 228
193 208 228
193 208 228
194 208 228
194 208 228
193 208 228
193 208 228
193 208 228
193 208 228
193 208 228
193 208 228
193 208 228
193 208 228
193 208 228
192 207 228
193 208 228
193 208 228
193 208 228
193 208 228
193 208 228
193 208 228
192 207 228
192 208 228
193 208 228
192 207 228
192 208 228
192 207 228
192 207 228
192 208 228
192 208 228
192 207 228
192 207 228
193 208 228
192 207 228
192 208 228
192 207 228
192 207 228
192 207 228
192 207 228
191 207 228
192 207 228
192 207 228
192 207 228
192 207 228
191 207 228
191 207 228
192 207 228
192 207 228
191 207 228
191 207 228
191 207 228
191 207 228
192 207 228
191 207 228
191 207 228
191 207 228
192 207 228
192 207 228
191 207 228
191 207 228
191 207 228
191 207 228
191 207 228
191 207 228
191 207 228
191 207 228
191 207 228
191 207 228
191 207 228
191 207 228
191 207 228
190 206 228
190 207 228
191 207 228
191 207 228
191 207 228
191 207 228
190 206 228
191 207 228
191 207 228
191 207 228
191 207 228
191 207 228
190 206 228
190 206 228
190 206 228
190 206 228
191 207 228
189 206 228
189 206 228
190 206 228
190 206 228
190 206 228
190 206 228
190 206 228
190 206 228
190 206 228
190 206 228
190 206 228
189 206 228
190 206 228
189 206 228
190 206 228
190 206 228
189 206 228
191 207 228
189 206 228
189 206 228
189 206 228
184 199 218
186 201 221
175 190 211
174 189 209
159 175 197
154 172 199
151 168 195
147 164 188
131 151 181
124 143 175
114 134 166
100 122 156
94 116 150
72 98 137
51 82 126
52 83 130
50 79 125
50 80 132
48 77 121
49 78 124
49 78 126
51 81 129
48 77 127
47 76 124
47 75 128
44 71 119
44 71 128
43 70 119
43 70 120
43 70 121
39 63 115
39 63 113
39 64 118
35 57 108
36 58 107
83 100 138
106 122 156
149 163 187
166 181 197
194 208 222
71 98 147
55 86 133
56 89 141
56 90 139
55 88 130
58 92 139
58 92 139
58 92 139
59 94 144
58 92 142
59 93 145
58 93 133
59 93 142
60 94 143
59 93 130
59 93 133
61 95 149
60 95 144
60 95 144
59 94 136
60 94 146
60 95 142
60 95 143
60 96 145
61 96 145
59 94 137
60 95 145
59 94 135
61 96 149
60 94 140
60 95 141
61 96 147
60 95 143
60 95 139
59 94 140
60 95 139
60 94 141
60 95 135
59 94 136
61 96 141
60 95 138
60 95 148
60 95 138
61 96 151
60 95 143
60 95 140
60 94 139
61 96 142
60 95 141
60 95 139
60 94 142
60 94 137
61 96 141
62 97 147
61 96 149
61 96 142
61 96 143
59 94 138
60 95 147
60 94 135
60 94 145
58 93 137
60 94 139
59 93 135
61 96 146
60 95 143
58 92 129
59 94 142
61 96 140
59 92 138
60 94 135
60 95 139
59 93 132
60 95 144
60 94 143
59 93 135
60 95 140
58 92 131
60 94 141
58 91 130
61 95 144
60 94 145
58 91 131
58 91 134
59 92 136
58 91 126
60 95 142
59 93 137
60 93 142
59 92 132
58 91 130
58 90 134
57 90 128
57 88 122
57 89 123
57 89 130
57 89 131
56 86 125
56 86 129
55 86 130
52 80 119
64 89 130
175 185 195
93 91 52
84 84 55
76 78 55
77 78 53
73 76 56
72 77 54
69 74 53
70 75 56
69 75 57
67 73 54
71 77 55
79 86 64
85 90 63
78 83 61
95 98 68
84 90 66
88 92 63
97 102 75
94 99 69
108 110 74
116 117 76
127 127 82
113 115 75
125 126 80
121 122 77
128 127 80
126 127 86
125 125 75
133 132 84
139 137 88
138 137 84
136 135 85
137 136 88
138 136 87
140 139 85
140 139 82
155 151 88
150 146 90
153 150 90
150 147 88
159 155 94
157 153 96
154 150 93
162 157 95
163 158 91
156 151 85
172 166 100
171 164 95
168 162 96
163 158 89
173 167 98
171 165 99
173 166 95
175 168 99
172 166 98
172 166 97
174 167 96
175 169 97
178 170 100
176 168 94
180 172 103
176 170 97
175 168 92
177 170 101
179 171 101
175 167 95
178 170 97
178 171 97
179 171 101
181 172 102
179 171 100
179 171 98
178 170 98
177 170 95
180 172 100
180 172 99
177 170 96
180 171 99
180 171 98
178 171 99
181 172 101
182 174 106
181 172 103
179 171 99
181 173 103
177 170 99
179 171 99
181 172 101
178 170 97
178 170 97
181 172 100
180 172 101
178 170 98
182 173 103
177 170 97
181 172 100
180 172 100
180 172 99
179 171 97
181 172 99
182 173 101
177 170 96
181 173 102
179 171 100
180 171 99
178 170 97
181 172 101
181 172 100
179 170 95
181 172 101
183 174 105
181 172 99
181 172 102
183 174 104
180 171 95
182 173 99
182 173 104
180 171 99
179 170 95
182 173 100
181 172 101
180 172 100
181 172 97
182 172 101
183 173 101
182 172 97
181 172 99
180 171 97
182 173 102
182 173 103
181 172 101
180 172 97
182 173 101
178 170 95
184 174 102
182 173 101
179 170 94
183 173 100
180 171 97
181 172 97
180 171 97
180 171 95
182 173 99
183 173 100
182 173 99
184 174 103
183 173 99
179 171 94
194 209 228
194 208 228
194 208 228
194 208 228
194 209 228
193 208 228
194 209 228
194 208 228
194 208 228
194 208 228
193 208 228
193 208 228
194 208 228
193 208 228
194 208 228
194 208 228
193 208 228
194 209 228
194 208 228
193 208 228
194 208 228
193 208 228
193 208 228
193 208 228
193 208 228
193 208 228
194 208 228
193 208 228
193 208 228
193 208 228
193 208 228
193 208 228
193 208 228
193 208 228
193 208 228
193 208 228
193 208 228
193 208 228
193 208 228
192 208 228
193 208 228
193 208 228
193 208 228
192 207 228
193 208 228
193 208 228
192 208 228
193 208 228
192 207 228
193 208 228
193 208 228
192 207 228
192 207 228
192 208 228
192 207 228
192 207 228
192 208 228
192 207 228
192 207 228
192 208 228
192 207 228
192 207 228
192 207 228
192 207 228
192 207 228
192 207 228
192 207 228
192 207 228
191 207 228
192 207 228
192 207 228
192 207 228
192 207 228
192 207 228
191 207 228
191 207 228
191 207 228
191 207 228
192 207 228
192 207 228
192 207 228
191 207 228
192 207 228
191 207 228
191 207 228
191 207 228
190 206 228
191 207 228
191 207 228
191 207 228
191 207 228
190 206 228
191 207 228
191 207 228
191 207 228
191 207 228
190 206 228
190 206 228
191 207 228
191 207 228
191 207 228
191 207 228
191 207 228
190 206 228
191 207 228
190 206 228
191 207 228
191 206 228
190 205 225
187 202 222
185 199 214
176 191 210
172 188 210
162 177 196
152 169 194
152 169 191
144 162 189
126 145 177
116 135 168
108 128 158
94 116 151
83 107 148
64 92 139
53 84 132
52 83 134
53 83 135
51 81 124
50 80 129
49 78 119
49 78 123
50 80 129
47 75 123
48 76 121
49 78 127
47 76 129
47 74 121
44 71 116
44 71 119
42 68 117
39 64 110
37 61 103
37 60 111
36 60 115
33 55 105
46 64 106
89 102 136
139 154 180
158 173 182
174 188 204
47 77 124
53 85 131
55 87 138
56 89 138
57 91 135
58 92 145
57 90 141
58 92 145
58 93 141
60 95 141
59 93 140
59 94 141
59 94 139
59 94 142
58 92 141
60 94 144
60 94 141
58 91 132
60 94 142
58 92 138
60 94 135
58 93 137
59 93 131
60 95 143
60 95 146
59 93 133
61 96 145
60 95 139
60 94 141
60 95 144
59 94 135
60 94 142
60 95 139
59 94 139
60 94 143
60 95 140
60 94 133
60 95 145
61 96 144
60 95 135
60 94 130
60 95 137
62 97 152
61 96 149
60 95 139
59 94 141
60 95 143
61 96 148
60 96 142
59 93 133
61 96 149
61 95 136
60 94 141
61 96 145
60 94 139
60 94 137
61 96 144
60 94 140
60 95 142
60 95 139
61 96 152
60 94 136
60 95 142
60 94 138
61 96 144
60 94 144
61 95 142
61 95 149
59 93 141
60 95 146
60 94 141
59 93 133
58 92 138
59 93 134
59 94 138
59 93 138
60 94 134
60 94 139
58 92 137
59 93 139
60 94 144
59 93 138
59 92 131
59 93 133
59 93 132
59 92 135
59 91 136
60 94 137
60 93 135
57 89 129
58 89 129
59 92 132
57 89 133
58 91 138
58 88 129
58 90 135
58 90 134
56 86 117
56 87 120
53 80 113
54 82 112
51 76 107
148 154 149
92 91 59
70 71 45
74 75 49
70 71 47
68 71 49
51 57 43
66 70 50
43 50 36
73 78 59
69 76 56
67 75 55
75 81 59
82 86 60
72 79 58
84 90 66
73 80 60
81 88 63
95 99 67
110 112 78
109 112 75
105 108 76
125 125 80
128 129 85
114 116 76
114 116 77
132 130 82
134 133 84
131 130 80
130 129 82
129 128 80
133 132 83
138 136 84
145 142 83
132 133 77
141 138 86
146 144 86
154 150 90
149 146 86
156 152 92
154 150 87
161 155 92
163 158 90
153 149 85
164 158 97
158 154 86
164 159 92
163 158 93
162 157 91
169 163 99
166 161 93
177 170 102
171 165 92
176 168 98
172 165 92
172 166 97
174 167 97
174 167 92
173 166 94
177 169 96
179 171 98
175 168 95
175 168 94
177 170 96
177 169 95
177 169 95
177 170 95
178 170 97
178 170 95
177 170 95
179 171 97
175 168 93
182 173 101
179 171 96
177 170 99
176 169 95
177 170 97
173 166 89
177 170 97
178 170 99
181 172 98
179 171 99
182 173 102
179 171 98
179 171 97
178 170 99
179 171 98
179 171 98
178 170 96
179 170 97
178 170 96
178 170 93
179 171 101
178 170 94
181 172 101
179 171 96
178 171 98
181 172 101
178 170 93
179 170 96
178 169 92
178 170 95
181 173 103
181 172 101
179 171 95
181 172 100
181 172 99
181 172 100
181 172 97
179 171 97
181 172 97
181 172 101
178 170 95
179 171 100
181 172 100
182 173 100
180 171 101
181 171 100
180 171 98
180 171 96
181 172 98
179 170 93
181 172 97
182 173 98
182 172 97
181 172 100
181 172 97
181 172 100
183 174 103
183 173 99
182 173 100
181 172 98
180 171 97
182 173 98
182 173 99
184 174 102
179 170 94
178 170 96
180 171 97
180 171 96
181 172 98
181 171 95
179 170 92
182 172 96
180 171 97
182 173 100
179 171 96
180 171 97
181 172 97
194 209 228
194 208 228
195 209 228
194 209 228
195 209 228
195 209 228
195 209 228
194 209 228
194 209 228
194 209 228
194 209 228
194 209 228
194 209 228
194 209 228
194 209 228
194 209 228
194 209 228
194 208 228
194 209 228
194 208 228
194 208 228
194 209 228
194 208 228
194 208 228
194 209 228
194 208 228
194 208 228
194 208 228
194 208 228
194 208 228
193 208 228
193 208 228
193 208 228
194 208 228
194 208 228
193 208 228
194 208 228
193 208 228
193 208 228
193 208 228
193 208 228
194 208 228
194 208 228
194 208 228
193 208 228
193 208 228
193 208 228
193 208 228
193 208 228
193 208 228
193 208 228
193 208 228
193 208 228
193 208 228
193 208 228
193 208 228
193 208 228
193 208 228
193 208 228
193 208 228
193 208 228
192 207 228
193 208 228
192 207 228
192 207 228
193 208 228
193 208 228
192 208 228
193 208 228
193 208 228
192 207 228
193 208 228
192 207 228
192 207 228
191 207 228
193 208 228
192 207 228
192 207 228
193 208 228
192 207 228
192 207 228
192 207 228
193 208 228
192 207 228
193 208 228
192 207 228
193 208 228
192 208 228
191 207 228
192 207 228
192 207 228
192 207 228
191 207 228
191 207 228
191 207 228
191 207 228
192 207 228
192 207 228
192 207 228
192 207 228
192 207 228
192 207 228
191 207 228
192 208 228
191 207 228
191 207 228
192 207 228
191 206 227
185 199 218
187 200 217
185 199 217
177 192 213
178 192 209
165 180 202
156 172 197
153 168 189
143 159 180
142 159 188
110 129 161
103 125 162
95 116 154
82 106 147
52 83 123
53 84 134
51 82 123
52 82 128
51 81 123
49 78 121
48 77 119
49 78 122
49 79 124
47 74 115
47 75 124
46 73 114
45 72 121
44 71 117
44 72 118
40 66 115
41 67 114
40 66 111
38 63 110
35 58 106
36 59 103
34 56 105
32 52 95
72 86 121
128 142 165
156 171 185
141 156 171
52 84 135
55 87 137
55 88 140
58 92 138
60 94 150
57 91 145
57 90 131
58 91 140
59 93 131
57 90 130
59 93 138
59 93 136
59 93 140
59 93 140
58 92 129
59 92 129
61 95 144
61 95 152
60 95 140
59 93 134
61 96 145
59 93 127
61 96 150
60 95 138
60 94 140
60 95 139
60 94 142
59 94 132
60 95 144
60 95 142
61 96 152
61 96 147
60 95 142
59 94 141
60 95 151
60 94 139
58 93 131
59 94 140
59 93 137
60 94 141
59 94 136
60 94 139
60 95 137
60 95 147
59 93 134
61 96 149
60 94 142
60 95 142
61 96 147
60 95 139
61 96 146
60 94 137
59 94 135
61 95 147
60 95 142
60 95 142
60 94 137
60 95 135
61 95 144
60 95 137
61 96 147
60 94 141
59 94 139
60 95 135
60 94 144
62 97 149
62 97 154
60 94 138
61 95 141
60 94 141
59 94 138
60 94 146
60 94 138
60 94 142
58 92 136
59 94 137
59 93 137
58 92 137
58 92 138
59 93 143
60 94 142
58 92 137
58 91 127
59 91 137
59 92 140
57 90 135
57 89 127
59 92 139
57 90 125
58 90 125
59 91 138
57 88 130
57 89 132
57 89 126
57 89 137
58 91 137
56 86 122
57 89 136
57 88 131
55 85 126
50 77 107
51 77 103
90 92 69
81 80 47
71 71 47
67 68 44
58 59 41
46 55 43
55 61 45
76 81 60
56 62 45
55 61 45
48 58 46
64 73 58
73 80 58
67 76 57
76 82 58
76 83 63
83 89 60
100 103 73
100 103 67
96 100 69
99 101 65
109 111 72
102 104 67
117 118 76
120 120 78
116 118 77
111 112 74
134 133 85
133 133 82
130 130 84
142 140 86
141 139 84
140 138 85
139 137 81
141 139 83
137 136 82
150 147 90
142 140 85
148 145 87
160 156 95
148 145 84
153 149 90
160 155 89
159 154 84
154 150 90
159 155 90
166 161 94
165 160 96
153 149 84
167 161 94
162 157 84
166 161 94
171 164 94
169 162 95
171 164 96
169 162 92
171 165 96
176 169 95
173 166 89
176 168 94
173 166 88
177 169 99
176 169 93
177 169 95
178 170 96
177 169 97
178 170 97
177 169 97
177 169 97
177 170 96
176 169 95
177 169 96
176 169 95
177 170 97
176 168 90
181 172 101
176 169 95
177 169 94
179 171 99
178 170 95
182 172 99
181 173 102
176 168 95
180 172 103
175 168 90
180 171 98
177 169 95
179 170 98
175 167 89
178 170 97
182 173 101
181 172 97
178 170 95
179 171 97
178 170 92
178 170 95
182 172 99
177 169 91
173 166 89
181 172 99
181 172 101
179 170 97
181 171 95
178 170 93
179 171 97
181 172 99
178 170 96
181 172 99
182 173 103
179 170 95
180 171 95
178 169 95
179 171 96
177 169 90
177 169 90
178 170 96
179 171 97
179 171 97
179 171 95
179 170 94
180 171 97
180 172 97
179 170 95
179 170 97
180 171 96
176 168 95
180 171 99
180 171 95
183 173 101
182 172 99
182 173 97
182 173 101
180 171 94
180 171 95
181 172 96
178 169 93
178 170 93
181 172 95
179 170 93
180 171 95
178 170 94
182 172 99
180 171 93
183 173 99
182 173 99
179 171 94
181 171 95
180 171 95
182 172 100
195 209 228
195 209 228
195 209 228
195 209 228
195 209 228
195 209 228
195 209 228
195 209 228
195 209 228
195 209 228
195 209 228
195 209 228
195 209 228
195 209 228
195 209 228
195 209 228
195 209 228
195 209 228
194 209 228
194 209 228
194 209 228
195 209 228
194 209 228
195 209 228
194 209 228
195 209 228
194 209 228
195 209 228
194 208 228
194 209 228
194 209 228
194 209 228
194 208 228
194 209 228
194 209 228
195 209 228
195 209 228
194 208 228
194 209 228
194 209 228
193 208 228
194 209 228
195 209 228
194 209 228
195 209 228
194 209 228
194 209 228
194 209 228
194 209 228
194 208 228
194 208 228
194 208 228
194 208 228
195 209 228
194 208 228
193 208 228
193 208 228
194 209 228
193 208 228
194 208 228
194 208 228
193 208 228
193 208 228
194 208 228
194 208 228
194 208 228
193 208 228
194 208 228
194 208 228
193 208 228
193 208 228
194 208 228
193 208 228
193 208 228
194 208 228
193 208 228
193 208 228
193 208 228
193 208 228
193 208 228
193 208 228
193 208 228
193 208 228
193 208 228
192 208 228
192 208 228
193 208 228
193 208 228
194 208 228
193 208 228
193 208 228
194 209 228
193 208 228
193 208 228
193 208 228
193 208 228
192 208 228
193 208 228
193 208 228
193 208 228
193 208 228
193 208 228
192 208 228
192 208 228
192 207 228
193 208 228
192 207 228
190 205 225
188 203 220
185 199 216
180 193 209
172 185 200
170 184 202
161 177 195
151 166 186
148 164 186
144 160 184
127 146 174
123 141 172
114 133 162
87 110 144
71 97 141
52 82 130
52 83 127
52 82 129
51 81 127
50 80 132
50 80 125
49 78 123
48 77 117
48 76 121
47 75 118
48 77 124
45 72 109
46 74 117
43 69 112
43 69 112
41 66 111
37 61 103
40 65 111
36 59 104
37 60 108
33 55 102
35 57 100
28 46 93
79 91 120
112 125 151
151 166 183
146 161 172
51 81 123
51 82 119
56 90 144
56 89 135
55 88 131
56 89 131
56 89 132
58 92 137
57 90 123
58 92 135
58 92 131
57 91 129
58 92 132
61 96 151
59 93 139
59 94 135
58 92 132
59 94 138
58 92 137
59 93 136
60 95 137
60 95 139
60 94 144
59 93 142
60 94 142
58 92 121
60 94 136
60 95 139
60 94 138
60 95 131
61 96 149
60 95 146
60 95 139
59 93 139
60 96 147
60 95 144
61 96 146
60 95 137
60 94 139
60 95 137
61 96 145
61 97 148
58 92 133
60 95 141
61 96 148
60 95 134
60 95 142
61 96 141
61 96 141
59 93 131
60 95 143
61 96 142
60 95 141
60 94 136
60 95 140
60 94 135
60 95 140
61 96 150
58 92 130
59 93 134
59 93 136
59 93 129
60 95 146
61 95 132
60 95 143
59 94 132
60 95 146
60 95 139
59 94 132
60 94 143
57 90 128
59 93 133
61 95 142
60 93 124
61 95 143
60 94 141
60 94 139
58 91 130
60 94 139
58 91 137
61 95 142
60 94 130
58 91 122
60 94 139
59 93 141
56 88 120
59 93 132
58 90 124
60 94 146
58 91 131
59 91 133
57 89 133
56 87 128
57 88 127
56 86 123
57 89 133
57 89 134
55 86 131
53 82 120
52 80 114
53 81 115
51 78 114
85 88 75
67 69 45
52 54 38
68 69 44
71 73 49
65 67 46
42 50 36
46 52 37
53 61 49
56 64 49
49 58 47
72 77 54
61 68 48
67 75 55
64 73 57
85 90 64
85 91 63
95 100 68
90 95 65
90 95 60
94 98 65
110 111 72
114 114 73
112 114 73
115 117 72
119 118 72
117 118 76
123 123 77
137 135 84
120 121 77
134 133 85
123 123 77
131 130 81
138 136 84
145 142 83
132 132 73
150 146 88
150 146 87
148 145 86
149 146 84
152 148 84
151 148 84
154 149 83
154 149 88
156 152 87
164 159 91
165 159 92
171 164 92
166 160 88
169 164 95
165 160 89
168 162 91
165 159 85
169 163 93
174 167 95
174 167 98
171 164 86
175 167 97
170 163 87
177 169 96
176 168 96
178 170 96
176 168 91
173 167 93
178 170 97
179 170 96
174 167 89
175 168 92
174 167 87
178 170 97
178 170 95
181 172 103
177 169 94
175 168 90
179 171 98
175 168 93
178 169 92
176 169 93
178 170 93
175 168 89
177 170 95
179 170 94
179 170 99
178 170 95
177 169 94
178 170 93
178 170 97
179 170 95
180 171 95
178 170 93
178 169 94
179 170 100
179 170 94
180 171 95
180 172 99
179 170 96
177 168 88
179 170 94
178 170 91
176 168 90
176 169 91
180 171 98
177 168 91
178 170 95
179 171 97
182 173 101
181 172 98
180 171 96
182 172 98
182 172 99
177 169 92
180 171 97
177 169 94
178 170 93
179 171 95
177 168 89
180 171 95
178 170 95
180 171 97
179 171 94
181 172 97
182 173 97
177 169 93
182 173 99
179 170 93
181 172 97
177 169 90
179 171 93
176 167 86
179 170 94
181 171 96
177 169 93
180 171 95
180 171 95
181 171 95
180 171 95
179 170 91
178 170 92
181 172 99
181 172 99
181 172 97
178 169 92
183 173 98
181 171 95
181 172 97
180 171 95
179 170 95
178 170 93
178 170 92
196 210 228
195 209 228
195 209 228
196 209 228
196 210 228
196 210 228
196 210 228
196 209 228
195 209 228
196 209 228
196 209 228
195 209 228
195 209 228
195 209 228
196 210 228
195 209 228
195 209 228
195 209 228
195 209 228
195 209 228
195 209 228
195 209 228
195 209 228
195 209 228
196 209 228
196 209 228
195 209 228
195 209 228
195 209 228
195 209 228
195 209 228
195 209 228
195 209 228
195 209 228
195 209 228
195 209 228
195 209 228
195 209 228
195 209 228
195 209 228
195 209 228
195 209 228
195 209 228
196 209 228
194 208 228
194 209 228
195 209 228
195 209 228
194 209 228
195 209 228
195 209 228
195 209 228
195 209 228
195 209 228
194 208 228
195 209 228
195 209 228
195 209 228
195 209 228
195 209 228
194 209 228
194 208 228
195 209 228
194 209 228
195 209 228
195 209 228
195 209 228
194 208 228
194 209 228
195 209 228
195 209 228
194 208 228
194 208 228
194 208 228
194 209 228
194 209 228
194 209 228
194 208 227
195 209 228
194 208 228
194 208 228
194 209 228
194 209 228
194 209 228
194 208 228
194 208 227
194 209 228
193 208 227
194 208 226
194 209 228
193 208 228
193 208 227
193 208 227
194 208 227
194 209 228
193 208 227
194 209 228
194 208 227
193 208 227
194 208 227
193 208 228
194 209 228
193 208 227
193 207 226
193 208 225
193 208 227
192 207 224
191 205 223
187 201 215
185 198 213
183 196 209
174 187 203
167 181 196
158 173 187
151 166 185
138 153 177
142 159 186
124 141 171
112 130 162
102 122 153
81 104 137
69 94 138
49 79 112
52 82 128
50 79 113
51 81 124
50 79 119
51 81 124
48 77 121
50 79 128
47 75 114
45 73 113
45 73 119
44 71 111
43 69 111
43 70 110
41 66 109
42 67 105
40 65 108
37 61 106
39 64 111
36 58 103
32 54 91
30 50 93
27 45 82
52 65 104
104 117 144
144 159 164
128 144 158
54 86 139
54 86 128
55 87 124
55 87 132
56 88 122
56 89 129
58 91 132
58 92 133
57 91 137
58 93 137
59 93 144
60 94 142
58 92 129
59 93 139
58 93 135
59 94 137
59 94 138
61 95 141
60 94 144
60 94 137
60 95 145
60 94 137
59 93 136
60 94 137
61 96 146
61 96 145
60 95 137
60 94 136
59 94 137
59 93 135
61 96 148
60 95 146
59 94 136
61 96 148
60 95 139
59 93 130
61 97 150
60 95 134
60 95 136
61 96 143
59 94 137
61 96 143
61 96 146
60 94 139
60 95 143
62 97 149
61 96 144
60 94 139
60 95 145
61 96 142
62 97 148
60 95 137
60 94 134
61 96 141
60 95 139
61 96 142
60 95 143
60 95 137
60 94 135
60 94 128
60 95 141
60 94 134
60 94 140
59 94 136
59 93 134
60 95 143
59 93 138
60 95 140
60 95 136
59 93 135
60 94 134
60 95 136
59 93 132
59 93 141
59 92 141
60 94 139
58 91 131
58 91 131
59 92 133
60 94 133
60 94 146
59 93 139
60 93 143
60 94 146
59 92 139
59 93 138
59 93 133
58 91 139
56 87 122
58 91 127
57 90 119
57 89 131
59 91 133
57 89 126
57 88 128
56 86 127
57 86 122
56 87 122
56 85 116
56 85 114
52 79 102
53 81 112
79 84 65
82 81 49
61 64 42
57 59 42
56 58 39
56 60 42
42 49 37
56 60 40
58 64 48
53 60 43
63 71 52
58 67 46
55 65 50
82 87 62
78 84 61
76 82 56
88 93 65
77 84 62
81 87 60
100 104 72
103 105 69
101 105 68
108 110 69
118 118 75
114 117 77
129 129 84
125 124 81
117 116 72
123 122 70
130 129 82
140 139 84
130 129 76
134 133 76
150 146 88
131 130 74
146 142 83
148 144 80
139 137 84
146 143 84
153 149 89
146 143 86
155 151 91
160 155 91
153 149 81
154 150 88
162 156 88
163 157 91
165 160 90
164 159 90
169 162 94
168 162 90
169 163 93
170 163 89
168 162 86
166 161 89
166 160 89
174 166 95
173 166 92
174 166 94
171 164 83
176 169 96
171 163 85
176 168 95
172 165 87
177 169 95
175 167 89
176 168 91
176 168 94
174 167 87
176 168 93
176 169 94
177 169 94
176 169 95
178 170 93
178 169 96
176 168 93
177 170 95
176 169 94
175 167 90
175 167 90
174 166 90
178 170 95
176 169 93
177 169 91
176 168 91
179 170 95
177 169 93
177 169 92
180 171 94
175 168 93
179 171 97
179 170 97
180 171 97
178 170 95
175 167 85
177 169 95
176 168 90
178 169 93
179 170 95
178 170 92
178 170 93
179 171 97
179 170 95
183 173 101
177 169 92
181 172 99
177 169 93
177 169 89
180 171 97
177 169 90
179 170 93
177 169 88
177 169 93
181 172 97
180 171 95
179 171 95
182 173 98
174 167 84
181 171 96
182 172 99
182 172 98
183 173 99
179 170 91
179 170 92
181 172 98
181 172 96
181 172 96
180 171 95
182 172 97
179 170 92
180 171 95
179 170 93
178 169 89
180 171 94
179 170 93
179 170 93
179 170 90
180 171 94
181 172 95
181 171 95
181 172 97
183 173 100
180 171 96
183 173 101
177 168 90
181 171 95
180 171 93
180 171 94
183 173 101
196 209 228
196 210 228
196 210 228
196 210 228
196 210 228
196 209 228
196 210 228
196 209 228
196 210 228
196 210 228
196 209 228
197 210 228
196 209 228
196 210 228
196 210 228
196 210 228
195 209 228
196 210 228
196 209 227
196 209 228
196 210 228
196 209 228
196 210 228
196 210 228
196 210 228
196 209 228
196 209 228
197 210 228
196 209 228
196 209 227
195 209 227
196 210 228
196 209 228
194 209 226
196 210 228
196 209 227
195 209 227
195 209 226
196 209 228
195 209 228
195 209 227
196 209 228
195 209 228
195 209 226
194 208 226
195 209 227
195 209 227
195 209 227
195 209 228
195 209 226
195 209 226
195 209 226
195 209 228
195 209 226
195 209 226
195 209 227
194 208 224
193 208 223
195 209 228
194 208 224
194 209 227
193 208 223
195 209 228
193 207 223
195 209 228
192 207 220
192 207 218
195 209 227
194 208 226
192 207 219
194 208 226
191 206 218
193 208 224
194 209 227
192 207 220
193 207 221
192 206 219
195 209 226
193 207 220
194 208 225
194 208 225
192 206 217
195 209 227
193 208 224
193 207 221
192 206 219
192 206 219
194 208 225
193 207 221
193 207 224
193 207 223
191 206 217
193 207 224
194 208 225
192 207 223
193 208 225
191 206 218
191 206 220
193 207 221
192 207 221
193 207 223
193 208 225
190 205 218
189 205 213
189 205 214
189 205 214
191 206 220
187 201 210
184 197 202
183 196 203
177 190 194
176 190 200
163 177 186
159 174 191
154 169 187
146 162 177
128 145 169
137 153 173
114 132 159
76 98 130
81 103 134
60 86 126
53 83 121
51 81 119
50 80 119
50 80 118
49 79 117
49 78 115
48 77 113
47 76 118
47 75 118
47 75 123
47 75 120
46 73 110
43 69 108
42 68 105
42 67 101
40 65 101
39 63 95
37 60 92
38 62 99
33 54 94
33 55 95
30 50 92
26 43 81
43 59 96
105 118 142
142 155 176
109 127 149
51 82 118
53 84 133
55 88 135
54 87 124
57 90 127
56 89 135
58 91 136
56 89 127
58 91 124
58 91 133
58 92 128
59 93 141
57 91 132
59 93 135
59 93 139
58 92 132
60 95 145
60 94 140
59 94 134
59 93 132
59 94 141
60 95 139
58 91 129
59 93 133
58 92 128
61 95 142
62 97 147
61 96 141
60 95 144
58 92 122
60 94 142
60 95 144
61 96 150
61 95 139
60 94 138
60 95 138
60 95 139
61 96 153
60 94 134
60 94 132
60 95 141
61 96 144
60 94 146
61 96 140
61 96 143
61 95 144
61 97 150
59 93 130
61 95 137
60 95 137
60 94 130
59 93 141
61 96 141
59 94 135
58 92 130
60 95 139
60 95 142
60 93 128
61 95 148
60 94 127
60 96 142
61 95 148
60 95 145
60 94 131
59 93 142
59 94 130
60 95 140
61 96 144
59 94 136
62 97 152
60 95 142
59 93 128
59 93 136
60 94 140
60 94 138
60 94 142
59 92 135
58 90 131
59 92 135
58 91 134
58 92 131
59 93 131
59 92 140
58 91 138
57 90 122
57 89 130
56 87 126
58 91 129
59 92 137
59 92 138
59 91 140
57 89 124
57 88 125
58 90 129
59 91 135
55 84 105
56 87 121
55 84 116
52 81 113
55 84 121
53 80 114
49 73 85
69 77 65
79 78 42
47 49 34
50 53 34
56 58 39
47 53 40
43 49 34
51 57 40
44 52 37
53 59 44
50 58 41
50 58 41
55 63 45
67 74 54
78 83 56
70 76 55
82 88 59
85 89 53
89 93 61
86 92 64
100 104 66
104 107 68
115 117 72
120 119 73
111 113 71
111 113 69
118 119 73
131 131 77
128 127 76
117 119 71
115 116 70
124 124 75
145 141 82
133 131 76
141 139 79
140 138 75
133 132 81
158 152 90
145 142 79
152 147 83
151 147 84
156 150 85
145 142 79
151 147 79
162 156 85
161 156 87
158 153 86
163 157 86
151 147 85
164 158 90
168 161 93
159 154 82
166 159 90
171 164 92
164 158 78
168 162 87
170 164 88
174 167 93
175 167 88
171 164 87
177 168 94
174 167 89
173 166 90
174 166 89
177 169 95
177 169 91
176 168 95
172 165 87
175 167 93
177 169 93
177 168 93
177 169 91
176 168 93
176 169 93
177 169 94
178 169 92
179 171 97
176 169 91
172 165 83
175 167 92
179 171 95
177 169 95
178 169 94
179 170 93
178 170 93
176 169 92
178 169 93
177 169 93
174 167 87
177 169 92
178 169 94
177 168 93
179 170 93
172 165 84
177 169 92
180 171 93
178 170 93
180 171 95
178 169 90
181 172 98
175 167 86
179 170 93
180 171 95
176 168 84
176 168 86
178 170 93
182 172 99
180 172 97
177 169 90
174 166 84
176 168 87
180 171 96
180 171 97
180 171 97
177 169 94
180 171 94
179 170 93
177 169 93
180 171 96
178 169 93
176 168 91
181 171 99
179 170 92
180 171 94
180 171 93
175 167 87
177 169 89
179 170 92
179 170 95
183 173 99
178 169 91
177 169 93
175 167 86
178 169 91
181 171 94
182 172 97
179 170 90
177 168 87
181 172 97
180 171 94
179 170 91
179 170 90
177 169 88
176 168 88
178 170 93
177 169 90
181 171 95
180 171 95
180 171 93
196 209 226
196 209 225
195 209 224
196 209 226
195 209 225
195 209 225
196 209 226
196 209 226
195 208 224
194 208 223
197 210 227
195 209 224
196 209 226
196 209 226
195 208 223
195 209 226
196 210 227
196 209 225
195 209 224
196 209 226
194 208 223
194 208 221
194 208 221
194 208 220
195 209 225
193 207 218
194 208 221
195 208 223
194 208 223
195 209 225
194 208 224
193 207 219
194 208 223
193 207 220
194 208 221
195 209 225
192 206 214
194 208 221
194 208 221
194 208 223
193 207 219
195 208 223
195 209 227
192 206 216
194 208 223
192 206 216
194 208 220
193 207 219
192 206 216
194 208 223
194 208 224
193 207 219
193 207 220
193 207 218
193 207 218
193 207 221
194 208 223
191 205 213
193 207 219
191 205 212
192 206 216
191 206 214
192 206 216
191 206 216
192 206 218
191 206 214
193 207 221
192 207 219
191 206 214
191 206 217
191 205 214
190 205 209
191 205 211
192 206 217
190 205 213
190 205 213
191 206 216
189 204 208
190 205 212
191 205 213
190 205 211
189 204 209
191 205 214
189 204 208
191 205 213
192 207 220
189 204 208
189 205 212
191 205 214
189 204 208
191 206 216
189 204 212
190 205 213
191 205 214
190 205 213
189 204 211
188 203 207
191 206 217
189 204 209
189 204 212
188 203 206
190 205 213
188 204 209
188 203 206
190 205 216
190 205 212
187 201 202
184 199 197
186 200 204
183 197 200
171 184 185
162 175 178
167 180 188
148 164 166
149 164 176
134 150 168
144 159 166
120 136 151
115 131 148
104 122 146
67 92 127
60 86 113
52 82 121
51 81 126
50 79 119
50 79 118
50 79 119
51 80 122
49 78 110
49 78 117
47 75 115
46 74 115
45 73 106
46 73 116
45 71 108
41 66 106
43 70 115
41 66 99
41 66 105
35 57 97
37 60 97
32 53 90
33 54 92
31 50 87
29 47 83
33 49 88
92 103 123
133 148 159
100 117 130
52 83 128
49 79 111
56 88 135
56 88 135
54 86 125
56 89 126
58 91 136
55 88 127
57 91 130
59 93 139
57 91 123
59 93 137
60 94 140
58 92 136
59 94 140
59 92 133
60 94 140
58 91 125
60 94 136
59 94 138
57 90 126
59 93 131
60 94 134
59 94 136
59 94 135
59 93 128
58 92 131
62 97 154
58 92 125
60 95 137
59 93 139
59 94 139
59 93 135
60 95 136
59 93 136
58 92 131
60 94 143
60 94 139
59 93 130
59 94 136
61 96 140
60 95 139
60 95 142
60 95 141
60 95 136
60 94 139
59 93 134
60 95 130
60 95 140
59 93 137
60 95 140
59 94 130
60 94 134
60 95 137
58 92 131
60 94 142
59 93 137
61 96 143
61 96 140
61 96 149
61 95 140
58 92 133
60 94 131
60 94 135
60 95 139
60 94 142
58 92 133
61 95 144
60 95 139
59 94 130
60 94 135
59 93 137
58 91 125
59 94 128
60 95 143
60 94 136
61 95 138
60 94 139
59 92 135
60 93 132
59 92 140
60 94 134
59 92 134
58 92 131
58 91 128
58 91 128
59 92 131
58 91 132
59 92 132
56 87 119
58 92 137
60 93 139
55 86 112
60 94 137
56 86 121
57 88 131
55 86 121
55 85 125
54 82 114
51 79 107
52 80 110
50 75 96
72 80 71
88 86 48
68 68 38
58 58 38
41 45 28
51 55 37
46 51 37
49 54 36
51 56 38
50 58 41
37 47 35
49 58 41
47 57 38
55 64 49
68 76 55
65 72 51
86 89 56
70 77 54
90 94 62
98 101 63
101 104 65
102 105 64
100 103 64
106 109 70
115 116 68
110 110 67
105 107 65
123 122 69
117 118 70
118 119 70
134 132 78
137 135 83
133 131 78
132 131 70
135 134 74
133 132 78
141 139 81
138 136 77
153 148 83
153 148 86
152 148 84
146 143 79
156 151 86
162 157 90
148 144 80
161 156 90
158 153 85
157 153 83
158 153 86
162 157 86
165 160 85
165 159 89
160 155 84
166 159 91
167 161 84
173 165 92
169 162 90
169 162 84
172 165 89
174 167 91
171 164 86
176 168 90
176 168 94
175 167 92
175 167 88
176 168 90
174 166 84
178 169 95
174 166 89
177 168 90
179 170 95
175 167 89
175 168 88
179 170 94
174 165 89
175 167 89
179 171 96
175 168 88
171 165 82
176 168 90
175 167 84
178 170 97
176 168 90
175 167 92
178 169 89
175 167 87
177 168 91
177 169 93
175 167 89
174 167 85
175 167 90
176 168 90
176 168 87
177 169 91
172 166 83
180 171 95
176 168 89
177 169 91
180 171 95
177 168 95
178 170 94
176 168 84
175 168 90
178 169 90
178 169 90
176 169 90
177 168 86
177 169 94
176 168 87
178 169 90
178 169 89
181 172 95
180 171 93
179 170 93
178 169 90
179 171 94
178 170 90
176 168 86
179 170 91
180 171 97
175 168 86
178 169 94
181 171 94
180 171 94
178 169 90
178 169 91
175 168 86
182 172 95
179 170 92
178 169 90
178 169 90
178 170 90
178 169 87
178 169 89
179 170 90
179 170 92
180 170 95
179 170 91
179 171 94
181 172 98
179 170 91
181 171 94
180 170 92
179 170 90
180 171 91
179 170 92
177 169 90
182 172 96
179 170 92
194 208 219
193 207 216
194 208 219
195 208 221
193 207 217
192 206 214
192 206 212
193 206 217
195 209 223
194 208 219
196 209 224
193 207 218
194 207 218
194 208 219
193 207 217
193 207 216
192 206 213
192 206 213
195 208 221
194 208 220
193 207 219
193 207 214
193 207 219
193 207 216
193 207 219
191 205 211
193 207 218
192 206 214
190 205 209
193 207 218
193 207 217
192 206 217
192 206 216
193 207 217
192 206 213
193 207 218
193 207 217
191 205 211
193 207 217
192 206 213
193 207 218
193 207 219
192 206 216
190 205 211
191 206 213
188 203 200
190 204 208
190 205 209
191 205 212
191 205 213
191 205 209
190 205 209
192 206 216
190 204 207
191 206 213
190 204 208
189 204 207
191 205 212
189 203 206
191 206 214
186 201 196
190 205 209
190 205 211
191 205 212
192 206 214
190 205 212
192 206 216
189 204 207
190 205 209
188 203 206
189 203 204
189 203 204
190 204 208
186 202 199
191 205 211
190 205 209
186 201 196
188 203 203
187 203 202
190 205 212
190 204 208
187 202 199
190 205 212
188 203 204
191 206 214
188 203 204
189 204 207
190 204 209
190 205 209
188 203 206
192 206 217
188 203 203
188 203 206
190 205 212
191 205 213
188 203 203
189 204 206
186 201 195
189 204 207
187 202 202
187 202 199
188 203 207
190 205 209
185 201 196
187 202 200
188 203 202
185 200 200
183 198 191
174 187 168
179 192 187
170 182 179
170 185 181
159 174 173
154 168 173
140 155 156
139 155 158
123 139 155
118 136 150
111 130 147
107 125 154
76 97 126
51 80 116
51 81 116
50 80 118
49 78 111
49 78 114
49 79 115
51 81 121
48 77 106
49 77 107
47 75 113
45 72 108
44 71 102
45 72 109
44 69 106
45 72 112
38 62 97
41 66 105
40 64 101
36 59 99
37 60 94
32 53 91
30 49 75
25 41 70
28 46 79
37 51 78
95 107 130
131 145 154
107 124 140
50 80 120
52 84 124
54 86 123
57 90 136
57 90 130
58 91 140
56 89 129
59 93 142
57 89 132
57 90 128
59 93 141
57 91 129
56 89 124
58 92 131
59 93 141
59 93 140
59 93 134
59 93 133
60 94 138
59 92 137
59 93 136
59 94 141
60 94 140
59 93 133
60 94 136
59 94 137
60 94 136
60 95 142
58 92 124
60 95 138
59 92 132
59 93 132
61 96 149
60 95 141
60 95 139
61 96 145
59 93 140
61 96 148
60 94 140
60 95 137
60 95 133
59 93 135
60 95 135
60 95 137
58 92 124
61 95 139
60 95 137
61 95 140
60 95 132
60 94 141
58 93 124
60 95 142
60 94 135
59 94 133
60 95 135
59 93 125
60 94 130
59 93 121
59 93 128
58 92 129
61 97 144
59 94 140
58 92 139
60 94 145
60 95 144
59 93 130
60 94 139
58 91 122
59 93 134
61 96 149
59 93 126
60 95 142
59 93 139
59 94 133
59 93 134
58 91 134
59 93 139
58 91 126
59 93 136
57 90 132
55 88 116
58 92 133
60 95 148
57 89 127
59 93 133
58 90 128
57 90 130
59 91 130
56 88 127
57 88 128
56 88 128
57 90 130
59 92 134
56 86 120
58 89 130
57 89 126
56 85 112
55 83 112
53 81 102
54 82 114
51 79 110
50 75 98
64 74 67
65 65 34
48 48 23
63 64 39
48 51 33
39 45 31
46 51 30
38 47 37
38 44 26
41 50 35
44 54 39
46 56 44
55 64 45
56 66 51
55 66 47
59 68 46
75 80 52
78 84 50
82 87 59
78 84 56
102 103 60
98 102 62
106 108 65
93 97 55
102 104 61
119 119 70
117 118 72
112 113 67
119 119 73
123 122 72
128 127 73
127 126 77
129 129 76
136 133 81
136 134 81
134 132 73
145 141 76
141 139 81
132 130 74
151 148 83
162 156 91
152 148 80
153 148 84
148 144 79
154 149 81
156 152 82
157 153 80
157 152 76
162 156 82
162 157 82
166 160 86
162 156 82
169 162 87
168 161 90
167 161 82
173 166 93
171 164 84
172 165 87
171 164 86
168 162 84
175 168 94
173 166 90
173 166 87
174 166 89
172 165 84
179 171 97
176 168 89
171 164 81
176 168 92
171 164 81
174 167 86
175 167 87
176 168 93
174 167 86
174 166 87
175 167 89
173 166 87
172 165 86
178 169 93
177 168 90
176 168 89
173 165 84
176 168 91
173 166 89
175 168 85
176 167 87
176 168 90
174 166 81
177 169 90
176 168 90
174 166 87
179 170 93
175 167 87
180 170 90
178 169 90
177 169 91
177 168 91
175 168 85
176 168 86
178 169 90
177 168 90
173 165 83
180 170 93
178 170 95
178 170 90
177 169 93
175 166 86
177 168 90
179 170 95
176 168 88
177 169 92
176 167 86
179 170 95
181 172 97
176 168 88
179 170 93
175 167 84
178 170 93
178 170 90
176 168 88
177 169 90
175 167 85
179 170 94
177 169 87
178 169 90
179 170 91
179 170 90
179 170 91
178 169 88
179 170 90
178 169 90
180 171 94
179 170 93
179 170 90
177 169 88
182 172 94
180 171 92
177 169 87
178 169 87
183 173 98
181 171 95
178 169 88
179 169 91
178 169 90
176 168 86
180 170 94
179 170 92
182 171 95
177 169 88
191 205 209
194 207 218
190 204 206
192 206 212
193 207 218
191 205 211
192 206 213
192 206 213
190 204 206
192 206 213
190 204 207
190 205 206
191 205 208
192 205 209
192 206 212
192 206 211
190 204 206
191 205 211
192 206 211
193 207 214
191 205 208
189 204 204
189 204 204
188 203 199
189 204 204
191 205 209
189 204 204
192 206 212
191 205 209
190 205 207
190 204 207
190 204 207
186 201 192
191 206 212
192 206 213
190 204 207
191 205 211
190 204 206
190 204 207
189 203 203
189 204 207
190 205 208
189 204 204
188 203 200
190 205 207
189 204 203
188 203 200
189 204 204
192 206 213
187 202 199
189 204 204
187 202 196
189 204 206
190 204 206
188 202 199
188 203 200
188 203 202
187 202 196
189 204 204
188 203 204
188 203 203
188 202 199
189 204 206
188 203 203
185 201 192
189 203 202
190 205 207
188 202 207
187 202 199
187 202 195
184 200 191
187 202 199
186 201 192
185 200 190
186 202 196
184 200 188
188 203 203
186 201 192
188 203 203
189 203 206
186 202 198
185 200 192
183 199 184
185 200 194
183 199 187
187 202 198
185 200 190
189 204 209
187 203 203
189 204 206
184 200 187
187 202 198
185 200 190
185 200 195
188 203 200
184 200 190
183 199 187
186 202 199
185 201 194
183 199 184
189 204 207
187 202 202
185 200 192
185 201 194
186 201 196
185 200 194
184 199 191
183 197 188
175 188 166
178 192 171
167 182 165
169 182 176
164 176 166
153 166 158
146 162 153
144 160 163
123 140 154
115 133 137
111 128 143
85 107 126
68 92 120
52 81 112
51 80 117
52 82 123
50 80 116
47 75 109
49 78 112
49 78 118
49 78 117
47 75 108
45 72 111
44 70 105
44 70 103
46 73 112
45 71 111
42 68 103
43 69 103
41 65 106
37 60 91
36 59 86
34 56 82
31 51 83
29 47 72
29 48 78
27 45 76
28 47 79
92 104 120
116 129 129
110 127 139
52 83 120
53 84 122
54 85 128
55 88 120
57 90 129
57 90 130
58 91 133
58 91 130
59 93 141
58 92 132
59 93 131
59 93 140
58 92 132
58 92 134
58 92 124
59 94 141
59 94 136
58 92 123
57 91 121
60 94 130
60 95 135
60 95 141
59 94 136
60 94 134
58 93 133
60 94 134
58 93 132
59 92 130
60 94 134
60 94 134
60 95 137
60 95 139
59 94 137
58 91 128
59 94 136
59 93 124
60 95 139
58 92 124
59 94 131
59 94 131
60 95 142
58 92 125
60 94 137
59 93 134
59 93 126
61 95 142
59 92 136
59 94 130
61 96 142
60 95 142
59 93 141
60 94 136
59 92 129
59 94 129
59 94 135
59 94 141
60 95 137
58 92 129
61 96 142
59 94 135
59 93 130
59 93 131
60 94 131
60 94 140
59 94 133
59 94 131
60 94 130
59 93 134
59 93 137
57 91 129
60 94 138
60 94 146
60 93 132
59 93 132
59 93 125
59 94 132
59 93 128
58 92 142
59 93 128
59 93 130
56 89 124
57 91 120
59 92 133
60 94 139
59 92 133
57 90 134
57 89 125
56 88 125
58 91 138
58 91 131
56 88 126
56 88 119
57 88 122
55 86 109
57 87 124
54 84 109
54 84 108
56 86 128
52 80 104
53 80 106
52 78 103
52 79 100
57 71 82
75 73 39
58 58 31
47 51 32
40 43 23
48 52 27
29 36 23
34 42 31
45 52 38
39 49 30
37 47 32
48 57 37
52 62 47
55 63 46
66 73 48
72 80 52
78 81 50
89 93 59
72 80 51
87 91 53
100 102 60
86 92 59
94 98 65
100 102 58
101 104 65
117 118 74
108 110 69
112 112 69
128 127 68
131 130 71
122 122 71
132 130 74
132 131 72
135 132 76
137 134 80
143 140 80
143 140 75
143 140 77
147 143 79
149 146 81
146 142 79
147 144 79
150 146 80
155 151 80
154 150 77
159 153 85
149 145 80
159 153 84
163 157 84
162 157 88
157 152 72
156 150 77
162 157 80
165 158 84
168 161 83
171 164 88
167 161 85
171 164 88
174 166 89
175 167 89
172 165 83
171 165 84
172 165 85
174 167 89
173 165 84
178 169 90
173 166 87
178 170 92
176 168 89
177 168 90
174 167 88
176 168 88
173 166 86
176 168 87
176 168 87
176 168 88
173 165 82
174 166 87
178 169 91
176 168 90
175 168 90
174 166 85
176 168 86
176 168 89
178 169 90
172 164 81
173 166 87
175 168 87
175 167 88
172 165 85
176 167 84
173 165 80
176 168 89
175 167 83
178 169 90
174 166 84
175 167 85
175 167 87
174 166 86
177 169 87
178 170 91
174 167 81
175 167 87
175 166 82
177 168 89
180 171 93
177 168 89
175 167 87
180 171 95
175 167 88
176 167 85
178 169 89
173 165 83
176 168 88
177 169 90
177 169 90
178 170 91
176 167 86
178 168 90
178 169 87
176 168 87
180 170 95
176 168 88
177 168 87
175 167 84
176 168 85
178 169 90
176 168 85
177 168 89
177 168 87
181 171 94
180 170 92
181 171 93
183 172 99
173 166 81
178 169 88
176 167 83
180 171 92
180 171 92
179 170 91
180 171 93
181 171 93
181 171 94
178 169 88
178 169 89
178 169 88
179 170 90
183 173 97
178 169 89
191 205 206
193 206 213
189 204 203
189 203 200
189 203 199
190 204 204
191 205 207
190 204 206
192 205 209
189 203 202
190 204 206
191 205 208
189 203 200
189 204 202
189 203 202
189 204 202
189 203 202
190 204 204
186 201 191
188 203 202
188 202 195
187 202 196
188 202 198
191 205 211
188 203 199
188 203 200
190 205 207
191 205 208
187 201 194
188 202 198
189 204 203
190 204 204
187 202 198
188 203 202
188 203 199
188 202 198
188 203 198
186 201 194
188 203 200
186 201 194
187 202 196
189 204 203
187 202 198
186 201 194
187 202 199
187 202 198
187 202 199
186 201 192
185 200 188
186 201 190
188 202 198
186 201 191
187 201 194
185 200 190
183 199 186
188 202 198
188 203 199
186 201 190
183 199 183
183 199 186
186 201 194
184 199 188
182 198 180
186 201 194
186 201 192
183 198 183
184 199 184
186 202 196
186 201 192
185 200 190
186 201 194
187 202 198
182 198 180
187 202 195
185 200 194
183 199 183
182 198 181
188 203 202
186 201 191
185 200 188
185 200 190
183 199 186
181 197 174
184 200 187
183 199 181
183 198 184
184 200 187
187 202 198
183 199 184
187 202 196
184 199 192
183 199 188
183 198 181
181 196 180
179 195 169
181 197 178
183 198 183
181 197 178
183 198 184
183 199 186
184 199 188
183 198 184
179 195 169
183 199 186
179 196 174
182 198 180
177 193 168
172 187 167
176 191 170
177 191 176
169 183 160
162 177 166
153 167 160
148 163 157
133 149 137
136 152 155
124 140 157
120 137 144
98 118 133
90 111 132
72 94 120
57 85 122
51 81 121
48 76 103
49 78 107
49 78 107
49 78 113
48 77 115
48 77 110
46 73 95
47 74 109
44 70 97
43 69 103
45 72 97
43 69 97
40 65 98
40 64 89
38 61 85
39 63 95
39 63 89
36 59 94
33 55 87
26 43 63
28 46 64
28 47 77
31 45 67
84 97 102
134 147 139
104 120 136
50 80 118
54 85 123
53 84 104
54 86 115
56 89 128
58 91 133
58 91 129
56 88 125
58 91 135
56 89 137
60 94 140
58 92 133
59 92 139
58 92 132
57 91 126
58 92 129
59 93 142
58 91 133
60 94 139
58 92 130
59 93 135
57 90 122
61 96 139
60 94 136
59 93 130
58 91 132
58 92 130
59 93 127
60 95 144
59 93 128
61 95 143
59 93 136
57 91 129
60 94 137
59 93 129
60 95 141
57 91 121
57 91 126
60 94 144
58 92 129
59 93 133
58 92 128
61 95 147
59 93 127
60 94 141
59 93 135
60 94 126
59 93 135
60 94 140
60 94 131
59 93 138
60 94 134
61 96 141
61 96 143
61 95 135
60 95 133
60 95 145
58 92 126
62 96 143
60 94 135
59 93 123
60 94 136
59 94 133
60 95 140
61 95 143
59 93 130
61 96 153
58 92 123
60 94 133
59 94 134
60 94 137
61 95 138
61 95 140
59 92 129
60 95 141
58 91 129
58 92 136
57 91 125
58 91 124
59 92 133
59 91 131
58 90 130
58 91 128
59 93 126
58 90 126
59 92 134
58 91 124
58 90 133
59 92 129
58 90 123
57 89 124
57 88 124
58 90 132
58 89 129
56 86 117
56 87 124
55 84 115
56 86 120
54 83 118
53 81 101
52 78 94
50 76 97
63 74 66
81 79 45
47 48 26
38 40 27
38 42 28
43 48 31
37 42 28
45 52 33
39 47 28
40 48 33
41 49 34
32 41 28
40 51 36
47 59 44
59 65 46
61 69 41
78 81 50
86 89 54
80 83 51
87 91 54
92 95 53
99 101 63
101 103 64
104 105 64
107 108 67
103 106 62
122 120 71
119 119 71
127 124 71
127 126 70
126 125 74
136 134 75
121 121 71
136 134 76
131 130 69
147 144 82
143 139 78
141 138 74
149 145 80
145 141 80
147 143 74
160 155 89
150 146 76
158 153 81
152 147 76
150 145 73
153 149 75
159 153 84
162 156 83
160 154 81
163 157 79
168 161 84
168 161 88
168 162 82
170 162 87
164 157 84
169 162 86
172 165 89
168 161 82
173 166 87
175 167 89
173 166 87
174 165 87
172 165 83
175 167 89
173 166 84
174 166 86
173 166 83
173 166 87
170 164 80
175 166 85
175 168 88
174 166 84
172 164 86
167 161 79
172 165 83
174 166 85
174 166 85
173 166 81
177 168 93
176 168 88
175 167 87
173 166 84
175 166 89
175 167 87
173 165 83
174 166 84
175 167 87
176 168 87
178 169 93
173 166 82
178 169 90
171 164 80
173 166 83
178 170 92
175 167 86
175 167 85
173 165 83
177 169 89
172 165 80
175 167 84
174 166 84
175 168 85
177 169 90
177 169 90
180 171 94
179 170 93
178 169 90
176 167 85
180 171 93
177 169 87
176 168 85
176 168 88
178 169 91
175 167 84
177 168 88
175 166 84
179 170 92
178 169 90
179 170 90
176 167 84
178 169 89
177 169 90
172 165 79
177 168 88
174 166 84
181 171 94
171 163 75
175 167 82
174 166 81
177 168 90
179 170 90
175 167 85
179 169 93
179 169 87
182 172 93
176 168 84
178 169 90
178 169 88
179 169 89
174 166 82
177 169 89
179 170 90
177 168 85
175 167 83
176 168 87
173 165 80
174 167 83
181 171 93
187 202 196
189 203 199
190 204 203
189 203 199
190 204 203
189 203 200
189 203 200
185 200 188
189 203 202
191 205 208
185 200 186
188 202 196
188 202 196
187 202 195
188 202 199
184 199 183
185 200 187
188 202 196
187 202 196
189 203 202
185 200 186
189 204 203
189 203 199
185 200 188
182 198 178
187 202 195
184 199 183
184 199 183
187 201 192
185 200 188
186 201 188
188 203 199
187 202 195
185 200 188
185 200 187
183 199 180
185 201 190
188 202 198
183 199 183
185 200 190
184 199 184
186 201 192
185 200 186
185 200 184
185 200 190
184 200 187
183 199 183
183 198 180
187 202 192
186 201 188
182 198 178
183 198 181
186 201 190
182 197 174
183 198 181
185 200 188
183 198 184
184 199 181
184 199 186
184 199 184
182 198 181
187 202 194
184 199 180
184 199 184
182 198 178
184 200 186
184 199 183
179 196 168
184 199 187
181 197 174
183 198 181
184 199 184
180 196 171
182 198 180
181 197 175
181 197 174
178 195 165
183 199 183
179 196 169
183 199 183
181 197 175
183 199 183
182 198 178
180 196 171
178 195 163
186 201 192
181 197 175
182 197 177
180 196 172
180 196 171
179 195 171
178 195 166
181 197 174
180 196 172
183 199 183
178 194 168
179 196 171
180 196 171
179 195 175
179 195 169
177 193 163
178 194 166
178 194 166
176 192 160
182 198 186
182 197 180
177 193 166
176 191 165
172 187 156
172 186 156
162 176 145
163 177 155
153 167 147
146 159 139
137 152 135
129 145 144
113 128 130
126 142 139
108 125 126
91 113 124
66 91 110
54 82 103
50 79 107
51 81 118
51 82 117
47 75 96
48 77 101
49 78 114
46 73 99
48 77 106
47 75 95
44 70 106
45 71 99
43 68 100
42 66 91
45 72 111
42 68 105
40 65 98
41 66 94
37 60 91
34 55 78
32 52 82
31 51 78
29 47 77
25 43 67
33 48 70
64 75 66
123 136 133
107 124 125
51 81 122
53 85 126
54 87 122
56 88 128
54 85 125
57 91 132
55 87 122
58 91 129
58 92 133
58 92 131
58 92 133
57 90 126
56 89 118
58 91 133
58 92 133
59 93 135
58 92 128
60 94 145
58 92 127
59 93 129
60 94 135
59 93 143
59 93 134
60 94 142
59 93 134
60 95 136
58 92 126
59 93 140
59 93 132
59 93 129
59 93 131
59 94 131
60 95 141
59 94 136
58 92 133
60 95 136
60 94 135
60 94 131
61 95 138
60 94 139
59 93 124
59 93 136
57 91 121
59 93 129
58 92 122
60 94 132
61 96 137
59 94 139
60 94 133
61 95 140
60 94 135
60 94 137
60 95 136
58 92 122
58 92 131
60 95 140
59 92 126
58 92 126
59 93 125
61 95 141
60 94 137
59 93 126
60 94 135
60 94 130
60 94 136
60 95 143
60 95 134
59 93 131
59 94 130
58 92 125
59 93 136
60 94 130
58 91 133
59 93 132
60 95 140
59 93 133
57 90 130
59 92 132
57 89 116
59 93 128
59 92 134
58 90 120
59 92 130
58 91 125
58 91 128
56 88 117
57 89 126
59 92 134
59 93 130
57 89 121
57 90 121
55 87 121
57 89 124
55 85 115
54 85 116
55 86 120
57 88 127
56 87 127
52 81 105
52 78 99
51 77 108
49 74 98
72 80 68
71 70 39
44 46 21
48 49 31
41 44 22
39 44 26
36 41 24
38 45 28
43 50 26
45 51 29
48 56 35
49 57 38
41 51 31
46 56 34
52 58 35
64 72 44
69 74 47
83 88 55
78 83 51
90 92 54
95 98 50
101 101 61
105 106 62
106 105 63
101 103 61
99 101 51
109 110 58
113 114 62
112 114 64
116 117 67
131 129 71
115 115 65
124 123 66
137 133 61
127 126 69
141 138 77
138 136 69
149 144 75
149 144 80
143 140 75
148 144 72
144 140 76
148 144 75
151 146 69
156 151 76
155 150 76
150 146 70
155 151 73
158 152 79
157 152 78
161 155 79
160 154 81
168 161 84
169 161 87
167 161 85
167 160 82
166 160 78
169 162 82
171 164 85
171 164 87
170 163 82
172 164 83
170 164 83
171 163 87
170 163 78
169 162 82
176 167 90
172 165 84
175 168 88
175 167 84
173 166 87
174 167 85
176 168 87
175 166 83
174 166 88
174 166 84
173 164 80
171 163 80
171 165 80
170 163 79
173 165 83
173 165 80
173 165 83
175 167 86
175 167 84
173 165 79
173 165 84
173 166 82
175 167 87
168 162 77
177 168 87
177 168 87
177 168 84
176 167 87
174 166 84
172 164 82
176 168 86
171 164 76
175 167 83
173 166 83
173 166 82
171 163 80
177 168 90
177 169 92
174 166 83
174 166 84
175 168 90
175 167 87
177 168 87
179 170 92
177 168 89
175 167 85
175 166 86
178 169 87
175 166 83
173 166 80
178 169 89
176 167 85
179 170 92
176 168 86
178 169 87
172 165 80
178 169 87
176 168 87
172 165 82
174 166 82
176 168 86
178 169 90
176 168 84
178 169 87
178 169 88
180 170 92
177 168 84
177 168 87
178 169 87
178 169 88
181 171 92
174 166 81
175 167 80
173 166 79
177 168 87
178 169 89
178 169 89
178 169 88
179 170 93
177 168 85
176 167 85
176 168 83
178 169 90
185 200 188
187 202 194
187 202 194
181 197 177
185 200 187
184 199 181
184 199 180
187 201 191
185 200 186
183 198 180
185 200 186
185 200 187
184 199 181
186 201 190
187 201 191
183 198 177
184 199 180
185 200 184
185 200 187
188 203 196
183 199 183
183 198 178
188 203 198
186 201 191
184 199 181
188 202 196
180 196 169
185 200 187
183 198 178
183 198 180
183 199 181
182 198 177
185 200 184
178 194 163
185 200 187
183 198 180
180 196 171
181 197 177
181 197 174
183 198 177
185 200 186
178 194 160
183 199 181
181 197 172
185 200 188
183 199 180
186 200 188
181 197 175
180 196 171
182 198 177
183 198 177
182 198 177
181 197 175
180 196 169
182 197 174
182 197 178
183 199 181
181 196 175
185 200 186
179 195 163
173 190 150
181 197 174
184 199 184
176 193 158
184 200 187
175 192 150
179 195 168
184 199 184
182 198 178
181 197 172
182 198 180
181 197 171
175 192 158
178 194 165
181 197 174
179 195 163
177 194 160
174 191 150
182 198 178
180 196 169
177 193 160
178 195 163
175 192 151
180 196 171
179 195 172
180 196 172
175 191 153
176 192 156
180 196 171
180 196 171
176 192 165
179 196 169
177 194 163
180 196 171
175 192 155
181 197 184
179 195 171
179 195 171
176 193 161
175 191 158
172 189 150
175 192 156
176 192 158
176 192 163
177 192 155
176 193 160
177 193 165
177 192 165
170 184 146
167 181 143
166 179 145
157 171 130
145 158 123
151 166 144
141 155 148
128 145 140
116 132 125
119 136 127
105 123 118
82 103 102
57 85 105
55 82 102
50 80 106
51 80 119
50 79 112
48 77 97
50 79 110
47 76 99
47 75 100
47 75 100
43 70 98
45 71 102
44 70 105
44 70 91
43 69 98
38 61 81
40 65 97
36 59 73
35 57 78
37 60 78
36 59 85
33 54 75
27 44 68
30 49 67
20 35 53
43 56 71
98 110 102
128 141 134
115 131 139
48 76 104
53 84 118
55 87 129
56 89 133
55 87 116
56 88 130
57 90 130
58 92 131
56 89 133
59 93 125
57 91 128
57 90 118
58 92 133
57 90 132
57 91 127
58 92 130
58 91 121
60 94 136
59 92 131
60 94 133
60 95 141
60 94 140
59 93 134
57 90 120
59 93 127
58 92 129
59 93 128
59 93 136
59 94 136
59 93 139
59 94 136
60 94 142
60 95 137
59 93 133
60 94 137
60 94 131
59 93 126
59 93 128
60 95 138
58 92 126
59 93 131
59 93 130
58 92 121
58 92 126
59 93 140
60 94 140
59 94 131
58 93 126
59 93 120
59 93 137
60 94 137
59 93 134
59 92 125
59 93 134
59 94 137
59 93 125
60 95 128
58 91 121
59 93 136
58 92 124
58 91 118
60 94 136
60 94 142
59 93 131
58 91 120
59 94 134
60 94 137
61 95 136
59 93 122
58 92 129
60 94 136
60 95 144
58 92 128
59 93 129
57 90 123
59 93 129
58 90 113
59 92 128
60 94 137
57 89 121
58 91 130
58 91 127
58 91 129
58 91 126
59 93 130
56 88 122
58 91 123
58 90 125
58 90 132
56 86 116
56 87 113
55 85 97
58 89 128
56 86 114
57 88 124
55 86 111
56 87 114
53 82 111
53 81 104
52 80 106
52 79 101
49 73 87
75 78 53
55 55 25
58 59 26
48 49 23
39 43 19
47 50 26
32 37 19
38 47 28
33 41 27
39 47 27
46 53 33
48 57 38
46 52 26
46 57 42
55 63 38
63 71 48
74 79 41
70 76 48
82 87 50
76 81 48
94 97 54
86 89 52
98 101 58
104 106 58
99 101 57
110 111 59
107 108 65
112 112 60
128 125 72
129 127 68
115 115 66
127 126 63
131 129 73
129 127 68
127 126 66
130 128 67
129 128 73
133 130 73
143 140 75
144 140 77
148 144 71
148 144 76
149 144 73
149 144 70
160 154 81
154 148 72
153 149 71
162 156 81
154 150 75
159 154 77
164 157 81
158 153 77
162 157 76
162 156 78
161 154 76
163 156 85
169 162 81
168 161 83
169 162 80
170 163 86
168 161 76
170 163 83
170 163 79
171 163 80
169 163 80
173 165 87
173 165 91
172 164 84
166 159 78
175 166 89
174 166 87
169 162 80
173 165 83
170 163 78
171 164 76
172 164 75
175 167 87
177 168 86
172 164 84
175 167 84
172 165 80
174 166 81
175 167 81
174 166 82
175 167 86
173 165 80
171 164 76
176 167 87
170 164 74
175 167 84
171 164 75
175 167 86
175 167 87
175 167 83
172 164 81
169 162 75
174 166 84
170 164 75
176 168 88
176 168 90
177 169 87
171 165 77
172 164 79
177 168 87
171 164 78
176 167 86
173 165 79
176 167 85
173 166 83
174 166 82
177 168 86
173 165 80
175 166 79
176 167 83
172 164 79
174 166 84
179 170 92
176 168 86
175 167 83
172 165 81
175 167 82
175 166 84
176 167 87
178 169 87
180 170 90
176 167 82
175 167 80
175 167 80
175 167 83
173 165 81
178 169 90
175 167 85
179 170 89
174 167 85
177 168 87
178 168 85
179 170 87
177 168 84
174 166 79
176 168 87
177 169 87
177 168 84
181 172 93
177 168 86
174 165 82
178 168 90
179 170 89
178 169 88
179 169 89
181 197 172
183 199 180
182 197 172
186 201 190
187 201 191
182 198 177
184 199 183
182 198 175
184 199 180
182 197 177
185 200 186
182 198 178
184 199 180
185 200 188
182 198 180
180 196 169
184 199 181
184 199 180
183 199 181
184 199 181
182 198 174
179 195 165
181 197 172
180 196 171
184 199 183
177 193 153
176 193 153
183 198 181
185 200 184
179 195 165
185 200 186
182 198 178
180 196 169
182 197 175
182 198 180
180 196 168
178 195 161
181 196 169
179 195 168
181 197 174
178 195 163
176 193 165
179 195 166
180 196 166
177 194 158
180 195 168
179 196 166
185 200 184
179 195 165
177 194 163
182 197 172
180 196 168
177 193 158
183 198 178
179 195 165
171 189 135
179 195 166
175 192 151
180 196 172
178 195 161
173 190 139
177 193 163
176 193 153
177 193 155
175 192 146
179 195 163
180 196 168
181 196 166
177 193 160
175 192 150
176 193 153
177 194 163
176 193 156
176 193 155
176 193 155
177 194 158
174 191 142
180 195 163
176 192 150
177 194 156
178 194 165
179 194 165
173 190 144
173 190 150
174 191 153
172 189 144
174 191 146
175 191 156
177 194 163
175 192 155
171 188 137
178 193 168
172 189 141
178 194 163
176 192 161
173 189 151
175 191 153
174 191 155
175 191 156
175 191 155
172 189 144
177 193 166
176 192 161
172 189 144
174 191 151
167 185 125
172 189 144
170 186 141
166 179 133
168 183 138
162 175 137
151 164 135
149 164 138
148 163 132
128 145 115
128 144 122
109 126 107
114 130 128
96 115 112
88 108 103
69 93 104
67 92 112
51 80 112
51 80 120
49 78 104
49 78 108
50 78 116
47 74 107
46 74 103
45 72 98
45 72 107
44 70 97
45 72 100
44 71 102
43 68 99
42 67 100
40 64 90
40 65 92
35 57 84
36 59 82
33 55 82
28 46 66
32 52 73
26 43 45
28 45 58
44 54 59
85 97 77
138 154 123
115 132 132
51 80 113
52 82 114
52 82 121
55 87 125
55 87 119
56 89 130
56 89 134
55 88 122
58 91 129
56 88 121
58 92 128
58 91 121
59 92 122
58 91 126
58 92 128
57 91 127
58 92 135
58 92 129
57 91 124
59 93 137
60 94 137
58 92 123
60 94 134
60 95 135
59 93 131
58 92 133
60 94 140
59 93 131
60 95 141
60 94 137
59 93 132
60 94 137
60 95 134
60 94 133
58 92 125
59 93 129
59 94 137
59 93 129
60 94 137
58 92 125
59 93 126
61 95 140
59 93 125
60 94 138
58 92 129
59 93 131
60 94 130
59 93 126
59 93 130
59 94 136
60 94 131
61 95 146
60 95 139
58 92 122
59 93 131
59 93 131
59 93 131
59 93 130
61 95 137
59 92 128
58 92 130
60 94 138
59 93 133
61 96 141
59 94 128
57 91 117
60 94 140
58 91 123
59 93 124
59 93 128
58 92 133
59 94 134
59 93 138
58 91 125
58 92 124
58 91 131
59 93 132
58 92 126
59 92 131
57 90 116
59 93 135
58 91 117
58 91 127
58 91 132
57 89 127
58 91 129
57 90 121
57 90 127
59 91 132
56 88 122
57 89 122
55 85 109
56 88 124
57 88 121
56 86 117
54 83 110
56 87 127
55 84 116
51 79 96
53 82 113
55 83 106
50 77 101
72 78 60
92 90 50
57 57 23
64 62 30
44 48 19
45 49 23
37 40 18
39 45 21
37 47 29
34 45 33
44 53 30
39 47 29
46 54 32
56 64 39
61 67 37
59 66 38
65 73 45
65 69 39
79 81 43
81 86 48
95 97 54
89 92 46
86 88 52
101 103 54
114 114 57
116 115 67
115 115 61
118 118 69
113 113 61
113 113 59
124 123 61
123 121 54
129 127 72
131 128 70
137 135 71
138 134 70
139 136 71
144 139 75
132 130 67
139 137 65
142 138 72
137 134 71
152 148 79
148 144 71
151 147 71
142 139 71
150 145 72
158 153 73
162 157 77
157 152 76
156 151 65
161 155 76
168 161 82
161 155 74
166 159 81
166 159 79
162 157 74
166 159 79
164 158 75
167 161 80
169 162 77
170 162 81
171 163 83
171 163 80
172 164 85
171 164 77
168 161 77
172 165 82
169 162 78
171 164 79
168 161 70
174 166 85
169 162 76
176 168 86
172 164 78
173 165 84
173 165 84
173 165 84
172 164 79
175 167 83
174 166 87
177 168 89
173 165 79
172 164 79
172 164 81
174 166 84
174 166 87
170 163 79
170 163 71
174 166 83
173 165 80
173 165 84
172 165 78
174 166 84
172 165 81
174 167 81
175 166 84
172 164 79
173 165 80
175 167 85
175 167 86
178 169 88
173 166 80
173 165 81
173 165 80
173 165 82
170 163 72
177 167 85
177 168 85
178 169 87
174 165 82
173 165 84
176 167 84
177 168 85
177 169 87
175 166 83
179 169 89
176 167 87
176 168 85
174 166 80
178 169 87
176 167 86
173 165 77
176 167 83
177 168 84
177 168 85
172 165 80
179 170 88
177 168 87
175 166 81
176 167 85
176 167 86
175 167 80
174 165 79
176 167 84
175 167 84
176 167 85
177 167 86
179 170 90
181 171 93
176 167 80
176 167 84
174 166 79
175 166 82
178 169 85
174 166 80
178 168 86
174 166 77
181 171 91
181 196 172
186 201 188
182 198 172
183 198 177
178 195 163
179 195 163
177 193 153
181 197 175
184 199 183
182 198 177
180 196 169
180 196 168
183 198 178
180 196 171
180 196 168
176 193 153
180 196 169
180 196 169
178 195 165
178 195 161
180 196 169
182 198 177
179 195 161
178 194 161
178 194 165
181 197 169
175 192 146
181 196 169
180 196 165
177 193 156
179 195 163
177 193 156
182 197 172
178 194 160
176 193 153
180 196 165
179 195 160
176 193 153
177 193 155
177 193 155
177 194 160
177 193 156
181 196 168
179 195 163
177 193 155
176 193 151
176 193 155
177 194 158
173 190 142
172 190 142
176 193 151
175 192 150
172 190 139
178 194 158
172 190 144
177 194 165
176 192 150
173 190 135
174 191 144
176 192 151
173 190 146
173 190 139
176 192 151
177 193 160
173 191 146
177 194 158
173 190 142
176 192 155
178 194 161
170 188 129
177 193 156
176 193 153
174 191 150
175 191 150
173 190 144
172 190 137
170 188 131
175 192 153
175 192 153
170 187 131
174 191 142
175 192 151
169 187 133
170 187 127
172 190 139
171 188 142
174 191 144
170 188 135
168 187 125
174 191 142
170 188 139
173 190 150
172 190 142
173 189 150
173 190 144
175 191 155
172 189 142
169 187 135
169 186 135
176 192 156
169 186 129
171 188 144
169 187 127
169 185 139
169 185 141
168 185 129
164 181 116
170 186 142
167 182 143
157 170 120
156 169 120
151 163 134
140 155 118
136 150 116
135 149 108
125 140 102
118 135 110
97 115 101
102 120 109
91 109 110
75 97 100
62 87 103
50 79 106
48 77 108
49 78 105
48 77 108
46 72 100
48 76 105
46 73 101
46 73 102
46 73 105
45 73 99
44 69 85
40 65 83
41 66 84
42 68 96
37 60 83
37 60 78
36 57 73
33 55 81
33 54 78
29 47 60
28 46 60
25 42 61
24 41 46
63 78 69
99 111 105
130 144 112
122 137 126
50 80 116
53 84 119
53 84 118
53 84 117
55 87 118
55 87 117
56 89 127
56 89 124
55 87 121
56 88 121
56 89 126
58 92 130
59 93 126
58 92 129
58 91 122
59 93 124
59 93 135
58 92 134
58 92 132
58 92 125
58 91 122
59 93 130
58 91 126
60 94 134
59 92 131
59 93 133
58 92 121
58 92 129
59 92 129
58 92 120
61 95 138
60 94 136
60 94 136
60 94 134
59 93 136
58 92 122
58 92 119
58 92 126
59 92 132
59 93 131
58 92 120
60 94 137
59 94 142
56 90 118
59 93 128
58 91 125
60 94 133
59 93 126
60 94 131
59 93 133
59 93 122
59 92 135
60 94 141
57 91 115
59 93 131
60 94 135
59 92 125
59 93 121
59 94 140
59 93 136
60 94 129
59 93 138
57 91 123
59 92 133
59 93 128
61 95 134
58 92 125
60 94 133
59 93 130
57 90 118
59 92 131
59 92 129
58 92 130
57 90 124
58 91 126
57 90 123
59 92 127
57 89 118
58 92 134
58 92 125
57 90 122
57 89 122
57 89 127
58 90 126
56 89 118
57 89 128
58 90 121
57 90 129
59 91 126
57 90 121
58 89 123
57 89 127
51 80 102
55 85 112
56 87 124
55 84 119
56 86 113
54 83 109
55 83 114
53 80 111
52 78 102
49 75 101
81 83 54
66 64 33
53 54 27
65 64 16
49 51 18
51 53 22
46 49 21
41 48 24
45 52 29
36 44 28
42 48 26
47 54 30
47 55 26
42 51 29
65 71 37
55 64 40
69 76 42
75 80 44
69 75 37
71 77 45
76 82 41
91 92 51
85 88 45
110 110 56
102 104 63
101 102 51
110 111 60
109 109 57
112 112 57
118 118 62
123 123 64
128 126 70
133 130 71
130 127 67
131 129 64
147 142 79
131 129 65
129 127 62
138 135 64
140 137 70
149 145 72
141 138 68
142 138 70
147 142 70
146 142 67
157 151 80
155 149 73
148 144 68
157 152 71
154 148 73
152 147 72
163 157 69
163 156 73
162 156 76
166 159 83
165 159 77
164 157 77
163 157 70
163 157 76
166 159 73
165 159 67
169 162 83
170 163 74
171 162 80
173 165 84
173 164 85
168 162 75
175 167 85
172 164 84
171 164 79
169 162 76
168 161 74
176 168 87
173 165 86
172 165 81
172 164 80
171 163 79
172 163 83
169 162 74
173 165 85
172 164 82
173 165 79
171 164 76
170 164 77
172 164 78
172 164 84
171 164 78
171 163 77
171 164 72
174 166 80
170 162 76
175 167 84
173 165 83
173 165 81
174 166 81
170 163 74
169 161 74
174 166 80
176 167 84
170 163 73
171 164 74
174 166 82
175 167 87
176 167 86
174 166 80
173 165 79
176 167 81
171 163 77
175 167 83
172 164 73
173 166 78
174 166 84
170 163 76
176 168 87
173 165 77
176 167 84
174 165 83
178 169 87
175 167 82
175 167 85
173 165 78
169 162 75
174 166 80
179 170 90
174 165 80
175 167 83
176 167 84
171 164 76
177 169 87
173 165 80
174 166 82
174 166 78
178 169 86
174 166 79
173 165 78
174 166 80
179 169 90
178 168 84
176 167 82
177 169 87
174 166 83
176 167 84
174 166 79
177 167 81
176 167 83
178 169 87
173 166 80
176 168 85
174 166 81
181 197 171
180 195 165
182 197 174
178 194 156
182 197 175
183 198 177
180 195 163
179 195 165
183 198 177
177 193 156
179 195 161
182 197 171
177 193 151
177 194 158
178 194 155
176 193 153
178 195 161
178 194 163
180 195 168
177 193 151
181 197 171
177 193 151
173 190 144
177 194 158
171 189 129
174 191 144
175 192 151
180 195 166
172 190 139
178 194 161
175 191 148
177 193 156
174 191 146
174 191 144
175 192 146
174 191 150
175 192 148
177 193 158
176 193 151
176 193 153
174 191 142
175 192 151
175 192 148
174 191 137
177 193 158
173 190 139
171 189 139
174 191 142
172 190 141
170 188 129
170 187 133
172 190 135
172 190 135
174 191 142
179 195 163
174 191 141
173 190 139
174 191 141
174 191 148
169 187 121
171 188 137
169 187 125
175 192 150
171 189 133
173 190 139
174 191 146
175 192 146
174 191 142
169 186 125
172 189 135
172 190 137
169 187 123
170 188 129
171 189 137
166 185 112
168 185 118
169 186 127
173 191 142
174 191 142
170 187 131
166 184 118
169 187 127
169 187 133
172 190 135
167 185 123
167 185 116
173 190 144
167 185 116
166 184 116
170 187 133
169 186 131
166 184 116
165 183 109
171 189 133
170 187 133
169 186 137
169 186 125
169 186 127
170 187 127
166 183 112
166 183 121
165 182 116
164 181 107
167 183 133
167 184 129
166 181 133
164 179 118
166 181 114
165 181 127
162 176 96
156 170 104
149 164 109
148 163 129
140 156 118
135 151 111
127 143 102
109 127 95
97 116 99
94 115 84
82 104 90
75 98 95
62 87 107
50 78 100
49 78 105
49 77 106
49 78 99
48 76 99
49 77 108
45 71 84
48 76 104
43 69 94
45 71 93
45 72 87
41 66 85
41 65 90
41 66 90
39 63 86
36 59 77
35 57 74
34 56 71
34 55 66
30 50 63
29 47 63
26 43 48
22 38 53
63 74 67
88 103 77
138 152 127
125 139 127
49 78 107
50 80 113
53 84 113
56 88 126
54 86 114
55 88 116
56 89 118
57 90 120
57 89 135
56 89 122
56 88 123
57 90 126
57 90 133
58 92 128
59 92 130
57 89 122
59 93 130
57 91 121
58 92 126
58 92 121
60 94 135
59 93 139
60 94 135
58 92 132
58 92 123
59 93 132
58 92 135
59 93 131
59 94 136
60 94 132
61 95 139
58 91 121
58 91 121
59 93 134
59 94 134
59 93 134
60 95 135
58 92 125
60 95 143
59 93 133
60 94 131
59 94 130
59 94 131
58 92 116
59 93 128
58 92 126
57 91 130
60 93 133
59 93 131
59 94 130
59 93 126
59 94 136
59 93 126
58 91 124
60 93 137
59 94 125
58 91 120
58 92 128
59 93 124
58 92 121
59 94 131
59 93 138
60 94 133
58 92 125
59 93 125
59 93 129
59 94 136
60 94 135
60 94 138
58 90 128
58 93 128
59 92 125
57 90 126
59 93 132
59 93 138
58 92 124
58 92 120
58 90 125
59 92 134
58 92 130
59 93 135
57 89 124
58 90 120
58 91 121
56 87 120
59 92 130
56 87 114
58 91 123
56 89 124
57 89 129
57 90 122
56 87 114
56 88 115
56 87 114
55 86 124
56 87 123
55 85 119
56 86 116
52 80 105
53 79 99
52 77 99
48 71 81
91 92 66
77 75 41
61 61 24
53 54 19
38 41 16
37 42 17
47 50 19
48 52 16
43 50 22
38 46 28
54 60 29
48 57 30
48 56 29
47 57 34
58 65 31
63 70 34
77 81 44
69 73 35
71 75 42
76 81 41
79 84 47
92 95 43
97 100 51
100 102 58
101 102 48
111 112 54
116 116 57
110 110 52
109 109 56
130 128 64
115 114 52
125 123 62
128 125 68
131 128 66
119 119 60
133 130 62
140 136 71
133 131 65
142 139 66
135 133 64
149 145 69
140 136 74
145 141 72
155 149 76
146 142 71
144 140 69
152 148 69
148 145 63
148 143 67
147 144 67
155 149 71
158 152 74
157 151 74
166 159 77
163 157 73
163 157 74
163 157 72
168 161 82
168 161 78
171 164 77
169 163 74
167 160 76
171 163 74
170 162 78
168 162 70
169 162 76
171 164 75
169 162 75
169 162 74
169 162 75
177 168 87
170 163 78
170 162 75
173 166 79
168 162 74
177 168 87
171 164 78
174 166 83
172 164 77
168 161 76
172 163 78
175 166 83
171 164 75
167 161 73
171 164 73
173 165 81
174 166 79
170 163 80
170 163 75
166 160 67
171 164 77
172 164 80
171 164 75
169 162 76
170 162 73
173 165 78
175 167 83
168 161 74
170 163 74
171 163 74
171 164 77
172 164 82
175 167 80
172 164 75
172 164 79
169 162 75
175 167 80
174 165 80
170 162 76
177 167 84
172 164 80
171 164 75
176 168 84
176 167 81
174 166 80
172 164 79
171 164 73
172 164 79
174 166 80
173 165 79
173 165 75
171 163 74
170 162 73
175 167 84
175 167 83
172 164 75
178 169 87
175 166 82
176 167 80
176 167 84
175 167 80
177 168 84
175 167 80
178 168 87
175 167 83
175 167 80
177 168 85
175 167 80
171 164 78
175 167 80
175 167 80
173 164 80
175 166 83
171 164 75
174 165 80
177 167 84
175 166 78
172 165 76
174 166 78
175 192 148
177 193 155
174 191 146
179 195 166
177 194 158
176 192 151
178 194 160
174 191 141
180 196 165
177 193 153
175 192 151
175 192 148
178 194 158
175 192 148
173 191 142
176 193 153
174 191 146
175 192 151
175 192 146
175 192 148
178 194 160
174 191 141
173 190 142
173 191 144
173 190 139
176 192 150
170 188 127
173 190 137
172 190 137
169 187 125
175 192 144
174 191 139
174 191 144
171 189 131
173 190 141
170 188 131
174 190 141
168 186 118
168 186 109
173 191 144
176 192 146
172 190 135
173 190 139
176 193 153
169 187 118
171 189 131
176 192 155
172 189 131
170 188 133
171 188 131
174 191 141
171 189 131
167 184 118
165 184 112
166 184 118
174 191 141
172 190 137
171 189 131
171 189 131
175 192 146
168 186 121
167 186 114
168 186 121
170 188 123
166 184 116
167 185 127
168 186 114
168 186 121
172 189 135
168 186 121
165 183 112
166 184 104
168 186 121
170 188 129
165 183 109
165 183 109
165 183 114
168 186 123
169 187 121
167 186 116
169 186 121
170 188 131
163 182 102
168 186 127
161 179 99
164 183 109
166 184 114
168 185 123
166 184 116
163 181 102
169 186 133
162 181 94
165 183 109
166 183 121
171 188 129
166 184 123
163 180 104
163 181 118
160 179 94
166 184 112
160 178 107
165 182 118
166 183 131
162 181 109
160 177 107
159 176 107
162 178 114
158 175 97
158 175 94
153 168 86
151 165 96
149 164 107
145 160 99
131 147 103
129 144 88
111 128 82
118 135 97
101 119 76
92 111 75
88 108 91
82 102 95
62 87 97
56 82 100
49 78 102
47 74 100
47 74 93
48 76 98
47 75 99
46 73 91
46 73 89
46 73 100
43 68 88
44 70 92
42 67 88
42 67 83
40 64 87
37 60 75
38 61 80
37 59 66
36 58 76
33 54 65
33 54 59
30 49 55
26 43 50
49 66 62
53 67 34
117 132 111
148 164 118
159 172 168
49 78 90
50 80 99
52 82 111
54 86 98
54 86 111
56 88 125
55 88 124
58 92 131
57 90 117
58 91 129
56 88 116
59 93 134
57 91 128
59 92 129
58 92 127
59 93 131
56 89 123
59 93 129
60 95 140
59 92 121
60 94 140
59 92 123
60 95 137
58 92 125
58 91 129
58 92 127
58 91 125
58 91 117
59 92 130
60 94 136
59 94 128
58 92 118
58 92 133
60 95 138
60 94 135
59 93 129
58 92 125
58 92 125
58 92 123
59 94 132
57 91 122
60 95 138
58 92 128
60 94 134
59 93 126
58 91 134
59 93 126
58 92 122
59 93 139
58 92 129
57 91 120
60 95 134
59 93 125
59 94 133
60 95 133
59 93 133
58 92 131
60 94 134
60 95 139
58 91 126
60 94 141
60 95 134
57 90 121
59 93 130
58 92 133
58 91 124
59 93 129
58 91 122
60 94 139
59 92 134
59 93 134
59 93 130
59 93 135
58 91 128
57 90 117
59 93 134
58 91 123
59 92 129
57 90 127
58 91 125
59 93 131
56 88 116
58 91 132
57 90 129
56 87 111
56 89 119
57 90 118
56 88 122
55 86 115
56 87 119
55 85 115
55 85 116
56 87 110
56 86 119
55 86 115
51 80 103
54 82 95
50 78 99
54 83 103
52 79 102
49 74 87
48 73 78
147 153 149
82 80 37
59 59 22
72 71 27
57 58 13
50 52 14
40 44 12
42 49 24
48 54 32
52 56 23
46 54 25
45 52 28
47 52 25
49 57 28
60 66 28
66 71 36
59 65 35
77 82 42
79 81 40
94 95 42
80 84 45
88 91 38
93 94 47
94 96 51
93 95 49
105 106 58
105 105 51
111 110 58
118 118 54
110 110 53
124 123 59
120 119 52
132 129 65
120 120 54
125 125 61
137 134 68
126 124 64
136 133 64
134 130 58
149 143 74
140 136 67
147 143 70
145 142 64
138 135 69
149 145 70
145 140 68
152 147 66
145 141 62
156 151 72
164 157 80
159 153 77
153 148 65
158 153 73
156 151 73
165 158 79
163 156 73
164 157 71
165 158 76
167 160 71
162 156 68
165 159 75
167 160 75
167 160 73
164 158 68
166 160 73
168 161 71
170 163 75
171 163 75
170 162 75
170 162 76
165 158 67
173 165 80
169 162 76
173 165 85
171 163 76
173 164 80
175 166 84
168 161 71
167 159 72
167 160 71
167 159 71
170 163 77
173 165 81
167 161 70
171 164 75
170 163 75
172 165 75
174 165 82
169 162 70
172 164 76
169 162 74
173 166 78
171 164 78
170 163 72
168 161 69
170 162 72
172 164 78
170 163 72
172 164 77
176 167 80
176 166 84
171 164 76
168 162 67
174 165 82
172 165 75
172 164 77
167 160 69
174 166 84
169 162 72
175 166 80
172 164 73
172 164 76
171 164 75
170 163 71
168 161 70
174 166 79
171 163 77
175 167 80
171 163 75
176 166 82
171 163 75
172 164 74
177 168 86
177 168 86
173 165 79
178 168 87
174 166 78
174 165 80
176 168 83
174 165 82
174 166 80
173 165 78
173 164 73
174 166 79
175 167 83
175 166 81
177 168 84
171 164 81
174 165 80
180 170 89
176 168 82
179 169 89
176 167 80
172 164 76
169 163 68
173 165 78
176 167 84
172 165 75
176 167 80
178 194 161
177 193 153
177 193 153
176 192 148
178 194 160
171 189 131
176 192 151
177 193 153
173 190 139
172 190 137
174 191 141
175 192 150
173 190 137
173 190 139
174 191 146
178 194 155
173 190 139
172 190 137
169 187 125
173 190 137
172 189 135
177 194 155
170 187 125
172 189 133
174 191 142
173 190 141
175 191 150
174 191 142
171 189 131
169 187 123
173 190 135
170 188 127
172 190 135
170 187 127
168 186 127
170 187 127
170 188 125
169 187 116
174 191 139
170 188 129
168 186 118
166 184 104
168 187 118
166 185 112
171 189 135
165 184 107
168 187 116
170 188 127
168 186 114
167 185 112
163 182 97
168 186 114
168 186 112
168 186 121
165 183 118
166 185 112
165 184 107
168 186 109
164 182 102
168 186 116
166 184 112
166 185 107
164 183 104
167 185 109
162 181 85
165 184 102
162 181 88
162 181 94
164 183 102
163 181 99
165 184 107
164 183 104
168 185 107
164 182 99
162 181 94
164 183 99
160 180 91
164 182 99
164 183 97
164 182 112
162 181 85
165 183 97
160 180 85
163 181 104
160 180 85
161 180 82
164 182 104
160 179 88
166 184 104
159 178 88
157 176 85
156 175 72
160 179 79
162 180 99
158 177 88
164 182 102
163 180 116
159 178 94
159 177 82
162 181 94
158 177 94
157 176 85
155 174 68
159 177 94
156 174 94
160 179 99
155 171 94
158 175 97
152 169 83
155 171 86
150 165 90
146 162 86
139 153 99
130 147 58
128 143 84
123 138 72
107 125 70
106 122 77
99 118 77
90 111 84
70 93 89
74 96 93
58 83 92
49 77 93
49 78 109
46 73 99
46 74 90
48 75 107
44 70 86
44 71 95
46 74 98
43 69 87
44 69 94
43 68 89
41 66 80
38 61 78
38 61 76
36 59 63
35 56 68
33 54 64
32 52 53
33 54 57
30 48 66
34 53 55
58 74 47
93 108 74
133 150 100
156 172 132
193 206 210
80 100 114
53 84 118
51 81 112
55 87 119
54 86 113
57 90 132
55 87 119
56 89 119
55 87 119
56 89 121
56 89 121
58 91 129
57 91 125
58 92 132
58 92 130
56 89 125
60 93 136
56 89 117
59 93 121
59 93 127
57 90 119
59 93 130
57 91 112
59 93 123
58 92 123
59 92 136
58 92 127
58 92 125
58 92 132
58 92 129
60 94 131
60 95 136
60 94 136
59 93 131
60 94 136
58 92 119
58 92 125
60 94 124
58 91 122
58 92 125
57 91 114
57 91 122
59 93 142
59 94 131
60 94 127
60 94 126
59 94 132
59 93 131
58 92 128
58 91 125
58 91 126
60 95 136
59 94 130
60 94 128
58 91 113
59 93 135
59 94 134
57 90 118
60 94 137
59 93 126
59 93 132
59 93 128
58 92 128
59 93 124
59 93 126
59 92 129
58 91 123
57 91 119
59 94 132
58 92 118
58 91 128
58 91 126
59 92 126
60 94 130
60 94 136
58 92 128
59 93 140
57 89 121
57 89 115
58 90 120
58 91 126
59 92 134
57 89 118
59 92 131
58 91 119
57 90 116
57 90 118
57 88 128
57 88 120
56 88 118
58 90 126
56 88 127
57 89 128
56 87 111
54 83 116
54 83 112
56 86 118
54 82 105
56 86 107
52 79 91
50 76 93
76 93 102
180 189 198
89 87 37
63 64 10
67 66 21
46 47 17
54 56 16
46 50 23
45 48 20
46 50 16
46 51 19
50 58 27
43 52 28
52 58 25
56 62 33
61 66 26
72 76 32
67 72 32
69 75 38
84 86 44
85 87 37
75 79 42
84 88 43
95 96 48
103 105 60
94 97 48
97 99 48
108 107 50
102 102 49
104 105 55
120 119 57
121 120 54
122 121 60
127 125 60
127 125 57
125 123 62
132 129 63
130 128 56
131 129 65
128 125 65
133 130 63
147 142 74
137 133 60
149 144 67
145 140 64
149 145 68
151 146 69
149 144 70
150 145 71
157 151 69
159 153 73
158 153 74
158 152 69
155 150 72
157 151 64
157 151 71
156 151 63
163 156 77
165 157 76
159 153 63
167 160 75
165 160 69
166 159 69
169 162 70
165 159 70
168 161 77
174 166 84
168 160 74
168 161 77
166 160 72
165 159 67
168 160 73
167 161 70
168 161 70
168 161 74
163 156 65
167 160 73
168 161 72
169 162 73
169 161 72
171 162 75
171 164 75
169 162 75
176 167 84
171 164 76
165 158 68
168 162 70
166 160 68
168 161 67
170 162 77
171 163 72
171 164 75
170 162 75
168 161 70
172 164 76
168 162 69
170 162 75
165 159 63
171 164 75
175 166 81
169 162 75
171 164 75
166 160 65
168 161 66
169 162 75
170 163 72
173 165 77
174 166 79
168 161 71
170 163 72
175 166 82
174 166 79
176 167 85
173 165 75
173 165 77
174 166 80
174 166 79
173 165 78
174 166 80
171 164 76
173 165 77
173 165 78
173 165 77
173 165 75
176 167 82
172 164 78
173 165 75
173 165 77
175 166 82
174 166 81
173 165 78
176 167 81
172 164 72
175 166 82
178 169 87
172 165 76
174 166 80
171 164 75
174 166 79
176 167 82
173 165 77
172 163 75
176 168 83
179 169 85
174 165 79
176 167 80
174 166 77
177 168 84
172 164 75
177 168 84
174 191 141
177 194 153
170 188 121
176 193 153
176 193 150
173 190 135
171 188 127
172 189 131
176 192 148
170 188 129
171 188 135
176 192 144
170 188 127
170 188 125
172 189 131
170 187 125
169 187 118
171 188 129
169 187 123
168 186 114
164 183 104
174 191 146
169 187 125
171 189 131
168 186 114
165 184 99
169 187 121
167 186 109
165 184 112
165 183 97
169 187 118
170 187 121
172 189 129
169 187 118
166 185 109
166 185 107
163 182 85
166 185 114
167 185 109
164 182 97
166 185 107
171 188 123
166 184 112
166 184 104
165 183 109
166 185 104
162 181 79
164 183 97
166 185 104
158 178 72
163 182 88
162 181 91
165 184 104
163 182 94
164 183 91
165 184 99
165 184 102
163 182 85
165 184 104
166 184 109
165 184 99
157 177 79
164 183 94
163 181 97
160 179 79
158 178 72
163 182 91
159 178 68
157 178 68
160 179 79
162 181 79
161 180 85
160 180 82
164 182 97
159 179 68
159 179 85
158 178 75
159 178 79
157 177 75
160 179 82
156 176 60
158 177 68
159 178 79
161 180 82
159 178 82
160 180 75
155 175 56
156 176 64
159 177 72
159 178 79
157 176 60
155 175 60
159 178 82
157 176 60
154 173 68
154 173 75
161 180 85
159 178 85
158 177 82
155 173 72
155 175 51
158 176 72
150 168 79
152 171 64
152 171 68
149 168 68
154 171 75
155 172 75
149 165 60
153 171 79
148 165 72
141 155 69
140 156 75
122 138 57
118 136 72
117 136 75
113 129 73
108 127 68
94 111 70
86 106 78
86 108 89
67 90 84
62 83 83
55 80 79
49 77 94
44 71 80
46 74 90
48 76 101
46 72 93
46 72 88
43 69 89
43 69 86
42 67 86
40 64 84
40 63 80
39 63 69
40 65 78
40 64 74
34 54 66
33 54 54
33 54 61
31 51 53
30 49 41
47 63 44
67 82 48
97 112 70
145 159 127
150 166 114
207 220 232
104 121 140
47 75 104
53 84 108
51 82 106
52 84 121
54 85 119
55 88 119
54 86 108
56 89 120
57 90 122
58 92 126
58 92 126
59 93 128
58 92 126
57 90 120
57 91 124
58 92 126
56 89 120
58 92 129
58 91 118
57 91 123
58 91 120
58 91 128
58 92 127
58 91 124
60 94 136
58 92 124
59 93 122
60 94 133
60 94 131
59 94 133
59 93 139
58 92 116
59 94 129
57 90 118
59 93 131
58 92 126
59 93 129
59 93 131
60 94 137
58 92 121
58 92 131
58 92 126
59 92 121
58 92 118
59 93 121
59 94 130
60 94 131
61 95 135
58 92 124
58 93 117
59 93 131
60 94 137
58 93 134
58 91 121
58 92 129
58 92 122
60 94 134
59 93 128
59 93 134
59 93 124
59 93 125
58 92 130
58 91 124
59 93 130
59 94 134
57 90 119
61 95 142
58 92 125
59 93 130
58 91 127
59 92 130
58 92 125
60 95 138
60 94 140
59 93 125
59 92 131
56 89 119
58 91 129
58 92 121
58 91 125
57 90 124
57 89 117
57 90 127
56 87 114
58 91 126
56 87 113
55 85 107
58 91 130
56 88 119
56 87 113
53 82 95
56 86 114
57 88 117
56 87 111
55 84 112
54 83 104
56 86 115
53 80 101
51 77 94
48 74 92
126 138 149
203 214 227
94 92 35
90 86 41
73 72 30
54 55 22
50 51 13
59 59 14
56 57 14
47 53 21
46 51 23
47 51 21
58 63 23
58 63 28
60 65 30
58 66 37
67 72 28
75 80 38
71 75 29
80 84 42
99 99 41
84 86 35
84 87 40
92 96 46
101 102 44
101 102 49
104 106 47
122 120 64
105 105 52
113 112 54
97 98 44
116 114 54
135 131 63
122 120 54
123 121 55
131 127 59
132 129 61
128 127 61
133 130 66
134 131 63
138 134 56
137 133 60
140 136 59
146 142 67
148 143 67
142 138 59
147 143 66
149 144 71
150 145 69
157 151 70
153 148 65
155 149 71
153 147 71
155 150 67
155 150 67
160 154 66
160 154 69
162 156 66
163 157 68
161 154 66
163 157 73
166 159 72
163 157 64
168 160 74
164 159 67
162 157 67
167 160 71
167 160 75
162 155 62
165 159 66
169 161 67
170 163 76
167 160 71
163 157 63
167 160 70
166 159 71
170 162 69
167 161 70
170 163 76
166 159 64
170 162 72
171 163 77
167 160 69
169 162 73
170 163 73
167 160 71
170 163 73
164 157 66
167 161 71
170 163 74
172 164 75
168 161 75
172 164 77
171 163 73
167 160 65
172 164 77
173 165 79
170 163 70
172 164 77
168 161 68
170 162 72
171 163 74
166 160 67
166 159 68
174 166 78
171 163 74
171 163 75
180 170 90
171 164 75
174 165 79
167 161 67
174 166 77
170 163 71
173 165 77
168 161 65
170 163 70
169 162 70
172 165 75
171 163 73
172 164 74
169 161 72
173 165 80
173 164 76
169 162 74
174 165 78
171 163 75
173 165 79
174 165 78
171 163 72
174 166 80
176 167 82
169 162 71
171 164 74
174 165 78
172 165 74
168 161 68
172 164 75
173 165 74
174 166 79
173 165 75
174 166 79
173 165 78
177 167 83
174 165 79
174 166 80
172 164 75
174 166 80
175 166 82
174 166 77
173 165 76
172 189 135
172 190 133
172 189 131
170 188 125
170 188 127
174 191 141
167 186 116
171 188 121
168 186 123
167 186 116
169 187 121
172 189 135
167 186 114
169 187 129
168 186 121
165 184 102
168 186 116
170 187 123
168 186 114
169 187 116
167 185 107
165 184 104
168 185 109
164 183 88
163 182 88
164 183 91
165 184 107
162 182 97
169 187 116
168 186 109
164 183 94
165 183 104
166 184 99
165 183 99
161 181 82
160 180 82
166 184 104
158 178 56
161 181 75
165 184 97
160 180 72
164 183 97
165 184 102
161 181 79
163 182 91
164 183 94
162 182 79
161 181 82
160 180 79
161 181 75
164 183 88
157 178 64
159 179 64
163 182 85
160 180 75
161 181 82
160 179 72
159 179 72
163 182 88
161 180 85
156 176 45
158 178 75
162 181 79
157 178 60
156 176 60
157 177 56
154 175 39
157 177 45
160 179 60
159 178 72
154 175 45
158 179 64
158 178 60
158 178 39
158 178 45
156 176 39
156 176 45
156 177 60
155 176 39
155 176 45
154 174 39
155 175 60
154 174 32
154 175 32
156 176 45
155 176 51
152 172 39
154 173 32
153 174 32
155 175 45
155 174 51
152 174 32
151 172 22
152 172 39
152 172 39
153 173 39
153 173 39
152 173 22
153 172 45
148 169 22
149 169 22
151 171 0
146 165 22
146 165 32
146 165 39
148 166 32
149 167 32
148 167 39
145 162 32
145 162 22
141 158 39
136 153 25
128 143 52
129 148 45
123 140 57
115 133 55
116 134 55
106 124 63
88 106 72
84 105 79
77 98 91
76 98 76
65 86 81
52 78 91
47 74 92
45 72 78
46 73 82
44 70 86
47 74 97
44 70 81
43 69 85
43 68 85
42 67 87
42 66 76
39 63 65
36 58 67
38 62 72
39 63 67
34 54 58
37 60 64
29 48 59
28 46 50
31 50 42
58 74 35
83 97 54
121 138 89
152 169 127
149 164 127
224 237 255
146 159 177
48 76 102
53 84 109
54 86 116
53 84 105
54 86 114
54 86 115
56 88 123
54 85 116
56 88 112
56 88 113
59 93 133
58 91 125
56 89 119
58 91 124
57 90 117
55 88 110
60 94 134
59 93 135
58 92 128
57 90 128
58 91 120
58 91 123
58 92 132
57 91 122
57 91 129
59 93 134
58 91 118
59 93 126
58 91 117
60 94 142
58 92 127
59 93 129
59 93 127
59 92 130
58 92 132
58 92 124
58 92 126
60 94 134
58 92 133
60 94 132
59 92 122
59 93 127
58 91 121
58 92 130
58 92 120
60 94 128
57 91 128
58 92 120
59 92 125
58 91 118
61 95 139
59 93 121
58 92 126
59 93 128
57 90 113
60 94 130
58 91 117
58 92 122
59 92 128
61 95 135
59 92 121
61 95 141
59 93 133
58 92 128
59 92 122
60 94 135
58 91 128
58 91 123
57 90 115
59 93 124
58 92 123
59 93 129
58 91 124
58 92 122
57 90 110
59 92 123
57 89 126
58 91 124
56 87 114
57 90 119
57 89 121
57 90 122
58 90 124
56 87 117
57 89 119
57 89 115
59 93 131
57 89 122
56 87 117
54 85 100
57 88 123
57 87 121
56 87 112
53 83 104
55 85 104
52 80 99
52 80 99
50 76 94
50 75 94
51 78 95
150 163 175
220 233 250
89 89 46
59 59 23
64 64 26
61 62 24
51 54 21
56 57 16
57 61 14
63 66 14
46 53 23
44 51 23
62 68 34
57 63 30
49 56 24
66 70 29
59 66 28
68 73 30
70 74 30
85 89 40
81 84 38
80 84 34
80 83 41
101 102 52
93 97 45
97 100 47
93 95 35
118 116 49
94 96 44
110 109 50
115 115 57
126 123 52
110 112 51
122 121 56
134 130 63
120 119 58
130 127 55
136 133 57
142 138 60
130 128 59
139 136 67
141 137 61
139 135 61
140 137 63
150 145 65
143 140 59
152 146 66
151 145 69
156 150 68
149 145 64
154 148 66
156 150 73
152 147 65
148 143 57
154 149 61
161 156 68
161 155 69
159 153 70
155 150 62
163 156 75
165 158 72
160 154 64
160 155 58
167 160 71
167 160 68
163 157 66
169 161 75
162 155 63
164 159 64
169 162 70
164 157 69
165 157 63
171 163 76
164 157 62
164 157 68
164 157 67
168 160 70
168 160 70
170 163 73
167 160 75
169 162 74
170 161 72
168 161 70
166 160 67
166 159 70
166 160 73
171 163 75
169 162 69
165 159 69
163 157 63
169 161 71
165 159 60
167 159 72
169 162 75
172 164 75
169 162 70
168 160 70
167 160 70
167 160 73
169 161 71
168 160 67
171 164 74
171 163 69
169 162 69
171 164 75
168 161 71
171 164 72
171 164 75
169 161 68
171 163 74
175 166 80
171 164 73
174 166 75
170 163 71
168 162 68
167 160 72
178 168 83
171 163 78
173 165 80
172 165 76
172 164 77
167 160 70
169 162 68
172 165 75
172 164 73
171 163 73
169 162 69
169 162 68
174 165 75
171 164 68
173 164 79
172 164 76
172 164 71
171 163 72
174 166 80
173 165 75
173 165 76
172 164 73
172 165 74
174 165 78
174 166 79
172 164 76
173 165 77
176 166 78
172 164 77
172 164 75
174 166 79
177 168 81
174 166 76
173 165 75
167 185 109
169 187 118
164 184 107
167 185 104
166 184 104
170 187 123
168 186 118
167 186 118
163 182 82
168 187 118
160 180 82
164 182 104
166 185 104
164 183 97
164 183 99
164 182 102
163 183 88
163 182 94
167 185 102
160 180 75
168 186 114
163 182 79
165 183 99
166 184 102
160 180 72
162 181 88
164 183 94
161 181 75
159 179 64
160 180 85
160 180 72
162 182 88
161 180 79
160 180 68
161 181 79
160 179 51
158 178 68
160 180 68
162 181 82
160 179 64
159 179 68
157 177 51
160 179 79
160 179 64
159 179 64
158 178 56
158 178 56
159 180 68
154 176 45
157 178 51
156 175 51
158 179 60
156 176 39
156 176 56
154 175 22
153 174 32
154 175 39
155 176 22
156 177 39
155 176 45
156 177 39
157 177 45
153 175 0
153 174 0
154 175 0
156 176 32
153 174 32
153 173 22
156 177 0
155 175 32
153 174 22
151 172 0
153 173 0
154 175 0
154 174 0
153 174 0
152 173 0
151 172 0
152 172 0
153 174 0
152 172 0
151 170 0
151 173 0
154 175 0
152 173 0
152 173 0
151 172 0
150 171 0
151 171 0
150 170 0
149 170 0
150 170 0
150 171 0
150 172 0
152 173 0
148 168 0
152 171 0
148 168 0
151 171 0
147 166 0
147 166 0
145 164 0
148 167 0
144 164 0
144 165 0
147 166 0
143 161 0
147 165 0
142 158 0
141 158 0
137 154 0
136 153 19
131 147 19
130 150 52
120 137 48
122 140 42
110 127 53
101 121 70
95 113 59
86 106 78
92 112 74
66 85 73
71 92 85
57 81 89
49 74 78
46 73 88
46 73 84
45 72 84
45 72 86
43 69 79
44 71 86
43 69 84
44 70 81
40 65 74
41 66 82
40 64 68
38 61 76
36 59 53
39 62 58
32 52 52
35 56 43
33 54 42
52 70 48
71 87 32
108 124 67
134 150 103
149 166 99
157 171 142
217 231 233
160 175 169
47 74 84
50 79 95
53 83 110
54 86 109
53 85 111
57 89 122
55 86 120
55 87 125
57 89 128
57 89 119
58 92 124
57 90 122
56 88 117
57 90 119
58 91 121
55 87 116
56 88 109
59 92 120
59 93 129
58 92 124
57 90 120
58 92 120
57 90 124
57 89 115
58 91 117
57 91 119
59 93 131
59 93 126
59 93 127
58 92 124
59 92 130
58 91 120
58 92 121
58 92 131
58 91 128
58 91 123
57 91 111
59 92 120
58 91 126
56 90 118
57 90 121
59 93 130
58 92 120
59 93 124
57 91 121
59 94 128
57 90 117
59 92 128
60 93 129
58 91 125
58 92 122
60 94 133
59 93 129
57 90 117
59 93 122
58 91 125
58 92 122
59 92 124
56 89 120
57 90 118
59 92 130
58 91 115
59 93 125
58 91 123
58 91 121
59 92 126
59 93 124
58 91 121
56 89 114
59 94 134
58 91 125
59 93 123
57 90 124
58 91 126
56 89 124
56 89 115
58 92 123
58 90 119
56 89 116
58 92 118
58 91 119
57 90 115
58 91 123
57 89 114
59 91 129
56 88 120
56 87 115
56 87 112
54 85 117
56 87 119
55 87 115
56 87 110
56 87 120
53 83 101
56 87 120
54 83 99
54 82 104
52 80 98
49 73 83
46 69 69
178 193 194
216 230 231
142 148 129
81 81 18
69 68 28
64 64 28
57 60 15
57 59 16
47 50 15
48 52 15
55 59 18
54 59 22
54 59 22
57 63 29
66 69 30
67 71 30
62 67 30
70 74 37
80 81 24
71 75 28
85 88 36
93 95 45
84 88 38
95 96 40
89 90 43
105 105 49
95 98 49
105 105 47
110 110 48
115 116 53
115 114 52
110 109 53
113 113 55
117 116 45
119 118 51
117 117 55
131 128 62
139 134 59
129 127 55
148 142 64
139 136 59
137 134 63
142 138 65
143 139 51
140 137 55
142 138 65
143 139 60
139 135 60
138 134 59
147 143 59
151 145 63
146 141 62
155 149 68
149 144 60
153 147 65
163 157 65
155 149 60
160 154 63
160 154 63
161 154 64
163 157 63
165 159 73
167 160 71
162 155 65
165 159 67
165 157 70
163 157 65
164 158 66
166 159 70
164 157 65
161 155 63
167 161 72
165 158 66
167 159 70
165 158 62
162 155 58
166 159 75
168 160 65
168 160 71
161 154 59
169 162 70
169 162 73
161 155 57
169 161 69
166 159 68
170 162 72
168 161 68
164 158 58
163 157 59
162 156 62
169 161 72
170 162 73
166 160 67
169 162 72
174 165 75
168 159 69
170 162 70
168 161 68
166 159 63
171 163 73
167 160 69
171 164 74
167 159 70
168 161 66
169 161 72
171 163 77
170 163 74
169 161 68
170 162 75
169 162 70
166 159 66
168 161 66
168 161 67
169 162 71
170 163 71
170 162 74
167 161 65
168 161 65
172 163 74
172 164 76
167 161 65
173 164 76
171 163 67
170 161 75
172 164 75
176 166 78
174 166 79
166 160 63
168 160 67
172 164 73
174 165 79
172 164 72
176 167 80
174 165 75
173 165 75
174 165 78
171 164 75
175 166 80
173 164 75
176 167 81
172 164 75
172 164 74
177 168 81
173 165 75
177 168 84
170 163 71
170 163 71
174 165 75
171 164 70
172 164 75
166 185 112
166 185 104
165 184 99
164 183 97
163 181 97
164 183 102
161 181 85
165 183 102
162 181 79
160 180 72
161 181 75
163 182 88
158 178 60
163 182 88
163 182 75
163 183 88
162 181 75
162 182 88
162 182 85
158 179 68
159 179 60
159 179 68
164 183 88
155 176 51
160 180 68
158 178 39
161 181 75
159 179 60
158 178 45
158 179 51
158 178 51
157 177 45
156 176 22
155 175 22
156 176 51
154 175 32
158 178 45
155 176 32
156 177 32
156 177 22
155 176 22
156 177 39
154 175 0
153 174 0
155 176 22
155 176 0
153 174 0
154 175 22
151 172 0
154 175 0
153 174 0
156 177 0
154 175 0
156 177 0
155 176 0
152 173 0
156 176 0
153 174 0
154 175 0
153 174 0
151 172 0
153 175 0
155 175 0
153 173 0
151 172 0
153 174 0
151 172 0
153 173 0
153 174 0
153 174 0
151 172 0
149 170 0
151 172 0
152 173 0
153 173 0
151 172 0
154 174 0
152 173 0
151 171 0
155 175 0
151 171 0
155 176 0
153 175 0
152 173 0
152 173 0
150 171 0
151 171 0
148 169 0
150 170 0
148 170 0
150 171 0
150 170 0
150 170 0
151 172 0
150 170 0
149 170 0
149 169 0
144 164 0
144 163 0
150 169 0
146 166 0
146 165 0
142 162 0
143 162 0
144 163 0
142 162 0
144 163 0
138 157 0
138 156 0
142 161 0
138 154 0
133 149 22
131 149 32
127 144 32
123 141 45
123 139 31
103 122 60
109 125 50
88 107 47
87 106 73
71 90 66
78 99 63
65 87 66
59 82 79
55 80 84
49 73 78
46 72 92
45 71 83
43 68 75
42 66 76
42 67 72
41 65 71
39 63 77
42 67 67
38 61 65
39 63 61
36 58 63
35 56 54
35 56 59
34 55 57
35 54 48
41 61 61
77 93 37
91 109 46
109 126 71
138 155 103
149 165 121
156 175 85
174 198 0
165 189 29
46 73 91
48 77 97
51 81 105
53 85 96
52 83 101
55 87 104
54 85 114
56 89 116
56 88 119
58 91 123
57 89 112
55 87 122
58 91 126
54 87 107
56 89 118
56 89 120
58 92 121
57 91 112
58 92 124
58 91 121
58 91 126
59 92 132
57 90 115
58 92 129
57 90 109
58 91 116
59 92 121
58 92 123
58 91 133
58 92 128
58 92 125
58 91 121
59 93 134
57 91 122
59 93 124
58 91 127
60 94 129
58 92 119
60 94 135
57 90 113
57 91 118
57 91 117
57 90 121
57 91 122
56 89 115
57 90 115
58 92 110
59 93 131
57 91 125
58 92 124
58 92 128
60 95 137
59 93 124
60 95 139
58 92 123
59 93 124
57 90 115
59 93 120
58 92 131
58 91 117
58 91 129
57 90 121
58 91 126
59 93 131
59 92 126
59 93 122
58 92 127
59 92 116
58 91 123
57 90 121
57 90 128
58 91 128
58 91 124
58 91 128
57 89 120
57 89 112
56 89 113
57 90 123
58 90 123
58 91 120
59 92 128
57 90 119
55 87 111
59 92 131
57 89 119
57 89 123
55 86 103
58 89 114
54 85 104
56 87 120
55 86 109
54 84 104
54 82 97
56 86 111
53 82 92
53 82 109
54 83 97
52 78 94
50 75 88
44 68 72
159 182 20
175 198 0
142 153 37
85 83 37
69 68 24
78 78 25
63 62 20
57 56 20
57 58 12
63 63 9
48 53 21
60 63 10
52 55 23
61 67 25
65 69 25
66 69 24
62 68 27
61 66 25
76 79 32
80 81 35
72 75 35
74 79 23
88 91 39
103 104 39
87 91 44
98 100 42
97 99 41
105 105 46
107 107 44
112 110 47
109 108 40
120 119 44
125 121 51
118 116 44
121 119 47
119 118 53
131 129 55
125 123 50
114 114 50
131 129 50
133 130 56
141 136 59
133 130 59
145 141 64
140 136 65
142 137 60
133 130 54
146 141 63
149 145 61
152 146 68
151 145 60
148 144 57
150 145 61
158 151 59
154 148 60
153 147 56
157 152 55
162 156 66
163 156 72
160 154 63
166 159 72
165 158 72
167 160 70
160 153 65
166 159 68
167 159 75
161 155 61
161 155 62
170 162 75
162 156 64
159 153 61
162 156 63
161 154 62
166 159 68
166 159 68
171 163 75
163 157 58
165 158 64
165 158 68
164 158 62
160 154 56
166 159 65
166 160 67
166 159 62
171 162 71
169 160 72
168 161 69
168 161 70
167 160 63
167 160 64
163 157 60
168 161 67
165 158 63
167 160 67
166 159 62
167 160 63
167 160 67
166 159 62
166 159 63
170 163 74
168 160 66
167 160 68
164 158 61
173 166 76
164 158 60
170 162 73
169 161 67
164 158 60
169 162 70
171 164 76
168 160 64
165 159 58
170 162 75
165 159 62
170 162 71
166 159 62
167 160 66
171 163 73
170 161 74
171 163 71
169 161 66
170 162 69
171 163 72
168 161 68
172 164 71
169 161 67
171 164 72
169 162 70
172 164 77
171 162 73
169 162 69
168 161 69
169 161 65
173 164 79
170 162 67
167 160 67
172 164 72
174 165 76
173 164 75
170 162 68
175 167 78
170 161 70
171 163 75
171 163 71
170 162 69
171 163 75
175 166 80
174 165 80
172 164 74
173 165 76
168 186 109
162 181 75
163 182 91
162 181 75
162 181 79
164 183 94
159 179 60
157 178 56
160 180 68
160 180 64
160 180 72
159 179 60
158 179 60
161 181 82
160 179 68
157 178 60
159 179 56
155 176 22
157 177 51
158 178 51
157 178 56
154 176 22
157 178 51
154 175 32
156 176 22
158 178 45
156 176 0
154 175 22
155 176 0
156 176 32
156 177 0
157 177 22
157 177 0
154 175 0
153 174 0
155 176 0
156 176 0
153 173 0
156 177 0
155 176 0
155 176 0
154 175 0
156 177 0
155 176 0
155 175 0
152 173 0
154 175 0
152 173 0
156 176 0
153 173 0
154 175 0
153 175 0
155 176 0
153 173 0
153 175 0
154 175 0
154 174 0
153 174 0
155 175 0
154 176 0
152 174 0
153 174 0
151 172 0
154 175 0
154 174 0
152 173 0
152 172 0
152 172 0
153 174 0
155 176 0
154 175 0
151 171 0
153 175 0
150 170 0
154 175 0
153 174 0
152 173 0
152 172 0
152 173 0
151 173 0
153 174 0
147 168 0
149 169 0
150 171 0
149 169 0
150 170 0
151 172 0
150 170 0
151 172 0
146 167 0
147 168 0
147 168 0
150 171 0
147 167 0
143 164 0
148 168 0
147 168 0
148 168 0
145 164 0
146 167 0
150 171 0
147 166 0
146 166 0
143 162 0
138 157 0
139 156 0
141 160 0
141 159 0
132 151 0
136 153 0
137 154 0
142 160 0
129 145 16
122 138 19
122 136 38
124 142 39
109 126 45
104 122 57
94 111 66
90 108 65
81 100 66
67 89 76
80 99 69
69 89 59
64 87 86
57 80 87
43 68 69
48 74 85
45 71 84
42 68 73
44 70 85
43 69 72
38 61 64
37 59 68
42 66 63
37 59 62
36 58 56
35 56 51
35 57 45
34 55 47
39 58 55
49 67 42
77 96 41
101 119 45
129 148 67
154 172 109
148 163 109
165 186 68
175 198 0
172 196 0
75 99 87
52 82 95
52 82 110
54 85 104
53 84 104
53 84 104
53 85 108
57 89 123
56 89 123
57 90 121
55 88 115
57 90 126
57 91 120
56 88 113
56 88 116
58 91 126
56 89 123
57 89 116
57 90 126
56 89 115
58 91 119
56 89 115
57 90 115
56 88 117
58 91 125
57 91 110
59 93 135
60 94 131
58 92 131
57 91 128
58 91 127
57 91 115
58 92 125
58 92 121
57 90 105
59 92 131
60 94 129
58 92 126
58 92 131
56 89 113
58 93 129
59 93 126
60 94 130
58 92 123
58 92 115
56 88 113
57 90 117
60 95 136
58 92 121
58 91 122
58 93 118
57 90 118
57 90 115
59 93 122
57 91 117
58 92 126
59 93 131
59 93 134
59 93 130
58 92 120
57 91 113
58 92 120
58 91 120
60 94 134
58 91 124
60 93 133
58 92 121
58 91 124
58 92 129
57 89 120
56 89 115
57 90 125
59 92 120
58 91 127
59 92 120
56 88 108
58 91 131
55 86 116
56 87 109
58 91 126
58 90 122
57 89 121
58 90 122
57 89 116
56 87 108
56 87 106
56 87 109
56 87 115
55 86 108
55 86 113
54 85 111
53 81 95
55 86 107
54 84 108
54 83 113
52 80 100
52 80 95
53 80 109
49 75 86
71 92 68
175 198 0
175 198 0
162 182 22
107 104 46
87 85 34
57 59 22
73 72 21
62 64 12
66 68 14
56 57 15
61 63 23
63 65 18
51 57 17
64 66 23
60 63 24
61 68 28
65 67 26
70 74 20
72 74 24
63 69 27
68 72 22
88 90 37
92 93 39
112 112 44
98 99 47
86 88 32
103 102 36
107 107 45
121 119 46
102 103 43
113 113 44
118 117 48
123 121 47
126 123 53
121 120 48
114 114 49
124 122 54
131 128 55
134 131 54
135 132 52
125 124 45
141 137 55
138 134 59
148 143 63
134 131 56
142 139 57
140 136 64
140 137 53
152 146 60
148 144 60
147 144 52
145 141 55
151 146 60
151 146 60
152 148 55
155 149 60
156 150 57
157 152 58
158 152 61
161 155 62
155 150 56
161 154 64
160 153 60
165 157 70
161 153 66
165 158 66
163 156 63
156 150 57
164 158 62
166 160 63
160 154 61
162 155 65
165 159 59
164 158 60
157 152 58
167 159 73
165 158 69
161 156 61
167 159 70
163 157 58
163 156 61
163 157 60
168 160 69
161 155 57
164 157 62
166 159 69
169 162 65
168 161 67
163 157 62
166 160 60
164 158 59
169 161 69
164 158 64
170 163 70
167 160 68
170 162 74
166 159 64
162 156 60
167 160 68
166 159 69
168 161 64
166 159 61
168 161 66
167 160 65
168 161 68
166 159 64
168 161 68
169 161 65
167 160 65
170 163 69
168 161 69
170 162 70
161 156 56
169 162 67
171 163 72
170 163 68
166 159 63
171 163 67
162 157 53
168 161 73
170 162 70
170 161 67
169 162 68
172 164 71
169 162 71
172 164 73
166 159 65
168 161 61
168 161 69
166 159 64
172 164 72
172 164 74
169 162 68
169 162 67
171 163 71
170 163 70
174 164 75
169 162 66
169 162 71
173 164 72
167 161 64
170 162 72
169 162 64
171 164 72
171 163 69
169 162 68
172 164 76
171 164 70
173 165 75
169 162 65
162 181 75
156 177 45
159 179 56
159 178 64
158 178 51
158 178 56
157 178 45
160 180 60
159 179 56
154 175 0
160 179 60
158 177 51
157 178 51
157 178 22
156 177 22
157 177 39
157 177 0
154 175 32
153 175 0
153 174 0
154 175 0
156 177 0
155 176 0
153 174 0
156 176 0
155 176 0
158 178 0
155 176 0
153 175 0
156 176 0
154 176 0
155 176 0
154 175 0
154 175 0
154 175 0
155 176 0
155 176 0
154 174 0
154 175 0
155 176 0
155 176 0
156 176 0
152 173 0
154 175 0
155 176 0
153 174 0
150 172 0
155 176 0
152 173 0
155 176 0
154 174 0
155 176 0
154 173 0
153 174 0
154 174 0
154 174 0
152 173 0
153 173 0
156 176 0
153 174 0
154 176 0
156 177 0
151 171 0
151 172 0
154 174 0
152 173 0
151 173 0
152 173 0
151 172 0
155 175 0
145 166 0
150 171 0
152 171 0
152 173 0
151 172 0
152 174 0
151 171 0
152 172 0
149 169 0
151 172 0
150 171 0
147 168 0
153 173 0
149 170 0
150 171 0
151 171 0
153 174 0
150 171 0
145 165 0
149 168 0
146 168 0
144 165 0
153 173 0
146 166 0
149 169 0
140 160 0
145 165 0
142 162 0
144 164 0
145 165 0
144 164 0
142 161 0
143 162 0
141 160 0
139 158 0
141 159 0
138 156 0
136 155 0
133 150 0
132 149 0
131 147 0
130 148 0
127 142 16
130 147 28
112 131 42
110 126 35
108 125 48
95 113 53
100 119 57
99 115 48
91 108 42
83 100 55
66 87 72
63 85 63
70 89 61
56 78 76
48 71 71
45 71 77
42 67 73
44 71 84
43 68 75
40 64 60
39 62 65
39 62 63
41 66 63
38 61 48
38 61 56
36 58 46
39 60 35
42 62 55
62 79 44
81 98 43
77 94 45
114 132 38
135 153 79
153 169 99
150 167 99
173 197 0
174 198 0
174 197 0
113 135 75
49 77 97
48 76 83
51 81 101
54 86 110
54 85 113
55 87 115
55 87 115
55 87 110
57 90 115
55 87 115
55 88 107
55 88 118
56 88 116
58 91 127
57 90 130
57 90 128
58 91 129
58 91 114
58 90 115
56 89 119
58 91 119
57 90 120
58 90 123
57 90 115
58 91 120
59 93 126
58 92 128
58 91 129
59 93 131
59 93 133
58 91 131
57 91 123
59 93 126
58 91 124
59 92 128
60 94 134
58 91 123
60 94 122
57 91 123
58 91 123
57 91 107
57 91 120
56 89 115
58 92 115
60 94 132
57 90 129
58 91 118
59 93 135
58 92 117
58 92 125
57 90 110
58 92 122
57 90 114
58 91 115
60 94 126
58 92 124
57 91 120
58 92 125
59 94 133
59 92 130
58 91 126
59 93 125
57 90 122
56 88 120
59 93 129
60 93 129
58 91 126
57 90 121
58 90 118
58 91 115
57 90 110
56 89 105
57 90 123
56 87 112
56 89 117
58 91 127
58 91 130
56 88 113
57 91 124
57 89 112
57 90 120
58 91 120
58 91 125
55 86 99
55 86 113
57 88 116
56 87 113
57 89 116
56 87 116
57 87 112
54 85 106
53 81 91
54 82 97
55 85 116
54 83 110
53 81 104
51 78 103
46 70 73
111 130 63
173 197 0
174 197 0
173 196 0
98 104 24
77 76 27
61 62 18
76 75 21
62 63 12
69 70 18
56 57 17
65 67 19
51 57 23
63 66 20
67 70 22
57 62 26
64 68 23
73 78 26
72 77 24
79 81 24
77 80 24
78 83 37
98 97 38
83 86 35
93 96 45
96 97 40
89 91 36
95 95 34
98 99 35
100 101 28
106 107 43
118 117 43
115 115 47
105 106 41
113 112 44
123 122 47
139 135 52
130 128 53
132 129 46
135 131 54
128 127 48
140 135 59
127 125 49
142 138 59
140 136 53
139 134 48
147 143 54
148 143 64
144 139 61
146 141 59
146 141 57
150 145 59
152 147 59
155 150 54
147 142 47
151 147 51
156 150 61
160 154 60
158 151 61
160 154 55
154 148 50
162 156 61
159 152 58
166 159 69
158 152 52
159 154 56
161 155 56
164 158 62
158 153 56
161 155 58
160 153 58
160 154 62
161 154 62
158 152 58
159 154 58
160 153 63
163 156 57
165 158 63
166 160 65
164 158 60
166 158 63
166 159 65
161 155 57
161 155 59
164 157 63
164 158 61
169 161 71
167 161 67
165 158 66
167 160 63
160 154 52
165 158 59
161 155 54
162 156 59
166 159 64
166 160 64
167 160 59
167 160 66
165 158 60
165 158 63
164 157 63
165 159 62
168 160 67
167 160 61
165 159 59
165 158 61
169 162 64
168 160 66
164 158 59
166 159 60
167 160 65
165 158 62
168 161 64
169 162 69
169 162 70
168 160 62
164 159 60
164 157 59
165 157 64
167 160 62
164 157 63
172 163 72
166 159 61
172 163 77
172 164 74
169 161 62
165 159 58
166 159 58
168 161 66
174 165 74
168 161 69
171 163 65
168 160 65
170 163 69
167 160 65
172 164 74
167 160 62
171 163 74
169 162 71
165 159 58
167 161 66
170 163 65
170 162 68
174 165 79
170 163 71
169 162 70
173 165 74
171 164 69
172 164 70
169 162 70
173 164 74
155 176 22
156 177 32
158 178 32
156 177 32
155 177 39
155 176 0
155 176 22
156 177 0
154 175 0
153 174 0
156 176 0
156 177 0
156 177 0
154 176 0
155 176 0
155 176 0
155 175 0
155 176 0
154 175 0
154 175 0
154 174 0
154 176 0
155 175 0
155 176 0
155 176 0
155 175 0
154 175 0
155 176 0
154 175 0
155 176 0
155 175 0
153 175 0
154 176 0
155 175 0
154 175 0
154 175 0
153 174 0
151 173 0
153 175 0
155 175 0
152 173 0
155 176 0
155 176 0
152 172 0
155 175 0
154 175 0
154 175 0
152 173 0
152 173 0
155 175 0
152 173 0
151 172 0
152 173 0
154 176 0
153 174 0
153 174 0
150 170 0
152 174 0
151 172 0
153 175 0
153 174 0
154 176 0
155 175 0
153 174 0
153 173 0
152 173 0
150 171 0
151 173 0
149 170 0
150 171 0
152 173 0
151 172 0
148 169 0
150 171 0
150 170 0
150 170 0
151 172 0
150 172 0
149 169 0
150 170 0
149 169 0
150 170 0
151 172 0
150 171 0
144 163 0
151 171 0
153 173 0
150 171 0
148 169 0
145 165 0
149 169 0
143 162 0
148 169 0
147 168 0
149 169 0
148 168 0
144 163 0
141 161 0
141 161 0
142 162 0
139 159 0
140 159 0
142 162 0
140 158 0
137 156 0
139 158 0
136 155 0
129 148 0
133 150 0
127 142 0
130 147 0
135 154 0
122 137 22
116 132 28
116 134 32
111 128 28
112 129 32
97 113 45
89 106 42
95 112 48
94 112 57
72 91 62
62 82 59
76 94 55
59 80 71
56 78 76
62 83 52
46 70 73
44 70 84
43 68 69
41 66 74
40 63 50
42 67 64
41 65 64
39 63 53
38 60 56
41 60 39
37 60 58
46 66 44
60 78 30
65 83 37
89 105 33
98 115 32
123 142 51
147 166 84
154 170 99
154 175 32
172 196 0
174 198 0
175 198 0
141 163 38
47 76 84
49 79 91
52 84 100
54 85 111
54 86 106
53 85 103
56 89 115
58 91 121
55 87 114
55 87 105
54 85 114
57 90 124
54 86 115
56 88 114
57 90 109
58 91 121
58 92 126
55 88 113
57 91 124
57 90 119
57 89 124
59 92 134
56 89 123
57 91 127
59 93 123
57 90 114
57 90 118
57 90 113
57 90 116
58 91 109
57 90 117
57 91 125
58 91 122
57 90 116
57 90 103
57 91 117
57 90 116
58 92 132
58 92 125
57 91 122
58 92 125
58 92 125
58 92 121
57 90 121
58 92 126
58 91 118
57 90 125
58 91 118
58 91 121
58 92 120
59 92 126
57 90 124
59 94 134
58 91 124
58 90 121
59 92 118
58 92 120
57 91 118
58 91 125
60 94 128
59 92 131
59 93 130
58 91 121
56 88 117
58 91 121
58 91 124
58 91 122
57 90 120
59 93 124
59 92 121
58 91 117
58 91 129
58 90 125
55 87 117
58 91 120
58 91 121
58 90 125
56 87 112
57 89 115
57 90 116
56 87 111
57 88 113
55 86 109
59 91 126
58 91 125
56 86 110
55 86 108
58 89 124
53 83 110
54 84 114
55 86 103
52 80 104
52 81 108
52 81 100
53 82 98
51 78 96
51 77 86
48 71 79
142 163 43
173 197 0
172 196 0
175 198 0
144 156 40
87 85 31
88 85 34
81 80 32
76 74 12
63 62 12
61 63 17
64 66 17
59 62 19
62 63 13
61 64 21
66 70 25
73 75 21
69 71 11
72 77 29
86 88 31
72 76 29
80 81 29
78 81 23
93 94 34
108 106 37
100 100 41
102 103 36
106 104 38
103 103 36
111 110 40
105 105 42
109 109 35
114 114 50
117 117 51
114 113 37
114 112 41
123 122 46
124 122 48
127 123 46
127 124 48
136 132 58
132 130 48
131 127 49
126 124 50
134 131 48
133 129 47
151 146 65
147 142 58
148 142 59
152 147 59
153 148 49
152 147 56
137 133 55
152 146 63
148 143 56
154 149 60
152 147 55
152 147 52
155 150 53
155 149 59
157 152 57
159 152 59
158 152 60
156 150 57
159 154 61
159 153 57
155 149 48
161 155 58
160 154 61
154 149 53
162 156 59
165 158 68
163 157 60
163 157 63
163 156 57
156 151 49
165 158 64
158 153 52
163 157 56
163 156 67
160 154 56
161 155 57
160 154 60
161 155 56
162 155 52
164 157 62
163 157 59
163 156 63
161 155 58
171 162 72
160 154 56
166 159 61
157 152 47
162 157 52
165 158 61
164 158 66
160 155 53
166 159 62
163 156 59
169 160 74
166 159 62
167 160 64
166 160 65
164 158 56
166 159 60
165 158 53
166 159 59
166 160 64
166 159 64
168 160 65
164 158 57
159 153 52
168 161 67
171 163 67
168 161 63
165 159 59
166 159 64
165 159 59
169 161 63
168 161 62
169 162 67
164 158 59
165 158 59
168 160 63
172 163 73
168 160 66
167 160 65
166 159 60
167 161 63
167 160 64
172 164 76
166 159 61
166 159 62
169 162 67
165 158 60
174 165 76
167 160 66
169 162 69
167 160 62
168 160 65
172 163 71
171 164 69
168 161 63
168 160 65
168 161 65
166 160 60
169 161 63
173 165 70
170 162 64
167 160 60
171 163 72
155 176 22
156 177 0
156 177 0
154 175 0
156 177 0
154 175 0
158 177 0
156 176 0
156 177 0
155 176 0
155 176 0
155 176 0
155 176 0
154 175 0
153 175 0
155 176 0
155 176 0
156 176 0
154 175 0
155 176 0
154 176 0
152 173 0
157 177 0
155 176 0
155 176 0
152 173 0
155 176 0
156 177 0
155 176 0
155 176 0
154 175 0
152 173 0
154 175 0
152 173 0
154 176 0
152 173 0
154 175 0
152 173 0
153 174 0
151 172 0
153 174 0
157 177 0
155 176 0
155 176 0
155 176 0
153 173 0
155 176 0
155 176 0
152 173 0
154 174 0
152 173 0
156 176 0
153 174 0
154 175 0
152 173 0
153 173 0
153 173 0
151 173 0
153 173 0
153 174 0
152 173 0
154 175 0
152 172 0
151 172 0
152 173 0
152 172 0
151 171 0
152 173 0
154 175 0
151 172 0
148 169 0
151 172 0
151 172 0
154 174 0
155 176 0
151 172 0
150 171 0
151 172 0
149 169 0
151 172 0
146 167 0
153 173 0
146 166 0
152 173 0
148 168 0
145 166 0
148 170 0
145 166 0
145 167 0
144 164 0
142 162 0
143 163 0
141 161 0
144 165 0
142 163 0
138 158 0
140 160 0
144 165 0
144 163 0
142 162 0
139 158 0
142 162 0
134 154 0
139 158 0
140 159 0
135 154 0
135 155 0
129 147 0
141 159 0
129 146 0
128 146 0
126 144 0
126 142 0
112 129 0
116 134 22
111 129 36
107 124 32
111 126 27
97 114 48
88 105 44
85 105 53
82 101 59
75 93 60
71 90 65
70 89 69
63 83 55
59 81 64
46 70 61
48 71 60
42 65 63
37 60 53
42 65 61
41 65 65
41 65 67
43 65 55
44 64 50
36 57 53
48 67 40
72 88 28
68 85 38
80 97 30
106 124 16
110 129 44
131 150 55
150 168 88
138 154 82
168 190 45
173 197 0
174 197 0
175 198 0
168 192 24
60 85 84
51 81 99
51 80 102
53 83 101
54 85 116
54 85 110
56 88 111
55 87 110
55 87 110
56 88 120
56 89 121
57 90 115
57 89 123
55 87 111
56 88 110
55 88 101
56 88 109
58 91 125
57 90 112
57 90 123
57 91 111
58 92 117
58 91 119
57 90 114
59 93 134
56 88 113
57 91 121
57 90 123
58 92 123
56 89 106
58 91 124
56 89 112
56 90 111
58 91 122
56 90 112
58 91 113
56 89 123
59 92 129
58 91 126
58 91 119
58 91 118
56 89 107
58 92 117
56 89 113
59 93 128
58 92 112
59 93 126
57 90 121
58 92 113
60 94 139
59 92 125
59 93 133
58 92 124
58 91 122
55 88 102
59 92 130
58 92 128
58 91 126
58 91 129
59 93 134
58 92 117
57 90 120
57 91 113
58 91 123
57 90 124
57 90 120
57 89 120
58 91 121
57 90 124
57 90 111
56 88 108
57 90 118
56 89 117
55 87 111
56 89 105
57 90 126
57 89 123
57 89 123
55 87 97
55 87 104
54 84 107
55 86 99
54 86 102
56 88 112
54 84 105
54 84 97
56 87 108
55 87 117
57 89 123
55 87 112
55 84 108
53 82 104
52 81 98
53 82 108
52 79 90
49 75 82
52 79 103
57 82 82
169 192 8
173 197 0
176 198 0
175 197 0
167 189 0
99 95 41
92 88 25
83 81 31
71 71 24
62 62 11
65 67 16
63 63 19
59 60 8
70 70 16
61 65 20
63 65 19
58 62 20
73 75 26
79 81 24
77 79 28
73 75 28
81 83 24
79 82 28
91 91 32
91 92 29
90 90 26
97 97 34
100 100 35
105 105 38
109 109 44
111 111 35
105 105 41
104 105 37
112 110 45
121 120 40
117 116 41
117 116 37
119 118 46
130 127 49
123 121 40
133 129 49
135 132 41
132 129 47
134 130 46
133 130 43
142 137 57
143 139 52
139 136 49
140 136 52
144 140 52
148 143 54
146 139 56
148 144 52
152 146 52
146 142 44
148 144 50
152 146 59
149 144 51
150 145 47
151 147 42
158 151 60
156 150 53
156 150 57
151 146 51
151 147 54
155 150 48
162 155 64
154 148 48
162 154 66
162 156 54
162 156 58
158 152 52
162 154 57
164 157 58
160 154 57
165 159 62
156 151 51
161 156 53
163 157 57
163 157 63
160 154 51
162 156 53
162 155 57
162 156 56
164 157 61
165 158 60
163 157 63
163 156 57
156 151 49
165 159 57
166 159 59
160 155 54
167 159 69
165 158 61
163 156 54
161 155 53
165 158 59
162 155 57
164 158 59
163 157 58
163 157 54
165 159 59
161 156 48
165 158 64
167 159 68
166 159 61
161 155 56
164 158 57
167 160 69
167 160 66
169 161 64
165 159 56
169 162 66
165 158 58
168 160 65
165 159 62
166 159 60
165 158 62
166 159 58
168 160 69
165 159 57
166 159 60
167 160 64
166 159 59
165 159 56
165 159 58
166 160 59
167 161 63
169 160 65
168 161 64
170 162 68
166 160 58
170 162 67
170 162 66
163 157 53
170 162 69
171 163 66
169 161 65
169 162 67
168 161 66
166 160 57
170 163 65
165 159 59
169 162 68
167 160 65
167 161 60
171 163 69
172 164 70
169 162 69
175 166 75
167 160 61
152 174 0
155 176 0
155 176 0
154 176 0
155 175 0
155 175 0
155 176 0
154 175 0
154 176 0
155 175 0
153 175 0
155 176 0
152 174 0
154 175 0
153 175 0
152 173 0
154 175 0
154 175 0
156 177 0
155 176 0
153 174 0
153 174 0
154 175 0
155 176 0
154 175 0
153 174 0
154 176 0
151 172 0
156 176 0
153 174 0
154 174 0
153 173 0
154 175 0
154 175 0
153 174 0
155 175 0
154 176 0
154 175 0
154 174 0
152 172 0
154 175 0
153 174 0
154 175 0
153 174 0
152 173 0
154 175 0
152 173 0
151 172 0
154 175 0
152 173 0
148 169 0
152 173 0
155 175 0
151 172 0
151 172 0
153 173 0
151 171 0
153 174 0
153 174 0
153 174 0
154 174 0
152 173 0
155 175 0
149 170 0
152 172 0
152 172 0
150 171 0
149 170 0
154 174 0
151 172 0
153 175 0
152 173 0
151 171 0
151 171 0
146 167 0
150 171 0
151 172 0
149 169 0
149 169 0
147 168 0
150 170 0
144 164 0
150 171 0
145 166 0
147 167 0
153 172 0
145 166 0
144 164 0
149 169 0
150 171 0
149 169 0
141 162 0
139 158 0
144 164 0
142 163 0
148 167 0
143 163 0
144 164 0
145 166 0
138 158 0
133 153 0
139 159 0
135 154 0
133 152 0
144 163 0
128 146 0
132 152 0
131 150 0
133 151 0
126 143 0
128 147 0
129 146 0
128 147 0
122 140 0
121 138 0
110 127 22
112 128 28
94 112 48
89 108 48
88 106 42
85 102 48
84 102 67
81 97 50
81 99 48
70 89 50
57 78 67
55 74 61
57 77 67
55 73 52
44 66 67
49 71 45
42 64 50
41 64 53
48 67 37
56 74 53
49 68 45
41 61 46
49 68 35
76 95 45
85 103 30
104 122 33
110 128 23
128 149 0
142 161 45
139 158 51
144 162 72
170 195 0
173 197 0
174 197 0
174 197 0
173 197 0
102 123 50
49 78 84
51 80 99
50 80 92
54 86 110
53 83 102
56 88 115
54 86 107
56 88 110
54 85 109
56 88 122
56 89 107
55 87 109
57 89 116
57 90 123
57 90 116
57 89 120
56 89 110
55 87 111
56 89 123
56 88 117
58 92 121
57 90 126
58 91 124
58 92 119
58 92 129
59 93 125
58 91 115
56 88 111
56 89 102
58 91 123
58 92 127
58 92 117
58 92 117
57 90 115
57 91 122
59 93 120
58 92 120
59 92 124
56 89 118
57 91 115
58 92 120
59 93 126
59 92 124
58 92 124
58 91 118
57 90 113
60 94 125
60 94 125
56 88 112
57 90 115
57 90 120
58 92 128
57 89 122
57 90 117
58 92 114
59 93 126
58 92 130
58 92 118
60 94 130
57 91 113
58 91 122
58 91 129
58 92 117
56 88 117
58 91 118
55 88 108
56 89 107
57 90 121
58 91 116
57 90 116
57 90 120
57 90 114
56 88 106
58 91 117
56 88 113
55 86 112
57 89 119
55 86 115
56 87 111
55 86 110
58 90 120
56 87 111
56 87 115
57 89 116
56 87 109
53 83 102
55 85 105
53 82 105
55 85 101
52 82 97
54 84 110
52 80 95
53 82 91
52 80 100
49 76 89
49 73 81
101 122 66
172 195 0
175 198 0
174 197 0
173 197 0
174 198 0
125 132 33
87 85 28
80 79 29
85 84 18
78 77 12
58 58 12
67 65 14
54 57 19
63 64 3
57 59 16
63 68 21
67 69 19
65 68 19
74 77 19
72 76 29
82 83 22
79 81 28
64 68 25
88 89 36
89 89 23
95 95 29
88 89 19
94 95 36
96 98 31
96 95 37
104 104 31
111 110 40
115 114 36
108 108 39
114 112 40
110 110 43
116 116 45
124 123 44
126 123 42
136 132 48
121 119 37
133 128 46
133 129 48
130 127 51
139 135 55
140 137 44
133 130 46
132 129 44
140 136 46
148 141 54
147 142 44
145 140 59
147 142 49
148 143 44
158 152 61
148 143 48
152 145 56
159 152 53
150 145 52
147 143 45
159 153 62
153 147 54
156 149 57
156 151 51
156 151 49
162 154 63
158 152 53
156 150 52
166 158 62
157 153 42
160 154 51
155 150 53
165 158 58
155 149 41
158 153 49
158 153 47
156 150 51
160 154 62
158 153 45
160 153 60
163 157 59
159 154 44
161 155 57
156 152 41
166 159 63
161 155 57
161 155 51
162 156 53
161 156 52
158 153 47
161 155 56
161 155 57
161 155 57
157 152 44
155 150 44
165 158 56
161 155 57
161 155 52
166 158 63
166 158 64
163 157 53
166 159 62
165 157 62
161 157 48
165 158 58
165 158 63
166 159 59
161 154 52
164 157 63
169 161 66
162 155 56
166 159 64
162 157 49
166 159 57
169 161 65
161 156 54
164 158 51
168 160 65
165 157 64
162 155 51
161 155 52
167 160 61
164 158 53
164 158 57
169 161 62
166 159 65
161 155 52
164 158 53
166 159 66
171 163 67
165 158 60
162 155 59
170 162 68
165 159 58
165 158 60
169 161 63
173 165 73
167 161 65
169 162 64
173 164 75
167 160 62
169 161 68
169 162 66
168 161 67
160 155 51
163 158 57
165 157 61
173 165 74
168 160 64
169 161 64
168 160 66
153 174 0
155 176 0
156 176 0
154 175 0
154 175 0
155 175 0
154 174 0
154 175 0
156 177 0
154 176 0
154 175 0
156 176 0
155 176 0
154 175 0
155 176 0
154 175 0
154 175 0
157 177 0
156 176 0
155 176 0
151 172 0
155 176 0
153 173 0
153 175 0
156 177 0
153 174 0
154 175 0
154 174 0
151 172 0
154 175 0
156 176 0
154 175 0
154 175 0
154 174 0
153 175 0
153 174 0
153 174 0
153 174 0
152 172 0
155 175 0
154 176 0
152 172 0
150 171 0
152 173 0
151 172 0
153 174 0
152 172 0
152 174 0
151 172 0
154 175 0
151 173 0
152 172 0
150 171 0
147 169 0
150 171 0
155 175 0
151 172 0
150 171 0
152 174 0
152 173 0
153 175 0
150 171 0
152 173 0
152 173 0
150 171 0
152 173 0
146 166 0
152 174 0
147 168 0
151 172 0
152 173 0
150 171 0
149 170 0
149 170 0
149 170 0
148 168 0
145 166 0
149 169 0
146 166 0
149 170 0
146 166 0
145 166 0
143 163 0
144 164 0
143 164 0
145 166 0
147 167 0
142 163 0
145 165 0
146 165 0
145 165 0
142 162 0
150 169 0
144 164 0
140 161 0
142 162 0
142 162 0
140 161 0
141 162 0
144 164 0
140 160 0
129 148 0
139 158 0
132 151 0
135 153 0
138 156 0
127 145 0
132 152 0
135 154 0
127 146 0
122 140 0
127 145 0
120 137 0
117 133 0
124 142 0
107 123 16
111 128 22
106 122 28
97 112 31
91 110 46
96 114 42
79 95 39
78 95 41
82 100 42
70 88 48
67 85 36
53 72 61
55 74 49
61 80 46
54 74 62
59 76 31
56 75 49
51 69 31
44 66 60
52 70 32
70 87 38
63 82 57
72 90 27
81 98 0
99 116 23
102 119 30
120 139 22
138 158 16
140 159 45
142 160 85
158 180 39
173 197 0
173 197 0
174 198 0
174 198 0
173 196 0
143 166 43
49 78 93
50 80 94
52 83 105
54 85 114
53 84 109
53 84 102
55 87 115
55 88 114
55 86 115
55 87 111
54 86 110
56 88 110
56 89 113
55 87 112
57 90 116
57 90 118
58 92 117
58 91 129
56 89 118
57 90 123
57 91 117
58 92 128
57 90 111
57 90 117
57 90 128
58 91 119
58 92 120
56 88 108
58 91 127
55 88 90
58 92 119
57 91 121
57 90 122
59 92 119
57 90 105
57 90 115
57 90 115
57 91 114
58 92 121
58 92 120
58 92 118
58 91 124
56 88 117
57 90 117
57 90 111
58 91 124
56 89 120
58 93 128
59 93 125
58 92 124
57 90 118
58 91 113
58 92 118
58 91 117
56 89 115
59 92 118
55 87 102
58 90 117
58 91 115
58 91 121
57 90 108
56 88 108
56 89 115
58 91 115
57 90 117
57 90 113
59 92 130
59 92 117
57 90 128
57 89 113
59 92 125
56 89 113
56 88 119
57 89 114
57 89 121
58 91 117
57 90 113
56 87 112
58 91 125
54 85 101
55 86 114
56 88 117
55 85 105
54 85 101
55 85 108
55 86 106
53 82 100
54 84 108
52 81 91
54 82 112
55 86 108
54 84 110
52 80 87
52 80 97
50 77 82
44 67 56
142 162 31
173 196 0
172 195 0
175 198 0
175 198 0
175 198 0
166 185 22
105 102 41
87 84 31
73 73 24
82 80 26
69 67 8
62 61 10
69 71 16
74 75 20
54 57 7
70 72 19
72 72 17
69 71 20
73 75 24
78 79 20
79 79 17
89 90 17
82 83 27
90 92 30
85 87 22
93 94 33
93 93 17
104 103 40
98 98 31
99 100 35
107 106 30
109 108 34
105 105 28
117 114 35
106 104 35
112 111 33
130 128 48
121 119 36
120 118 27
127 123 41
128 124 39
128 125 33
139 135 48
134 131 49
121 120 36
138 134 45
136 134 47
150 144 59
145 140 54
140 136 52
145 141 44
147 143 51
152 146 54
146 142 44
148 143 49
149 143 48
147 142 49
154 149 51
156 149 52
153 148 46
152 146 52
158 151 60
153 147 57
151 146 44
154 149 48
167 160 65
150 146 47
154 148 47
156 151 48
156 150 53
154 149 52
155 150 48
153 148 45
158 152 51
165 158 61
160 155 49
155 151 45
147 143 34
156 150 48
159 154 57
159 152 54
162 156 53
156 150 49
156 150 51
161 156 49
161 155 52
164 157 63
160 154 47
156 151 42
161 155 56
156 151 44
162 156 54
159 153 48
163 157 57
160 155 48
167 160 62
161 156 45
156 151 42
160 153 54
163 156 56
164 157 48
166 159 57
162 156 53
158 153 45
161 155 54
164 157 57
163 157 53
160 154 57
165 158 58
165 159 59
157 152 49
162 156 54
164 157 54
164 158 56
164 157 60
162 155 56
164 158 57
171 163 71
167 160 60
162 156 53
163 156 60
164 157 56
165 159 52
165 159 63
166 159 63
164 157 60
165 158 61
165 158 57
164 158 52
168 160 62
168 161 64
166 159 57
162 156 52
163 157 57
164 156 58
169 161 62
164 157 57
171 162 69
164 158 58
168 160 62
173 164 75
166 160 63
170 163 65
170 163 65
167 161 66
165 159 59
166 159 62
167 160 65
171 163 66
171 163 71
171 162 71
154 175 0
154 175 0
155 176 0
153 174 0
155 175 0
155 176 0
154 175 0
155 176 0
156 177 0
154 175 0
155 175 0
152 173 0
155 176 0
155 176 0
156 176 0
155 175 0
154 175 0
155 176 0
156 177 0
154 175 0
155 176 0
155 176 0
153 174 0
154 175 0
153 174 0
155 176 0
150 171 0
153 174 0
153 174 0
155 176 0
153 174 0
154 175 0
155 175 0
154 175 0
153 172 0
155 175 0
153 174 0
151 172 0
155 176 0
155 175 0
151 172 0
150 171 0
152 173 0
154 175 0
153 174 0
154 175 0
154 175 0
154 175 0
151 172 0
152 174 0
154 175 0
153 174 0
149 171 0
148 169 0
153 174 0
153 174 0
153 173 0
150 171 0
148 169 0
150 171 0
153 173 0
152 173 0
150 170 0
150 171 0
151 172 0
151 171 0
146 167 0
151 171 0
148 169 0
150 172 0
149 171 0
153 174 0
149 170 0
148 169 0
149 170 0
143 162 0
144 164 0
149 169 0
149 170 0
152 172 0
150 171 0
149 170 0
150 171 0
146 166 0
143 164 0
146 166 0
144 165 0
143 163 0
144 165 0
145 165 0
146 166 0
137 157 0
141 161 0
142 162 0
141 162 0
143 163 0
140 159 0
146 166 0
138 158 0
136 156 0
133 152 0
135 154 0
137 156 0
132 151 0
127 145 0
138 157 0
129 148 0
123 140 0
131 149 0
127 146 0
127 146 0
128 145 0
118 134 0
127 146 0
114 132 0
107 125 16
108 124 0
102 120 27
93 109 28
90 106 21
92 109 28
85 101 27
71 88 32
86 101 35
79 96 45
67 84 31
64 84 65
52 70 48
62 79 36
59 77 46
42 60 43
63 79 35
62 80 31
51 68 32
68 84 38
65 83 30
74 91 30
82 99 43
93 110 26
110 128 20
120 138 26
132 152 0
144 165 32
142 162 60
137 153 82
169 192 0
175 198 0
173 197 0
175 198 0
172 196 0
171 195 0
172 196 0
59 84 87
48 77 86
50 79 101
50 79 90
53 84 101
52 83 100
53 85 105
52 82 99
55 87 115
53 84 102
55 87 114
56 88 105
54 86 112
56 89 113
54 86 103
58 92 128
58 91 129
55 88 113
56 88 113
57 90 123
57 90 115
56 90 120
56 88 106
55 87 103
56 89 115
55 88 115
57 89 106
57 90 113
57 90 115
58 92 126
58 91 128
58 92 118
59 93 120
58 91 124
57 90 124
57 90 119
58 91 120
56 89 108
58 91 120
57 90 114
58 91 131
57 90 118
58 93 125
58 91 125
59 93 125
59 92 126
56 89 124
56 89 113
57 91 121
57 89 113
59 93 118
57 90 110
58 91 130
59 93 122
57 90 114
59 93 122
58 91 121
57 91 121
58 92 114
57 90 117
58 92 114
57 90 117
57 89 113
57 91 111
57 89 117
58 92 126
57 90 121
58 91 114
57 89 115
56 89 107
56 87 121
57 90 117
56 89 118
56 89 107
56 89 115
55 86 111
57 90 110
54 84 101
56 88 112
54 85 100
55 87 106
58 90 128
56 88 106
55 85 110
52 82 106
57 88 109
53 83 101
52 81 99
54 83 102
53 82 98
54 83 94
51 78 91
51 78 78
51 77 81
48 73 79
70 90 65
173 196 0
174 197 0
176 199 0
172 196 0
172 195 0
174 198 0
172 194 11
96 99 25
90 88 32
74 74 18
77 75 11
81 79 16
65 65 22
60 61 17
66 67 18
57 60 17
71 70 16
79 80 18
69 72 18
71 73 14
87 87 26
74 75 18
79 80 18
76 79 20
81 82 27
85 86 23
98 100 23
88 89 22
99 98 30
105 103 26
84 86 29
100 98 27
99 100 29
118 116 43
113 112 38
112 111 35
118 116 42
122 120 42
118 117 40
121 119 38
124 121 47
138 134 42
131 128 39
128 126 36
138 133 44
135 131 34
133 130 45
140 136 50
144 139 43
137 134 48
143 138 44
143 139 41
148 143 50
146 142 43
148 141 49
146 139 50
149 144 51
152 146 53
153 148 54
150 145 45
149 144 42
148 144 39
152 146 49
154 149 53
153 148 39
148 144 37
155 149 51
151 147 42
151 146 41
153 148 45
158 152 53
164 157 59
158 152 47
152 147 45
153 148 44
156 150 48
155 149 53
156 149 47
154 150 39
159 154 45
156 151 41
158 152 49
158 152 47
160 153 51
159 152 51
158 151 53
155 150 37
160 154 48
156 151 44
160 155 49
159 154 47
158 154 45
161 155 52
159 153 51
158 151 56
163 156 54
159 155 51
164 158 58
161 155 51
162 155 49
159 154 49
160 155 47
163 156 59
162 156 53
160 154 53
158 153 48
159 154 45
162 156 51
165 159 60
163 157 52
157 152 37
166 159 58
167 160 58
165 158 57
166 158 64
162 157 56
167 159 61
161 156 48
162 157 49
165 159 56
163 157 58
163 157 51
161 156 48
166 159 64
162 155 52
161 155 52
160 154 54
167 159 62
167 159 58
160 154 53
162 156 54
165 157 61
168 161 60
168 162 61
164 157 54
162 156 61
162 156 53
166 158 62
165 159 59
169 161 61
165 159 63
161 155 52
163 157 51
163 157 58
169 161 65
165 157 59
170 162 63
164 158 57
167 160 60
166 158 59
167 160 63
171 164 69
155 176 0
154 176 0
156 177 0
155 176 0
153 174 0
155 176 0
153 175 0
154 174 0
155 176 0
155 176 0
152 173 0
153 174 0
155 176 0
155 176 0
154 175 0
153 174 0
153 174 0
156 176 0
154 175 0
152 174 0
156 176 0
154 175 0
155 175 0
152 174 0
155 175 0
154 175 0
154 175 0
155 176 0
151 173 0
154 174 0
151 172 0
152 173 0
154 175 0
153 174 0
151 171 0
155 175 0
153 174 0
150 171 0
151 172 0
150 171 0
153 174 0
151 172 0
150 171 0
153 175 0
149 169 0
152 174 0
152 172 0
152 174 0
153 173 0
152 173 0
151 172 0
154 175 0
152 173 0
151 172 0
151 172 0
150 170 0
154 175 0
149 169 0
152 173 0
151 171 0
153 174 0
149 170 0
149 170 0
150 171 0
146 167 0
148 169 0
150 171 0
148 169 0
152 172 0
148 169 0
150 171 0
148 170 0
148 168 0
150 171 0
144 164 0
149 170 0
146 166 0
145 166 0
146 167 0
149 168 0
145 166 0
147 169 0
144 166 0
143 164 0
146 166 0
146 166 0
149 170 0
144 164 0
147 167 0
147 167 0
144 164 0
146 166 0
141 162 0
140 159 0
138 158 0
145 163 0
138 156 0
140 160 0
143 163 0
137 156 0
130 148 0
135 155 0
134 154 0
133 152 0
139 159 0
139 158 0
127 146 0
122 140 0
130 148 0
118 137 0
121 139 0
115 134 0
127 144 0
129 147 0
117 135 0
103 121 0
115 133 22
106 123 16
92 108 28
98 116 28
87 102 28
93 111 32
98 115 42
69 87 38
82 98 40
62 79 44
70 86 36
63 79 36
67 82 35
60 75 33
57 73 37
63 80 46
62 79 27
70 87 38
67 84 31
77 92 19
78 94 30
95 112 24
108 125 16
112 131 0
125 144 14
137 158 0
140 161 22
144 161 72
156 177 45
173 196 0
175 198 0
175 198 0
175 198 0
173 196 0
174 198 0
171 194 0
116 138 67
50 79 91
49 78 81
53 83 109
50 80 93
52 83 100
52 83 92
55 87 104
55 88 114
55 87 116
54 85 102
56 88 110
56 88 104
54 87 105
56 89 112
55 88 108
55 87 111
56 88 120
54 86 113
57 89 120
58 91 121
55 87 109
58 92 126
57 90 125
56 88 103
55 88 109
57 91 112
58 91 125
58 91 114
57 89 114
57 90 117
59 92 124
56 89 120
56 89 108
58 91 117
57 90 118
56 89 115
57 91 122
56 88 105
58 92 114
59 92 131
57 90 115
58 91 118
58 92 125
58 90 124
56 89 110
56 89 115
58 91 114
58 91 108
57 91 118
57 90 108
56 88 100
58 91 126
59 93 121
57 90 121
57 90 126
57 90 115
57 90 120
57 90 120
58 92 129
59 92 124
60 93 126
56 89 120
56 88 103
57 91 114
57 89 118
55 87 104
56 89 116
56 89 118
58 90 112
56 88 110
55 87 115
58 90 114
55 87 102
55 87 108
55 87 113
57 89 113
54 85 101
54 84 106
55 86 112
56 88 119
56 87 111
57 89 122
54 85 105
54 84 97
52 82 100
55 86 101
52 82 93
53 82 103
52 80 99
50 79 81
49 76 86
51 78 86
51 78 77
50 75 86
117 136 54
171 195 0
174 197 0
174 197 0
172 195 0
173 196 0
175 197 0
170 193 0
156 173 19
89 87 33
91 89 36
90 86 23
85 83 12
80 80 20
84 84 21
60 62 17
59 62 17
66 67 12
74 75 17
77 79 28
62 67 21
78 80 24
75 77 21
92 91 22
81 83 12
78 79 19
86 86 30
96 96 23
95 94 21
94 95 24
102 100 33
94 95 28
103 102 29
109 106 32
114 113 39
117 114 38
119 118 38
108 108 24
117 115 44
110 107 33
124 122 26
122 120 37
127 124 34
126 123 29
131 128 36
128 126 26
131 127 36
131 128 37
138 134 46
145 141 45
137 133 51
138 133 45
141 138 36
143 138 40
150 145 53
149 144 47
152 147 44
140 136 39
150 145 44
152 147 44
148 142 44
149 144 45
147 142 49
156 150 56
159 152 56
155 150 45
149 143 37
148 142 42
151 147 37
147 143 34
152 147 48
156 150 51
152 147 34
153 148 39
152 147 41
152 147 42
160 154 48
154 148 44
162 155 58
160 154 60
155 149 47
160 154 48
157 151 49
160 154 49
156 151 45
153 148 44
164 157 56
156 150 48
157 151 54
154 148 42
162 156 45
157 153 41
157 152 44
157 151 52
161 155 45
155 151 42
155 150 44
159 154 44
156 151 49
157 153 39
166 159 57
154 150 39
160 153 58
160 154 49
159 153 48
159 154 47
158 151 47
162 156 49
161 155 49
161 155 49
160 155 44
160 155 48
162 156 48
165 158 56
166 159 59
164 157 53
164 157 52
160 154 47
163 157 53
163 157 56
163 157 54
164 158 53
163 157 53
159 153 51
162 156 53
164 158 54
159 154 47
161 155 49
161 155 47
165 157 56
163 156 51
163 157 56
164 157 61
164 158 54
162 157 51
161 155 49
163 157 54
166 159 57
165 158 59
170 162 69
167 160 61
166 159 61
160 154 49
165 158 52
167 160 57
167 159 63
169 161 66
167 159 61
165 159 58
168 160 59
165 157 58
167 160 59
169 161 65
155 176 0
153 174 0
154 175 0
154 175 0
153 174 0
157 177 0
156 176 0
156 176 0
155 176 0
154 175 0
152 174 0
155 176 0
153 174 0
153 174 0
153 174 0
155 175 0
153 175 0
155 176 0
154 174 0
153 175 0
155 176 0
152 173 0
154 175 0
152 173 0
152 173 0
153 174 0
154 175 0
153 174 0
154 175 0
153 174 0
153 173 0
154 174 0
153 173 0
151 172 0
150 171 0
152 173 0
151 172 0
153 174 0
152 171 0
151 172 0
153 174 0
149 171 0
152 173 0
151 172 0
153 174 0
150 171 0
151 172 0
152 173 0
152 172 0
148 169 0
152 172 0
153 173 0
151 173 0
150 171 0
154 174 0
155 175 0
149 169 0
152 172 0
151 171 0
150 171 0
152 172 0
148 169 0
149 170 0
152 173 0
152 173 0
151 172 0
148 169 0
149 170 0
150 170 0
149 170 0
146 167 0
144 164 0
144 165 0
152 173 0
144 165 0
150 170 0
146 166 0
149 169 0
144 165 0
145 165 0
146 167 0
150 170 0
143 163 0
142 163 0
142 163 0
146 167 0
141 161 0
143 162 0
145 166 0
138 159 0
137 157 0
139 159 0
139 159 0
137 157 0
140 161 0
139 159 0
138 158 0
139 158 0
133 152 0
136 157 0
132 152 0
139 160 0
133 151 0
133 152 0
125 144 0
131 149 0
124 142 0
132 151 0
116 134 0
125 144 0
117 135 0
122 142 0
113 131 0
121 139 0
119 136 0
116 133 0
108 125 0
106 122 16
108 123 22
98 115 16
93 109 16
96 111 22
85 101 42
77 92 16
82 97 31
66 82 32
70 87 38
61 75 25
74 89 31
60 78 31
70 86 31
57 76 45
74 91 27
78 94 25
60 77 42
86 103 27
95 112 34
106 123 16
107 124 9
128 146 16
125 145 0
143 163 0
133 153 0
135 152 72
173 197 0
175 198 0
175 198 0
174 197 0
172 196 0
172 196 0
173 197 0
174 197 0
163 186 18
50 80 92
50 79 75
53 83 108
52 82 91
52 83 97
54 85 103
55 87 107
53 84 99
54 85 93
52 83 97
56 88 103
54 85 91
53 85 97
55 87 111
56 89 109
56 89 112
56 89 106
57 90 113
58 91 126
54 85 110
57 90 119
58 92 114
55 88 107
56 90 120
55 88 95
57 90 115
57 89 109
57 90 123
56 88 107
58 91 124
57 91 110
56 89 111
56 89 114
57 90 109
54 85 100
58 92 119
58 92 124
57 90 120
58 91 105
54 86 105
56 88 110
57 90 110
58 91 124
57 90 125
57 90 115
59 93 121
59 93 128
58 91 117
56 89 108
58 91 120
57 90 115
59 92 130
58 91 121
56 88 111
59 93 118
59 92 128
56 88 108
57 90 117
57 90 123
57 90 111
57 90 111
56 88 108
55 87 113
54 86 102
56 88 107
59 93 131
56 88 105
56 88 105
56 89 108
55 87 111
56 88 121
56 88 118
55 86 110
56 88 118
56 87 112
53 84 107
55 87 112
57 89 108
56 88 110
55 87 112
57 88 115
56 88 107
55 86 108
54 84 97
55 85 108
54 83 107
52 81 103
54 84 96
52 79 94
52 80 99
49 74 79
50 77 73
49 74 77
55 79 72
164 187 21
174 197 0
172 195 0
170 194 0
173 197 0
172 195 0
171 195 0
174 197 0
169 193 0
116 119 38
102 99 41
91 89 33
69 68 1
72 72 9
72 71 14
69 72 20
74 75 23
81 80 11
64 66 22
65 67 21
70 70 9
83 84 20
82 82 19
73 75 16
80 81 17
83 84 20
97 96 20
89 91 28
87 88 12
100 100 26
96 97 26
105 104 30
100 100 21
112 111 29
104 103 23
105 104 20
108 106 31
120 118 33
113 113 33
124 120 31
127 124 37
122 119 38
125 122 33
120 118 34
128 124 35
126 124 29
133 131 34
129 127 38
131 129 24
142 138 46
134 130 33
131 129 27
140 135 46
131 127 33
146 140 35
147 143 46
150 145 45
143 139 34
144 139 44
148 143 41
146 141 37
147 142 39
151 145 44
155 148 49
150 145 37
155 149 53
156 152 42
147 142 41
154 148 44
145 141 37
152 147 45
153 148 36
155 149 44
159 153 49
151 147 34
152 147 42
157 152 42
150 145 39
156 151 42
151 147 41
152 147 39
154 149 45
157 152 48
157 151 52
155 150 37
158 152 48
157 152 47
159 154 47
158 152 49
154 148 48
158 151 47
160 154 47
160 154 48
158 153 44
154 149 28
157 151 47
152 147 36
155 150 36
160 154 53
158 153 45
160 155 45
159 153 49
157 151 39
158 153 44
159 152 51
159 154 49
158 153 48
159 153 45
157 151 41
160 153 51
159 154 42
160 154 45
166 159 61
162 157 48
162 156 53
164 157 49
163 156 52
161 155 47
164 156 60
162 156 51
158 152 45
157 152 45
159 154 53
163 155 58
164 156 54
158 153 47
163 157 54
162 156 57
162 155 56
166 159 61
162 156 49
160 155 47
162 156 53
163 156 56
162 155 54
164 156 57
163 158 52
165 158 54
165 158 52
163 156 56
163 157 57
162 155 58
163 156 48
167 160 61
164 158 53
165 158 58
166 159 57
165 158 59
165 158 51
164 157 53
169 161 63
167 159 67
166 158 59
152 174 0
156 176 0
155 176 0
156 177 0
156 176 0
155 177 0
154 175 0
154 175 0
155 176 0
153 173 0
156 175 0
155 175 0
150 171 0
153 175 0
154 175 0
153 174 0
155 176 0
152 173 0
155 176 0
155 176 0
151 172 0
152 174 0
154 175 0
153 174 0
153 174 0
153 175 0
153 173 0
154 175 0
154 174 0
152 174 0
155 175 0
154 175 0
154 174 0
155 175 0
153 174 0
153 173 0
152 173 0
153 174 0
151 171 0
153 174 0
152 173 0
151 173 0
154 175 0
152 173 0
153 173 0
152 173 0
152 172 0
150 171 0
148 169 0
149 170 0
151 172 0
152 173 0
149 170 0
152 173 0
150 171 0
151 173 0
151 171 0
149 169 0
151 172 0
150 170 0
147 169 0
149 170 0
153 173 0
150 171 0
149 170 0
147 167 0
147 168 0
148 168 0
150 171 0
146 167 0
145 166 0
145 165 0
150 170 0
147 168 0
150 170 0
145 166 0
144 165 0
141 162 0
144 165 0
140 160 0
141 161 0
150 170 0
143 163 0
142 162 0
142 163 0
145 165 0
144 164 0
144 164 0
138 159 0
140 160 0
139 159 0
141 161 0
144 165 0
135 155 0
137 156 0
136 155 0
138 157 0
140 161 0
138 158 0
128 147 0
137 157 0
136 156 0
129 147 0
136 155 0
130 149 0
131 150 0
131 151 0
130 148 0
126 145 0
125 144 0
122 140 0
119 136 0
118 137 0
116 132 0
126 142 0
113 130 0
107 123 0
104 119 0
103 119 0
107 123 22
98 112 0
95 112 32
86 101 27
82 97 31
93 107 28
77 93 16
78 94 40
65 81 31
67 82 28
79 93 31
70 85 21
72 87 29
80 96 27
62 78 14
88 104 19
83 99 28
107 124 16
99 117 14
116 135 22
135 153 0
142 163 0
137 158 0
132 150 22
161 182 39
170 193 0
170 194 0
172 195 0
173 196 0
173 196 0
173 195 0
173 196 0
174 197 0
171 195 0
108 129 63
51 81 87
50 79 94
51 80 90
54 86 101
55 87 100
53 83 99
57 89 112
56 88 108
54 86 103
55 87 99
56 88 121
54 85 103
55 87 107
55 88 112
58 91 104
54 85 99
54 86 106
57 89 121
57 90 117
57 90 116
57 90 111
58 91 115
56 88 105
56 88 114
57 91 117
55 88 99
55 88 105
57 89 118
59 93 133
57 90 114
57 90 118
56 89 108
56 89 113
58 92 125
57 90 115
57 90 110
55 87 113
56 89 118
57 91 117
56 89 110
57 90 111
58 91 125
59 93 139
56 89 111
56 89 117
56 89 105
58 92 118
57 90 117
57 91 110
58 92 124
57 89 120
57 90 111
55 88 103
56 89 113
56 88 114
58 91 120
58 91 118
56 89 108
58 92 129
58 91 124
58 91 117
53 84 99
56 89 109
58 90 128
57 90 118
57 90 117
59 92 131
57 90 117
57 89 118
55 87 115
58 91 113
55 86 105
56 88 110
55 86 107
57 88 114
55 86 104
55 86 114
56 87 110
55 87 104
55 87 105
56 87 110
55 85 115
52 82 99
55 85 103
55 85 107
51 80 101
52 80 99
50 78 78
53 81 97
50 78 87
48 74 76
47 72 74
96 115 53
168 191 0
170 192 0
172 196 0
171 195 0
170 194 0
168 191 0
173 196 0
172 194 0
171 194 0
152 170 18
103 99 33
77 75 24
85 84 12
84 82 14
82 81 23
67 68 12
87 85 11
75 74 19
72 73 14
76 77 14
83 84 17
75 75 16
86 87 12
69 72 20
71 72 8
83 84 22
103 101 23
91 90 18
90 90 18
95 95 21
97 97 16
102 100 18
106 106 21
104 103 25
88 89 22
117 115 29
111 110 30
113 111 33
120 117 36
110 108 28
120 117 24
120 118 28
128 125 37
131 129 30
128 125 29
135 131 46
134 130 36
131 127 34
143 139 26
138 135 31
142 136 44
134 131 37
131 128 35
144 139 47
135 131 39
136 130 40
148 142 39
146 139 44
145 140 39
150 144 45
151 146 34
145 138 39
145 140 25
148 142 42
150 145 44
150 146 34
150 146 39
153 147 41
148 143 42
146 141 39
152 146 42
150 146 34
151 147 37
153 148 44
153 147 42
149 145 34
151 147 34
152 146 36
153 147 37
150 145 39
148 144 36
153 149 41
154 148 41
156 151 39
152 147 36
157 150 39
154 149 37
150 146 30
159 152 47
159 152 45
154 150 34
154 149 37
155 151 39
157 152 42
154 150 41
158 152 49
156 151 39
159 154 47
155 150 37
158 152 41
156 151 39
157 152 41
158 152 41
160 154 53
157 151 37
159 154 45
164 157 54
154 150 37
160 155 47
162 156 54
159 154 48
159 154 44
158 152 42
155 150 39
157 153 41
161 155 54
160 154 47
160 154 49
162 155 49
159 154 45
162 156 48
161 155 49
161 155 54
162 156 45
164 157 57
158 152 45
163 157 53
159 153 45
163 156 53
160 155 47
160 155 48
165 158 58
161 155 47
162 156 53
165 158 58
162 155 52
165 159 53
162 155 53
167 160 59
164 157 56
166 159 56
162 155 49
164 158 52
160 155 45
164 157 53
164 157 54
165 158 61
162 155 54
161 155 51
166 158 53
161 154 51
164 158 58
163 156 52
155 176 0
156 176 0
154 175 0
153 174 0
155 176 0
156 176 0
153 175 0
154 175 0
155 175 0
154 175 0
155 176 0
153 173 0
154 175 0
154 175 0
154 174 0
153 174 0
151 172 0
154 174 0
154 175 0
152 172 0
156 176 0
154 175 0
155 176 0
152 174 0
153 173 0
153 173 0
151 172 0
150 172 0
153 174 0
153 174 0
152 173 0
154 175 0
150 171 0
155 175 0
156 176 0
151 173 0
152 172 0
151 172 0
153 174 0
153 174 0
150 171 0
150 171 0
154 175 0
152 173 0
150 171 0
149 170 0
149 170 0
151 171 0
151 172 0
151 172 0
151 172 0
152 172 0
152 172 0
151 172 0
148 168 0
151 172 0
147 167 0
151 172 0
154 175 0
149 169 0
149 170 0
149 169 0
149 169 0
149 170 0
144 164 0
147 168 0
147 167 0
151 171 0
147 167 0
147 167 0
145 166 0
145 165 0
152 171 0
148 168 0
145 166 0
146 166 0
147 167 0
147 167 0
147 168 0
150 170 0
144 164 0
146 167 0
142 162 0
140 160 0
142 161 0
144 164 0
143 163 0
144 163 0
145 165 0
141 161 0
139 159 0
144 164 0
141 161 0
137 158 0
138 159 0
140 160 0
135 155 0
140 161 0
127 145 0
137 156 0
134 154 0
140 160 0
130 149 0
135 154 0
138 158 0
133 153 0
127 146 0
123 142 0
134 153 0
128 147 0
118 136 0
124 142 0
120 139 0
122 139 0
116 134 0
118 136 0
105 121 0
95 111 0
109 125 0
103 119 0
95 110 22
91 107 16
86 101 22
82 97 21
76 92 22
82 97 32
81 97 27
74 89 35
82 98 32
67 84 35
73 88 27
76 91 31
76 91 32
88 102 0
93 110 0
106 123 0
107 124 0
123 142 0
132 151 0
126 145 0
135 156 0
141 160 22
136 155 39
172 195 0
171 194 0
171 195 0
170 194 0
171 194 0
170 195 0
171 195 0
172 195 0
171 195 0
172 196 0
159 182 30
50 78 73
51 80 89
49 78 91
50 80 77
54 86 95
52 84 103
54 86 104
54 86 114
54 85 98
54 86 113
55 87 110
55 87 103
52 83 98
55 87 105
55 87 105
56 89 103
55 88 103
56 88 113
56 89 115
55 87 100
57 89 121
57 90 108
57 90 106
57 91 110
56 88 103
55 88 105
58 91 114
55 87 99
55 88 105
56 89 114
57 91 108
55 88 113
55 87 105
56 89 109
57 89 111
57 90 115
59 92 130
58 91 113
57 90 117
57 90 116
56 89 115
57 90 107
57 90 118
57 90 105
59 92 130
57 90 120
56 89 117
56 89 100
54 87 95
57 90 108
55 87 90
56 89 115
55 87 111
53 85 102
56 89 110
55 87 117
56 88 108
57 90 120
57 90 105
57 90 115
56 89 103
58 91 124
57 90 114
58 91 120
56 88 102
57 90 120
53 83 96
58 92 118
55 87 108
55 86 112
55 86 114
57 88 120
55 86 105
56 88 115
56 87 103
55 86 116
51 81 95
55 87 110
52 82 101
56 88 111
55 86 108
54 83 106
51 80 92
55 86 112
49 77 85
53 82 92
50 77 84
49 77 74
49 76 90
52 80 94
49 75 76
54 78 71
160 183 25
170 194 0
173 196 0
169 192 0
172 195 0
172 196 0
170 194 0
174 197 0
172 196 0
170 193 0
173 197 0
113 112 37
84 82 24
97 93 29
87 86 25
84 82 11
80 78 8
78 75 20
71 72 14
78 78 0
71 72 13
77 78 17
86 82 12
86 83 12
88 86 11
83 83 14
91 90 18
91 91 19
89 87 20
84 84 14
96 96 20
90 88 8
89 90 23
105 102 21
99 99 21
117 116 25
122 118 30
110 107 29
113 112 28
116 114 24
113 111 23
124 121 28
126 123 24
116 113 32
127 124 35
131 127 28
122 119 26
126 122 23
131 129 33
129 125 36
124 123 35
132 128 32
134 130 37
138 135 21
139 135 28
134 130 32
143 138 41
140 137 36
142 137 36
138 135 30
148 141 42
141 138 25
146 142 39
147 142 34
143 139 25
146 142 32
144 140 30
147 143 36
150 145 34
156 151 45
152 147 36
146 142 30
150 146 25
155 150 42
145 142 25
150 146 36
156 152 42
150 143 36
151 147 28
153 149 34
151 147 32
158 152 41
155 150 37
159 152 44
153 147 34
152 147 37
149 145 32
151 147 37
152 147 37
155 150 42
152 147 34
153 149 32
154 149 37
155 151 32
153 149 34
152 147 30
157 152 41
154 149 37
160 154 44
154 148 39
159 153 47
160 154 51
155 149 39
154 149 37
152 148 36
160 155 41
156 150 37
162 157 47
156 150 42
158 151 48
164 158 53
157 151 44
160 154 45
162 157 52
160 154 44
165 158 53
159 153 47
161 155 45
158 151 53
163 156 51
157 151 42
157 151 37
158 153 42
162 154 51
161 155 49
161 155 47
162 155 49
163 156 54
162 155 49
159 152 44
165 158 53
165 158 58
162 156 52
161 156 42
163 157 49
166 160 56
160 155 48
163 156 48
161 156 47
166 159 53
161 155 51
165 158 54
163 157 57
164 157 54
165 158 54
163 156 52
167 160 61
166 159 59
163 156 56
164 157 56
166 158 57
162 155 53
167 159 58
165 158 54
155 176 0
153 174 0
153 174 0
156 176 0
154 175 0
153 173 0
154 175 0
155 176 0
155 176 0
156 177 0
152 172 0
153 173 0
155 176 0
154 175 0
154 175 0
156 176 0
153 174 0
151 172 0
152 173 0
151 172 0
153 174 0
153 174 0
153 174 0
154 174 0
154 175 0
153 174 0
154 175 0
155 175 0
154 175 0
153 173 0
152 173 0
152 172 0
150 170 0
151 172 0
154 175 0
152 173 0
153 174 0
150 171 0
152 172 0
152 172 0
152 174 0
148 169 0
153 173 0
151 172 0
149 171 0
149 170 0
148 169 0
148 169 0
151 172 0
153 173 0
153 174 0
151 171 0
153 173 0
149 170 0
150 170 0
151 171 0
147 167 0
150 170 0
149 171 0
147 168 0
152 172 0
146 166 0
153 174 0
148 168 0
150 171 0
146 167 0
148 167 0
147 168 0
152 173 0
146 167 0
146 168 0
147 169 0
143 164 0
152 173 0
145 166 0
147 167 0
145 166 0
144 164 0
144 164 0
145 166 0
147 167 0
143 165 0
144 164 0
138 159 0
143 163 0
145 165 0
137 158 0
142 162 0
144 165 0
139 160 0
136 156 0
143 163 0
142 163 0
141 161 0
134 153 0
134 153 0
138 158 0
134 154 0
130 148 0
134 153 0
130 150 0
132 152 0
124 143 0
132 151 0
131 151 0
131 151 0
133 152 0
127 145 0
131 150 0
120 138 0
123 142 0
115 134 0
115 133 0
114 130 0
122 139 0
105 122 0
109 125 0
109 126 0
101 117 0
107 123 0
103 120 0
103 118 22
97 113 0
91 106 0
87 101 14
73 88 16
81 96 0
78 92 16
87 103 0
87 101 24
86 99 16
84 99 16
93 108 14
92 107 0
101 117 16
114 131 0
115 133 0
119 137 0
121 140 0
141 160 0
135 154 0
125 142 22
161 183 32
172 195 0
173 197 0
174 197 0
170 194 0
167 191 0
168 192 0
168 191 0
172 195 0
167 191 0
170 194 0
173 196 0
117 139 50
46 74 82
48 77 73
47 76 81
51 80 91
50 81 81
54 86 106
52 82 95
53 85 98
54 86 109
54 85 95
52 82 97
56 88 117
55 88 105
56 88 106
55 88 108
56 89 109
57 90 119
55 87 110
55 87 100
56 88 114
55 88 108
55 87 102
57 90 117
56 88 113
55 88 108
55 86 94
55 87 103
56 89 110
55 87 100
56 88 106
56 88 120
54 85 95
56 89 118
57 90 118
56 89 117
58 91 119
57 90 108
55 86 107
56 89 110
54 86 98
57 90 113
59 93 118
58 91 115
58 91 110
56 89 110
57 90 113
56 89 113
58 91 120
59 93 124
57 90 120
55 88 108
58 90 118
57 90 110
58 91 123
57 90 111
58 90 113
58 92 120
55 88 113
55 87 103
58 92 117
57 89 107
58 90 122
57 90 117
58 91 122
54 85 103
57 89 114
55 87 117
54 86 107
55 87 111
56 88 118
57 90 117
55 86 108
57 89 108
56 87 112
56 88 110
54 84 104
55 85 104
53 83 104
54 83 103
54 84 102
54 84 96
53 83 102
53 83 104
53 83 96
52 80 94
54 84 105
53 82 88
52 80 81
50 78 87
48 73 73
109 129 56
171 194 0
169 192 0
169 192 0
171 194 0
169 191 0
169 192 0
174 197 0
169 193 0
165 187 0
172 194 0
170 193 0
159 177 11
93 91 19
85 83 19
87 84 30
92 89 29
76 74 18
88 85 21
80 79 16
82 81 20
69 71 24
69 67 12
84 83 12
71 73 12
83 82 12
81 80 8
78 78 14
87 88 18
96 96 14
97 96 14
93 91 14
97 95 12
106 105 14
95 94 18
90 90 16
106 104 25
95 96 11
106 104 22
108 106 0
110 108 29
113 112 22
121 119 8
122 119 19
120 117 26
123 118 28
127 124 28
128 125 30
122 120 21
126 125 32
128 124 32
139 135 24
135 132 30
144 139 41
135 131 25
138 134 30
134 131 24
133 129 34
139 134 22
141 136 37
134 132 25
142 135 32
144 139 34
145 140 36
144 139 34
143 139 34
147 143 28
145 140 30
140 136 42
146 140 36
150 144 41
149 144 36
143 139 30
151 146 37
146 141 32
152 148 32
149 145 36
149 144 36
147 143 32
153 149 36
154 149 47
151 146 34
151 147 28
152 147 34
152 148 34
148 144 25
154 149 44
151 146 37
155 149 45
154 149 30
152 147 34
154 149 36
154 150 34
155 150 32
150 145 34
148 143 25
156 151 36
155 150 41
151 147 28
157 152 44
151 146 25
153 147 32
155 151 34
153 148 34
158 153 34
151 148 32
159 153 44
157 152 42
153 148 36
157 152 42
156 151 37
160 155 45
153 148 36
159 152 49
157 152 37
156 152 41
157 150 44
152 147 37
153 148 37
161 155 42
161 155 49
157 151 41
157 151 42
162 156 45
158 154 37
159 153 44
161 156 47
160 154 49
159 153 44
160 154 45
164 157 54
160 154 42
160 154 41
160 155 42
165 158 52
161 156 47
160 153 49
162 156 52
164 157 47
165 159 54
162 155 47
162 154 51
163 157 53
161 156 44
166 157 59
168 159 62
162 156 48
165 157 59
163 157 51
161 155 48
165 158 54
162 156 51
166 158 60
163 157 53
166 159 63
154 175 0
154 175 0
154 175 0
154 175 0
153 174 0
154 175 0
154 175 0
156 176 0
154 175 0
156 176 0
153 174 0
153 173 0
152 174 0
154 175 0
154 175 0
153 175 0
151 171 0
152 174 0
152 173 0
154 175 0
150 171 0
151 172 0
154 175 0
152 173 0
150 170 0
154 175 0
150 170 0
151 172 0
152 173 0
152 173 0
155 175 0
151 171 0
152 173 0
153 174 0
153 174 0
151 172 0
152 173 0
151 172 0
152 172 0
151 172 0
149 170 0
152 173 0
151 173 0
148 169 0
149 170 0
151 172 0
151 172 0
152 173 0
153 173 0
152 173 0
150 170 0
148 168 0
150 171 0
148 168 0
148 168 0
151 171 0
150 171 0
151 172 0
148 168 0
147 168 0
149 169 0
148 169 0
148 168 0
148 168 0
146 166 0
144 166 0
149 169 0
148 168 0
146 167 0
145 166 0
146 166 0
149 169 0
145 166 0
148 169 0
141 160 0
138 158 0
145 165 0
144 165 0
145 165 0
145 164 0
142 163 0
143 164 0
143 163 0
142 162 0
140 160 0
140 160 0
143 163 0
139 159 0
141 161 0
140 160 0
139 160 0
134 153 0
137 158 0
139 159 0
134 153 0
131 150 0
134 154 0
129 148 0
135 155 0
138 158 0
129 148 0
134 154 0
134 154 0
127 146 0
128 148 0
123 142 0
139 157 0
125 142 0
127 147 0
129 148 0
121 139 0
116 135 0
123 141 0
115 133 0
106 123 0
107 124 0
114 132 0
103 120 0
108 125 0
98 113 0
103 119 0
102 117 0
91 107 0
99 113 0
91 105 0
97 112 0
93 108 16
78 91 0
88 101 14
91 105 0
95 110 0
93 109 22
95 110 0
102 117 0
103 118 0
115 131 0
111 130 0
113 132 0
129 148 0
127 146 0
128 146 22
144 164 45
172 195 0
172 195 0
171 194 0
171 194 0
170 192 0
173 196 0
170 193 0
171 193 0
171 195 0
169 192 0
172 197 0
170 193 0
157 180 25
62 86 72
50 79 90
49 78 77
51 81 91
54 85 110
53 83 101
52 82 84
54 85 92
55 87 108
53 84 93
55 87 110
54 85 96
55 87 100
55 87 118
57 90 121
56 89 99
55 88 112
55 88 111
54 86 102
55 87 109
54 86 97
57 90 122
57 90 126
54 86 101
55 87 110
54 85 102
56 89 118
56 89 122
59 92 120
56 89 97
58 91 111
57 89 114
55 88 114
57 89 114
58 91 123
57 90 122
56 89 115
59 92 122
56 89 118
55 87 109
55 87 114
58 91 119
58 92 114
56 88 102
58 91 120
56 89 110
58 90 122
56 89 115
58 92 115
57 90 117
56 89 113
56 89 107
56 88 109
55 88 108
57 90 111
57 90 113
56 89 107
56 88 110
56 89 105
57 90 114
57 90 117
57 90 113
55 87 105
56 88 105
56 88 105
53 84 96
56 88 117
56 88 108
54 85 99
56 88 113
53 84 94
56 89 108
54 85 107
55 86 103
55 85 104
55 86 110
54 84 104
55 86 104
54 85 103
52 82 89
52 80 97
52 81 93
51 80 87
53 83 89
52 80 89
51 79 90
54 83 103
51 78 84
48 73 77
50 73 65
156 179 25
169 193 0
170 193 0
170 193 0
167 190 0
169 192 0
169 190 0
170 193 0
170 193 0
168 190 0
170 193 0
170 193 0
172 194 0
137 147 29
85 84 30
99 96 34
83 80 26
89 87 20
84 82 22
75 74 8
88 87 16
70 70 8
87 85 11
95 91 12
91 90 18
80 80 16
96 94 11
93 92 19
93 91 16
98 97 12
95 93 23
98 97 20
98 97 18
93 94 8
98 98 14
95 94 18
101 98 20
106 106 14
108 107 22
112 111 22
113 111 16
108 106 25
116 113 22
122 120 30
124 121 19
130 127 19
111 109 35
117 115 22
128 125 25
121 120 21
121 119 26
132 129 27
132 129 18
133 130 19
137 133 32
128 125 21
137 132 26
134 129 28
141 135 39
149 143 36
135 131 36
140 136 22
139 135 30
146 142 16
138 134 22
148 144 30
144 140 19
139 134 22
144 140 22
144 139 28
145 141 19
145 140 30
147 143 25
147 142 28
145 141 28
148 144 25
150 145 28
145 141 22
149 144 19
149 143 37
147 143 32
149 146 25
147 143 25
152 147 28
150 147 22
157 152 37
152 148 25
154 149 37
152 147 25
154 148 30
152 148 32
157 151 37
156 151 39
153 149 32
157 152 39
149 145 22
154 150 25
154 148 36
155 150 34
153 148 32
154 149 36
155 149 37
154 149 28
151 146 25
157 151 45
156 152 41
155 150 37
154 148 37
152 147 30
154 149 28
158 153 30
151 147 28
160 154 37
151 148 25
159 154 42
157 151 42
157 152 34
153 147 34
158 153 42
154 149 36
159 154 41
161 155 39
159 153 49
163 156 49
158 152 44
155 151 34
159 152 48
157 150 39
158 154 42
160 155 44
160 154 41
160 156 45
160 156 42
159 154 42
161 154 48
160 153 42
159 153 44
157 151 41
161 154 47
159 154 36
160 155 45
158 152 37
161 155 44
162 154 49
160 155 41
162 156 51
163 157 52
159 153 47
160 154 39
163 157 48
159 153 41
165 159 58
163 156 49
165 158 54
162 156 48
153 174 0
155 175 0
154 175 0
151 172 0
155 176 0
152 173 0
154 174 0
152 173 0
151 172 0
153 174 0
152 173 0
150 171 0
154 175 0
153 174 0
153 174 0
154 175 0
154 175 0
153 175 0
151 173 0
152 173 0
152 172 0
152 174 0
153 174 0
154 175 0
153 174 0
151 173 0
154 175 0
150 171 0
151 171 0
153 174 0
152 173 0
151 172 0
152 173 0
151 172 0
152 173 0
153 174 0
154 175 0
147 167 0
151 172 0
151 172 0
152 172 0
152 173 0
152 173 0
151 172 0
150 172 0
154 175 0
152 173 0
148 169 0
149 169 0
152 173 0
151 171 0
150 171 0
146 167 0
148 169 0
151 171 0
147 167 0
149 169 0
153 173 0
151 172 0
147 167 0
150 171 0
148 169 0
145 165 0
144 164 0
146 167 0
142 162 0
148 169 0
146 166 0
142 163 0
144 163 0
149 169 0
147 167 0
148 168 0
146 167 0
146 166 0
146 166 0
144 164 0
142 163 0
142 162 0
146 166 0
140 160 0
141 161 0
145 165 0
144 163 0
137 157 0
143 163 0
140 159 0
142 162 0
146 166 0
143 162 0
141 161 0
137 155 0
138 158 0
131 151 0
131 151 0
135 154 0
138 157 0
132 152 0
135 153 0
130 150 0
131 151 0
131 151 0
123 142 0
123 141 0
125 144 0
136 155 0
129 147 0
124 143 0
122 141 0
125 143 0
122 140 0
121 139 0
119 137 0
117 135 0
114 131 0
113 130 0
108 124 0
110 126 0
90 108 0
99 115 0
100 116 0
102 117 0
94 109 0
93 107 0
91 106 0
89 103 0
101 116 0
101 116 0
102 116 0
101 116 0
92 107 16
101 116 0
111 127 0
120 137 0
110 125 0
116 134 0
119 137 0
127 146 0
131 149 0
125 144 0
132 150 39
170 193 0
168 191 0
170 193 0
169 192 0
172 196 0
171 194 0
171 194 0
166 189 0
170 193 0
167 190 0
168 192 0
168 191 0
169 192 0
171 195 0
117 140 53
47 75 66
49 78 82
50 79 82
54 85 98
54 86 96
55 87 112
51 81 89
55 87 110
54 85 107
55 87 95
53 84 113
55 87 116
53 85 86
55 87 94
56 88 103
56 88 108
56 89 111
57 90 116
55 87 104
53 85 98
56 88 95
54 86 97
56 89 108
56 88 100
56 89 114
55 87 97
55 87 106
57 90 125
55 87 111
56 89 110
55 87 105
55 88 102
56 88 111
53 85 103
57 89 117
56 88 111
57 90 110
55 86 103
56 89 108
56 88 107
56 89 110
56 88 108
57 90 107
57 90 110
59 92 122
56 89 113
55 87 102
57 90 114
56 87 107
56 88 102
56 88 98
57 90 107
54 86 107
57 90 115
55 86 105
55 88 102
57 89 112
55 86 102
56 89 113
57 89 113
55 86 110
55 87 102
55 87 107
57 89 108
54 86 90
57 89 114
57 89 121
56 89 113
56 89 104
57 90 116
53 84 102
54 85 94
55 86 104
52 82 95
52 83 88
55 87 109
53 84 93
54 86 107
50 79 88
54 83 84
51 79 92
53 82 95
51 79 85
51 79 94
52 79 95
48 75 83
51 79 95
47 73 67
115 134 39
168 190 0
166 190 0
170 193 0
167 190 0
168 191 0
169 190 0
171 194 0
169 191 0
168 192 0
169 192 0
169 191 0
168 191 0
170 191 0
169 191 11
110 111 37
110 105 42
100 96 32
84 83 27
86 85 21
82 79 22
70 70 18
83 82 8
81 81 18
72 72 14
84 84 16
75 76 14
89 86 16
82 83 16
92 92 12
87 85 9
90 89 8
92 93 23
93 92 18
104 103 18
98 96 9
111 110 28
110 107 11
110 106 25
106 105 18
116 112 14
114 112 14
124 121 26
115 112 16
112 110 19
119 116 16
115 113 22
128 125 23
117 113 14
125 123 8
132 129 29
126 123 24
131 126 28
135 132 24
122 117 28
130 126 24
136 132 22
134 130 16
135 132 19
132 129 16
133 130 25
143 139 22
145 142 30
139 133 22
138 136 16
145 141 28
139 135 28
147 142 22
146 142 25
139 135 16
145 141 19
142 138 19
142 137 19
143 139 19
141 137 16
141 137 16
147 143 19
145 142 11
139 136 16
149 145 25
152 148 28
149 144 30
149 145 11
149 144 28
147 144 30
146 140 19
149 145 19
148 145 30
149 145 30
149 142 30
145 141 19
152 147 22
149 143 25
151 146 36
155 151 36
152 147 34
151 147 28
151 147 34
155 149 37
148 143 25
146 142 32
153 149 34
153 148 32
155 150 30
152 147 37
157 153 32
155 151 28
152 147 28
151 147 28
151 147 30
153 148 36
152 147 28
152 148 37
156 151 45
157 152 34
153 150 28
157 152 32
154 149 28
154 149 28
155 149 37
150 145 22
162 155 45
159 153 42
158 152 42
156 150 37
154 148 39
160 154 39
157 151 37
155 150 36
160 155 48
152 148 37
163 156 58
160 154 45
157 152 41
157 152 39
157 152 30
157 153 39
163 157 45
158 151 41
157 151 42
158 153 37
162 156 47
161 156 49
158 154 34
161 155 51
159 153 45
162 154 52
158 153 41
158 153 44
161 155 56
163 156 48
161 155 41
160 154 44
168 160 61
158 153 48
164 157 54
154 175 0
154 174 0
152 174 0
153 174 0
153 173 0
152 173 0
154 175 0
155 176 0
154 174 0
154 175 0
155 175 0
153 174 0
153 174 0
151 171 0
153 174 0
154 174 0
153 174 0
154 175 0
151 172 0
155 175 0
153 174 0
153 174 0
153 174 0
152 171 0
153 173 0
154 175 0
153 174 0
153 174 0
150 171 0
150 171 0
152 173 0
151 172 0
150 170 0
151 172 0
151 172 0
151 172 0
151 172 0
151 172 0
150 172 0
152 172 0
150 170 0
147 168 0
149 170 0
151 171 0
151 172 0
148 169 0
149 170 0
149 169 0
149 169 0
148 169 0
146 167 0
149 170 0
149 170 0
147 168 0
150 171 0
146 166 0
149 169 0
146 167 0
147 167 0
151 171 0
149 169 0
144 164 0
149 171 0
149 170 0
148 168 0
149 169 0
146 166 0
150 171 0
149 169 0
147 166 0
146 167 0
143 163 0
148 168 0
144 164 0
146 166 0
146 166 0
141 162 0
146 167 0
142 163 0
146 167 0
140 161 0
141 161 0
140 160 0
142 163 0
140 160 0
143 162 0
135 155 0
142 162 0
139 160 0
144 163 0
138 156 0
140 160 0
141 161 0
132 151 0
140 160 0
137 156 0
132 150 0
136 154 0
131 151 0
135 155 0
127 145 0
131 150 0
136 155 0
126 146 0
134 153 0
130 147 0
125 143 0
127 146 0
120 139 0
128 147 0
125 143 0
125 144 0
115 133 0
116 133 0
113 130 0
120 137 0
113 131 0
113 130 0
109 125 0
109 126 0
110 126 0
92 107 0
93 109 0
103 120 0
108 124 0
95 110 0
106 120 0
107 122 0
99 112 0
102 117 0
99 114 0
105 119 0
105 120 0
102 118 0
109 127 0
110 127 0
114 133 0
129 146 0
128 146 0
123 140 0
162 184 0
169 193 0
166 189 0
164 187 0
169 192 0
168 191 0
170 194 0
170 193 0
171 194 0
169 192 0
167 190 0
166 190 0
169 193 0
171 194 0
164 186 0
166 188 0
67 92 68
48 76 75
50 79 84
51 81 78
52 82 97
51 80 95
54 85 104
52 83 102
54 86 102
54 86 100
54 86 108
54 87 97
53 85 107
55 86 116
54 86 100
56 88 98
55 87 98
56 89 120
54 85 95
56 89 106
52 83 99
55 87 102
55 87 100
56 90 112
55 86 104
55 87 103
57 89 108
55 88 110
55 87 97
55 88 108
55 87 121
56 88 111
54 86 99
57 90 115
57 89 114
54 86 103
58 92 118
57 91 105
56 88 108
57 90 115
58 91 107
56 89 107
57 90 114
56 88 108
55 88 103
58 91 121
54 86 102
57 90 105
56 89 107
56 88 108
55 87 105
58 91 118
56 88 111
54 85 113
56 88 111
56 88 108
57 89 110
56 89 114
55 88 103
57 89 117
55 87 102
54 86 101
56 89 110
55 87 110
54 86 105
54 85 107
54 85 94
57 90 105
55 86 115
54 86 106
56 88 108
55 87 99
54 84 103
53 83 100
53 84 99
56 87 105
55 86 103
52 82 96
52 82 87
53 82 89
52 80 82
52 81 101
50 78 82
50 77 81
51 79 89
47 73 72
45 70 62
72 94 69
162 183 0
166 188 0
167 188 0
170 192 0
170 193 0
167 188 0
162 185 0
167 189 0
167 189 0
168 191 0
168 190 0
166 188 0
169 191 0
168 192 0
169 191 0
159 179 16
92 90 36
95 91 29
90 87 24
78 75 2
89 86 21
86 83 20
78 76 16
84 82 8
82 81 9
81 81 14
98 95 8
76 75 11
96 96 18
92 91 11
82 81 14
102 100 11
103 101 14
92 91 21
99 98 14
101 98 12
102 102 14
104 102 12
114 112 11
108 105 11
106 105 11
112 109 8
122 119 21
116 113 19
120 117 8
116 113 10
117 114 18
126 122 23
124 122 16
128 124 25
125 120 8
121 118 14
123 119 16
127 124 24
133 130 16
131 127 16
131 127 16
135 130 22
136 134 19
136 131 19
136 133 16
139 134 19
133 130 11
138 133 19
138 133 16
133 129 16
142 137 11
140 136 25
139 135 11
137 135 11
139 136 11
141 136 11
146 141 19
149 144 30
146 141 19
146 143 11
149 145 25
143 138 16
145 140 22
142 137 0
144 140 0
147 143 19
146 141 19
148 144 19
143 141 0
149 146 16
148 143 22
145 141 25
147 142 22
150 145 22
145 140 25
150 146 30
153 149 28
149 144 28
152 146 30
156 151 39
150 145 22
146 140 25
149 144 16
146 141 22
151 146 19
151 147 19
152 147 28
149 145 11
152 148 22
150 145 32
157 152 36
150 146 28
154 150 19
155 149 34
154 150 19
154 149 37
152 147 28
155 152 28
154 151 32
151 147 22
150 146 30
157 151 30
152 148 28
156 152 36
155 150 34
156 151 32
161 154 51
161 154 47
157 151 42
155 150 37
158 152 36
160 154 42
159 154 41
156 150 36
159 153 45
156 150 36
156 150 34
157 153 30
159 153 39
157 152 34
157 152 39
158 153 37
158 152 44
153 149 22
162 155 53
158 153 39
160 154 41
157 152 44
158 153 42
163 154 49
157 152 44
155 151 39
162 155 52
157 152 36
161 155 48
162 155 45
162 156 47
162 155 48
163 157 59
163 157 49
154 175 0
152 173 0
154 175 0
155 176 0
153 174 0
155 176 0
155 176 0
154 175 0
153 174 0
151 173 0
153 173 0
151 172 0
153 174 0
153 174 0
153 174 0
154 175 0
153 173 0
150 171 0
155 176 0
153 173 0
148 170 0
152 173 0
149 170 0
154 175 0
151 172 0
151 172 0
154 174 0
148 169 0
150 170 0
152 172 0
152 172 0
150 171 0
151 172 0
148 169 0
149 169 0
149 170 0
150 169 0
153 173 0
153 173 0
149 169 0
151 172 0
150 170 0
152 172 0
153 173 0
151 171 0
149 170 0
150 170 0
150 170 0
153 173 0
151 171 0
148 169 0
149 170 0
146 167 0
145 166 0
149 168 0
147 169 0
149 170 0
148 169 0
146 166 0
144 164 0
148 169 0
146 166 0
144 164 0
152 172 0
147 168 0
147 168 0
144 165 0
140 160 0
144 163 0
144 166 0
145 165 0
140 160 0
147 167 0
146 166 0
144 164 0
148 169 0
146 166 0
137 156 0
147 168 0
144 163 0
144 164 0
136 156 0
141 162 0
141 161 0
136 156 0
145 166 0
139 158 0
136 155 0
138 158 0
137 157 0
141 161 0
140 161 0
140 161 0
141 161 0
134 154 0
130 150 0
137 157 0
129 148 0
128 147 0
134 153 0
134 154 0
135 154 0
132 151 0
136 155 0
129 146 0
133 151 0
130 149 0
125 142 0
122 140 0
128 145 0
117 134 0
116 134 0
112 130 0
118 135 0
110 128 0
113 130 0
121 138 0
104 120 0
106 123 0
103 119 0
107 124 0
102 119 0
104 120 0
110 126 0
107 123 0
102 117 0
103 118 0
112 127 0
95 109 0
108 123 0
100 116 0
106 123 0
115 132 0
118 135 0
115 132 0
123 140 0
123 141 0
133 151 0
124 141 0
144 163 22
171 193 0
165 188 0
168 191 0
168 191 0
169 193 0
169 192 0
167 190 0
170 193 0
166 189 0
166 188 0
169 192 0
166 188 0
170 193 0
166 189 0
166 189 0
161 185 0
144 165 29
45 73 67
49 78 95
51 82 93
49 78 83
53 84 91
54 86 104
51 82 98
53 83 103
54 85 105
53 84 99
53 84 91
54 85 105
52 83 101
55 88 98
54 86 106
55 87 103
55 87 102
55 87 97
54 85 100
54 86 110
54 85 99
54 87 102
56 88 108
55 88 106
54 86 95
57 89 114
56 89 111
57 90 118
56 89 115
56 89 108
54 87 98
56 88 108
56 89 110
58 91 118
54 85 97
56 89 105
55 87 110
56 89 103
57 89 118
54 86 97
57 90 117
55 87 108
54 86 102
55 86 102
58 91 114
57 89 114
58 91 118
56 89 111
58 91 120
57 89 103
55 87 102
56 88 100
54 87 92
53 84 95
54 85 110
54 86 94
55 87 105
55 87 103
55 87 107
56 89 107
56 88 110
55 87 100
54 85 97
53 84 93
54 86 96
54 86 105
54 85 101
55 86 94
55 86 101
58 90 117
56 88 107
54 85 104
53 84 107
54 85 97
53 84 95
52 81 101
54 84 97
53 82 92
54 84 99
53 82 89
51 80 85
51 79 97
51 78 84
50 78 91
51 78 84
47 72 66
134 156 48
164 186 0
165 188 0
167 188 0
164 187 0
164 186 0
168 191 0
168 190 0
164 185 0
166 188 0
162 183 0
165 186 0
168 191 0
167 189 0
162 185 0
166 188 0
166 188 0
137 148 25
103 99 32
110 105 42
89 86 28
72 72 21
81 79 18
77 76 8
90 87 8
90 87 16
83 82 16
81 78 8
88 85 12
87 84 0
86 86 12
90 87 8
90 89 3
91 89 14
100 98 16
98 96 3
99 98 14
100 98 12
99 97 12
99 96 16
107 103 14
98 97 16
108 107 14
113 112 11
111 109 14
111 108 16
118 114 20
122 118 8
122 118 14
122 119 14
121 119 8
121 119 18
120 116 0
123 120 16
132 129 11
134 130 8
130 128 11
130 127 16
133 128 11
139 135 0
129 127 0
137 134 0
139 136 0
134 129 0
134 130 0
141 136 0
138 134 11
139 136 0
139 136 0
144 142 11
144 140 11
143 139 0
142 137 0
142 138 0
140 136 0
139 136 11
135 132 0
141 137 11
143 139 11
143 139 0
144 140 0
141 137 11
143 139 19
146 142 11
143 139 11
140 135 0
148 144 11
146 142 11
148 143 16
148 145 19
150 146 22
148 143 22
149 146 0
147 143 19
143 139 0
141 136 19
146 142 16
154 149 25
147 142 25
150 145 19
149 144 19
148 144 22
147 143 11
151 146 22
152 146 25
148 143 19
148 142 25
154 149 22
152 147 22
153 149 19
153 148 25
154 148 28
155 151 28
148 143 11
154 149 32
150 145 19
154 149 25
149 146 19
155 151 22
149 146 16
154 150 32
150 145 30
155 149 32
159 154 34
149 144 25
154 149 32
153 148 32
150 145 28
152 148 19
153 147 34
157 153 36
157 152 30
155 151 30
155 150 34
158 153 32
154 149 37
158 152 41
156 150 39
156 152 30
158 152 42
163 156 42
158 154 37
156 150 42
159 154 44
162 154 47
158 153 45
159 153 42
158 152 39
158 152 39
158 152 45
158 152 39
159 153 44
160 154 39
158 152 37
158 152 37
162 156 51
162 155 48
152 172 0
152 173 0
151 172 0
154 175 0
154 175 0
153 174 0
155 175 0
153 173 0
153 173 0
153 174 0
151 171 0
152 173 0
155 175 0
154 175 0
152 173 0
151 172 0
152 172 0
151 171 0
151 172 0
151 171 0
152 172 0
154 175 0
151 171 0
151 172 0
149 170 0
152 173 0
152 172 0
152 173 0
152 173 0
152 173 0
152 172 0
150 172 0
149 170 0
150 171 0
151 172 0
147 167 0
152 172 0
152 174 0
154 174 0
150 170 0
150 170 0
147 167 0
149 169 0
149 170 0
150 171 0
149 170 0
153 173 0
148 168 0
151 171 0
150 170 0
147 167 0
146 167 0
145 165 0
147 167 0
150 170 0
148 167 0
145 166 0
147 168 0
149 168 0
145 166 0
146 166 0
146 166 0
146 167 0
146 166 0
147 166 0
146 167 0
147 167 0
145 165 0
150 170 0
142 162 0
142 162 0
145 166 0
145 165 0
145 166 0
146 167 0
145 165 0
140 160 0
142 161 0
140 159 0
142 162 0
141 161 0
142 162 0
138 158 0
142 162 0
142 162 0
143 163 0
136 154 0
133 152 0
140 159 0
136 155 0
139 157 0
136 155 0
141 160 0
129 149 0
131 150 0
138 158 0
139 158 0
138 157 0
137 156 0
135 154 0
135 154 0
127 146 0
133 151 0
128 148 0
127 146 0
126 144 0
121 140 0
121 140 0
119 137 0
122 139 0
121 139 0
121 138 0
121 140 0
115 132 0
113 130 0
108 126 0
107 124 0
113 130 0
107 123 0
110 125 0
105 121 0
116 131 0
108 125 0
102 118 0
105 120 0
98 113 0
102 118 0
105 120 0
111 127 0
111 127 0
98 113 0
104 120 0
106 122 0
123 140 0
119 135 0
119 137 0
126 144 0
121 137 0
133 152 0
167 191 0
167 190 0
167 190 0
161 185 0
166 190 0
169 193 0
161 184 0
164 186 0
165 189 0
167 190 0
167 190 0
164 187 0
167 191 0
165 188 0
163 186 0
165 189 0
163 184 0
165 188 0
112 133 56
48 77 76
46 74 74
49 78 80
51 82 92
53 84 89
48 77 82
53 84 95
51 82 88
54 85 108
54 86 98
54 85 106
53 83 96
55 88 105
53 84 94
55 87 106
55 87 103
55 87 103
52 83 94
55 87 97
53 85 97
54 85 113
54 86 97
55 87 104
55 87 103
55 88 110
56 89 98
55 88 102
56 88 107
55 87 102
56 89 105
54 86 103
55 86 108
56 88 110
56 89 105
56 89 114
56 88 111
55 87 102
56 89 107
57 90 118
56 88 113
56 89 114
56 89 114
55 87 103
57 91 121
57 89 111
55 87 117
55 86 105
53 84 108
54 86 102
57 90 108
56 89 102
54 86 113
56 89 107
53 85 90
55 86 110
55 87 113
55 87 100
54 85 95
55 88 104
56 88 107
55 86 100
53 84 85
55 86 104
55 86 90
52 83 104
54 85 91
54 85 93
53 83 97
55 87 110
54 83 97
52 82 98
51 81 87
53 83 100
53 84 102
54 84 107
52 81 98
51 79 94
54 83 100
51 78 82
48 75 73
49 75 81
49 76 78
49 77 93
48 75 68
108 128 43
167 189 0
164 187 0
168 189 0
164 187 0
166 189 0
167 189 0
166 187 0
161 184 0
161 182 0
162 184 0
163 185 0
164 184 0
164 185 0
166 187 0
169 188 0
167 189 0
163 185 0
165 186 0
114 120 21
96 92 35
95 90 22
86 81 21
82 80 18
79 78 16
73 73 12
75 73 0
87 85 0
84 82 8
88 85 16
91 86 12
102 99 3
98 95 8
85 84 12
103 100 14
98 97 16
102 100 0
103 100 14
106 105 8
96 93 14
102 100 16
108 106 8
111 109 11
109 106 0
115 112 14
115 112 16
112 109 11
117 114 11
121 118 11
123 119 8
115 113 14
117 116 8
124 121 0
134 129 0
126 123 11
134 129 11
126 124 0
136 134 0
130 127 0
133 128 0
131 129 0
127 124 0
129 126 0
134 131 0
131 127 0
140 135 0
134 131 0
133 130 0
143 138 0
134 131 0
137 134 0
134 132 0
142 137 0
136 131 0
137 134 0
139 135 0
137 132 0
141 137 0
140 137 0
144 139 0
142 139 0
140 137 0
148 145 0
144 139 0
148 144 0
142 138 0
143 140 0
143 140 0
143 139 0
144 140 0
149 144 11
146 142 0
145 142 0
144 140 0
148 144 0
147 142 0
142 137 0
150 146 11
151 146 11
146 142 0
151 147 19
153 149 11
150 147 16
152 148 16
146 141 0
149 146 16
151 147 16
149 144 25
147 143 16
148 144 19
149 144 22
147 142 22
144 140 11
153 147 22
150 146 19
150 145 25
153 147 25
154 149 22
153 148 25
151 147 22
155 150 28
154 150 25
156 151 34
152 146 30
150 145 16
149 145 22
154 148 32
156 151 32
155 149 37
156 151 28
153 148 30
150 147 19
157 152 37
155 150 37
155 148 32
155 150 30
154 150 28
153 148 30
154 148 28
156 150 25
157 151 37
156 150 39
158 152 39
162 155 45
161 156 42
158 153 39
157 152 41
157 151 39
161 155 44
160 154 44
160 154 44
162 156 47
159 154 42
163 156 52
160 154 44
159 154 42
161 155 44
161 155 44
154 175 0
154 175 0
154 175 0
154 174 0
153 175 0
152 174 0
154 174 0
151 171 0
150 171 0
152 173 0
152 173 0
153 175 0
153 174 0
152 172 0
151 172 0
154 174 0
155 176 0
150 171 0
152 172 0
153 173 0
152 173 0
153 173 0
152 172 0
151 172 0
151 172 0
153 174 0
152 174 0
150 171 0
151 170 0
152 173 0
153 173 0
152 172 0
153 174 0
149 169 0
151 172 0
148 169 0
149 169 0
151 171 0
148 168 0
150 172 0
153 174 0
145 166 0
148 169 0
150 170 0
150 170 0
150 171 0
150 171 0
153 173 0
148 168 0
152 173 0
147 167 0
147 167 0
147 167 0
148 168 0
148 167 0
148 169 0
150 170 0
148 167 0
145 166 0
148 169 0
148 167 0
148 169 0
147 168 0
150 170 0
144 164 0
144 165 0
146 166 0
140 161 0
147 167 0
139 159 0
145 166 0
148 168 0
142 163 0
145 165 0
140 160 0
140 160 0
146 167 0
141 161 0
144 164 0
146 167 0
139 158 0
138 156 0
138 158 0
141 161 0
138 157 0
139 158 0
137 156 0
142 162 0
134 153 0
141 160 0
135 154 0
143 164 0
140 160 0
142 161 0
133 152 0
134 153 0
133 152 0
135 155 0
132 151 0
130 149 0
128 146 0
123 141 0
131 149 0
125 143 0
124 143 0
122 140 0
120 137 0
123 141 0
121 139 0
127 145 0
124 142 0
112 129 0
122 139 0
122 140 0
118 134 0
111 129 0
119 136 0
112 128 0
114 130 0
114 131 0
113 129 0
101 117 0
105 122 0
105 120 0
109 123 0
98 113 0
107 122 0
102 118 0
112 128 0
107 122 0
109 124 0
114 130 0
116 133 0
115 132 0
130 147 0
127 146 0
126 143 0
120 136 0
165 188 0
161 183 0
163 187 0
168 192 0
167 189 0
167 190 0
162 185 0
164 187 0
162 184 0
167 190 0
162 184 0
164 187 0
167 189 0
164 187 0
166 189 0
159 182 0
164 186 0
162 185 0
160 183 0
164 187 18
66 90 68
48 76 71
50 80 89
50 80 79
48 77 73
53 84 98
54 86 110
53 84 91
53 83 103
52 82 84
52 84 93
53 84 97
54 86 91
52 83 90
53 85 91
51 82 98
53 84 91
54 86 94
56 88 102
53 83 97
54 86 100
55 88 100
57 90 106
56 88 100
56 89 113
57 90 119
53 85 84
55 87 107
57 90 113
54 87 98
55 87 105
57 91 117
57 90 112
56 88 110
58 91 115
56 88 110
56 89 113
54 86 108
56 89 113
55 87 115
53 84 97
56 88 103
54 86 97
55 87 103
54 86 102
57 89 111
53 84 88
56 88 113
52 83 86
56 89 108
55 87 101
55 87 103
56 88 110
58 90 117
56 88 110
52 82 90
55 87 111
57 89 110
56 88 111
55 86 104
55 87 100
53 84 106
56 88 111
55 87 114
54 85 102
49 78 82
54 85 104
51 80 89
54 85 94
52 82 92
50 79 81
56 87 107
51 81 96
51 80 85
48 76 80
50 79 88
51 80 84
53 83 100
50 79 93
49 77 85
49 76 87
49 76 78
49 75 85
66 87 65
157 179 8
165 187 0
160 181 0
163 185 0
161 183 0
165 187 0
161 183 0
161 180 0
163 185 0
159 181 0
164 186 0
168 191 0
166 186 0
163 184 0
165 186 0
165 187 0
169 190 0
162 182 0
167 188 0
166 186 11
105 106 30
93 88 28
93 89 26
83 82 16
101 98 23
94 90 18
87 84 8
85 82 8
91 89 11
88 84 14
85 84 16
94 92 12
91 88 8
89 86 14
95 92 8
90 88 12
93 92 0
99 96 14
104 102 14
96 95 20
98 97 8
100 99 8
105 103 11
115 112 11
116 112 9
109 108 11
115 110 8
110 107 11
116 113 14
121 116 3
119 114 8
119 116 0
129 126 0
121 117 8
110 109 8
122 120 8
125 121 0
126 123 0
118 116 0
135 130 0
129 126 0
126 123 0
134 130 0
132 128 0
132 128 0
136 132 0
134 130 0
135 130 0
135 130 0
140 135 0
134 132 0
134 129 0
137 134 0
143 139 0
141 135 0
141 135 0
136 131 0
143 139 0
143 138 0
142 138 0
146 141 0
138 133 0
137 134 0
144 140 0
144 141 0
146 141 0
145 141 0
142 137 0
146 142 0
145 142 0
149 145 0
149 145 0
142 137 0
144 141 0
146 141 0
148 143 0
145 142 0
145 143 0
147 143 0
149 145 0
148 145 0
148 145 0
145 141 0
146 142 0
146 143 0
147 143 0
149 145 0
148 144 0
151 148 0
146 143 11
149 145 0
152 147 16
150 146 19
145 142 11
154 149 19
149 146 11
148 144 16
148 144 22
152 148 19
154 150 22
148 145 11
150 144 19
148 144 0
153 148 16
152 148 16
150 145 19
150 145 19
155 150 30
154 150 25
155 150 30
156 152 34
152 148 19
156 152 30
156 151 32
155 149 34
153 149 30
157 152 37
157 151 34
158 151 41
154 149 25
158 153 34
153 147 25
153 148 34
158 153 34
157 151 42
156 151 32
154 149 28
158 152 44
157 151 32
157 151 36
160 153 44
158 152 45
160 155 45
157 152 44
164 156 51
157 151 39
159 153 44
159 153 41
151 173 0
154 174 0
152 173 0
154 175 0
151 171 0
151 173 0
151 172 0
154 174 0
153 174 0
151 171 0
151 172 0
152 173 0
152 173 0
151 172 0
150 172 0
153 174 0
151 172 0
154 175 0
153 173 0
153 174 0
152 173 0
152 173 0
154 175 0
150 171 0
153 172 0
148 169 0
151 171 0
151 173 0
150 171 0
151 172 0
149 169 0
151 172 0
154 174 0
148 168 0
150 171 0
146 168 0
150 171 0
148 169 0
151 172 0
151 172 0
150 171 0
147 167 0
149 169 0
141 161 0
148 169 0
151 171 0
148 169 0
150 171 0
145 165 0
149 170 0
149 170 0
152 173 0
146 167 0
145 166 0
147 168 0
147 167 0
147 167 0
149 168 0
147 167 0
149 170 0
149 169 0
146 166 0
149 170 0
148 168 0
148 167 0
147 166 0
148 168 0
147 167 0
147 168 0
143 163 0
143 163 0
143 163 0
143 163 0
141 160 0
142 163 0
141 161 0
142 162 0
145 165 0
144 162 0
136 155 0
140 160 0
143 162 0
134 154 0
143 163 0
141 161 0
134 154 0
137 156 0
139 158 0
137 156 0
131 148 0
145 162 0
137 157 0
134 153 0
135 154 0
129 148 0
134 153 0
133 153 0
134 154 0
136 156 0
135 155 0
130 149 0
126 143 0
136 155 0
127 146 0
130 148 0
126 144 0
117 136 0
130 148 0
124 141 0
125 142 0
124 141 0
111 129 0
122 140 0
125 142 0
113 129 0
109 126 0
112 130 0
112 128 0
109 125 0
113 128 0
114 131 0
97 113 0
112 129 0
109 124 0
100 115 0
112 128 0
106 121 0
98 113 0
102 118 0
104 120 0
109 125 0
109 124 0
112 128 0
107 123 0
122 139 0
123 140 0
112 127 0
152 173 0
168 191 0
166 188 0
162 185 0
165 187 0
162 185 0
165 188 0
168 191 0
164 186 0
162 186 0
165 188 0
163 186 0
162 184 0
159 181 0
163 186 0
158 180 0
163 186 0
163 186 0
163 186 0
164 187 0
161 184 0
143 165 31
52 78 77
47 76 78
49 78 75
52 83 94
50 79 85
48 77 90
51 81 86
53 84 88
55 86 108
51 82 88
54 84 103
51 81 88
52 83 93
54 86 101
54 85 103
53 84 98
54 86 99
54 85 104
54 85 89
56 88 100
53 85 100
53 85 99
53 85 90
57 90 110
56 88 101
54 86 110
56 88 106
55 87 105
53 85 97
54 86 92
53 84 95
55 88 110
55 87 103
55 87 108
52 83 95
55 87 105
57 89 111
54 85 97
57 89 108
57 90 117
57 89 115
55 87 107
54 86 103
54 86 99
56 88 107
56 89 107
55 87 94
55 87 99
55 87 95
55 88 105
55 86 112
56 87 113
56 88 103
54 86 104
57 89 110
56 88 117
57 88 110
55 87 96
54 86 103
54 85 99
56 88 107
55 86 100
52 82 86
54 85 94
54 85 104
56 87 105
56 88 112
53 83 99
52 82 94
52 81 88
53 83 96
53 83 93
52 82 94
53 83 101
49 75 84
50 77 77
50 78 77
47 74 72
52 80 78
48 73 79
47 72 58
58 80 66
138 157 18
166 187 0
156 176 0
161 183 0
163 184 0
157 178 0
158 179 0
163 184 0
158 177 0
165 184 0
162 184 0
166 188 0
163 184 0
162 182 0
165 187 0
162 184 0
157 178 0
165 185 0
158 179 0
169 190 0
165 187 0
153 170 16
102 101 30
109 104 32
98 93 20
101 97 16
102 97 21
90 87 11
94 88 19
84 81 16
86 84 8
85 83 9
90 87 11
92 90 11
84 84 16
96 94 12
97 93 8
94 91 16
93 92 0
99 97 3
101 100 14
93 91 14
113 109 8
106 101 0
113 111 11
117 114 16
116 113 11
105 103 14
111 108 3
114 111 0
131 127 0
110 108 11
123 119 0
127 123 0
118 113 0
125 121 8
132 127 0
128 124 8
138 134 0
132 128 0
136 132 0
129 125 0
132 128 0
135 130 0
129 124 0
131 127 0
130 127 0
130 127 0
135 132 0
133 129 0
134 131 0
134 130 0
130 127 0
139 136 0
138 132 0
138 134 0
140 136 0
138 133 0
135 130 0
133 130 0
142 138 0
142 138 0
145 142 0
139 136 0
142 139 0
137 133 0
145 140 0
145 141 0
141 138 0
144 139 0
146 141 0
145 140 0
140 136 0
146 141 0
149 145 0
146 142 0
148 144 0
142 137 0
148 143 0
146 143 0
144 139 0
143 139 0
152 145 0
150 146 0
148 143 0
146 142 0
145 140 0
147 143 0
150 146 0
148 144 0
147 143 0
150 146 0
146 143 0
149 145 0
147 143 0
147 144 0
151 147 0
152 148 0
149 144 0
153 148 0
149 144 25
151 145 22
150 145 0
153 148 16
153 148 28
150 146 19
152 148 0
152 148 16
150 145 28
151 147 22
153 148 32
153 149 19
155 151 30
152 147 16
154 149 28
154 149 19
155 149 28
153 149 19
156 150 30
155 150 25
153 149 19
156 151 36
154 149 22
156 150 36
155 149 36
156 151 32
154 149 25
155 150 34
157 151 34
156 148 39
157 152 32
159 153 36
160 154 41
157 151 37
159 153 37
155 150 36
158 153 32
159 153 37
158 153 44
153 174 0
152 173 0
152 172 0
153 174 0
153 173 0
153 172 0
152 173 0
154 174 0
153 174 0
153 174 0
152 173 0
153 175 0
152 174 0
150 172 0
151 172 0
153 173 0
153 174 0
152 173 0
150 171 0
150 170 0
153 174 0
152 173 0
152 172 0
152 173 0
150 171 0
151 171 0
151 172 0
153 173 0
150 171 0
154 175 0
149 170 0
150 171 0
148 168 0
146 167 0
151 171 0
152 172 0
150 170 0
152 173 0
149 170 0
150 170 0
150 171 0
151 171 0
146 166 0
145 165 0
147 167 0
145 165 0
148 168 0
144 164 0
149 169 0
148 168 0
145 164 0
147 167 0
147 168 0
148 168 0
151 171 0
146 167 0
147 167 0
144 163 0
149 169 0
142 161 0
145 166 0
149 170 0
147 168 0
143 163 0
138 158 0
148 167 0
141 160 0
145 165 0
142 163 0
145 164 0
145 164 0
142 163 0
135 154 0
140 160 0
145 165 0
144 164 0
142 162 0
141 160 0
149 169 0
142 162 0
144 164 0
144 163 0
137 157 0
140 160 0
139 159 0
139 158 0
138 158 0
141 161 0
134 153 0
133 152 0
134 153 0
129 147 0
131 151 0
144 163 0
137 156 0
131 149 0
137 155 0
135 152 0
133 152 0
135 154 0
133 152 0
122 141 0
121 140 0
130 149 0
133 152 0
131 149 0
131 149 0
128 146 0
122 139 0
127 145 0
122 140 0
123 141 0
119 136 0
116 133 0
117 134 0
114 130 0
117 134 0
116 133 0
108 124 0
119 135 0
114 131 0
110 126 0
111 126 0
113 129 0
103 119 0
104 120 0
114 131 0
109 125 0
110 126 0
108 123 0
111 127 0
113 131 0
120 136 0
115 132 0
123 140 0
112 129 0
153 173 0
165 188 0
161 184 0
157 179 0
162 184 0
164 187 0
162 184 0
163 185 0
159 181 0
161 184 0
164 187 0
162 185 0
163 185 0
160 184 0
166 187 0
157 180 0
159 181 0
159 182 0
159 182 0
160 184 0
163 185 0
157 179 0
157 180 0
116 137 39
48 76 64
49 78 75
49 78 82
53 83 94
52 82 82
54 85 96
53 84 87
52 82 98
54 86 86
53 84 94
54 86 100
54 85 98
55 87 107
52 83 81
54 85 86
53 84 90
56 89 110
53 84 95
53 84 108
53 84 98
55 87 98
54 85 86
54 86 94
55 87 93
58 91 121
55 87 99
56 89 111
52 82 95
56 89 108
53 84 103
55 88 99
56 89 102
55 88 107
55 87 110
54 86 105
52 83 88
52 83 90
53 84 99
54 87 84
55 87 102
54 85 94
58 92 122
55 87 99
54 85 101
55 88 103
56 87 103
53 85 94
54 85 108
56 88 111
57 90 113
53 83 92
55 87 94
53 84 102
54 86 105
52 82 83
56 88 102
56 88 99
52 83 100
53 83 84
55 87 108
54 86 102
53 84 105
55 87 99
52 82 93
52 82 90
53 83 97
51 81 91
54 85 102
52 81 85
52 81 93
50 79 92
50 80 85
50 79 94
51 80 93
51 80 87
50 77 80
48 75 78
50 79 85
50 77 79
44 67 62
130 149 33
156 178 0
159 179 0
164 184 0
159 180 0
148 166 0
157 178 0
154 175 0
163 184 0
163 184 0
164 184 0
163 182 0
155 174 0
162 181 0
160 179 0
159 180 0
157 178 0
162 182 0
165 185 0
163 183 0
160 181 0
159 181 0
165 186 0
148 164 16
101 95 32
102 95 31
83 80 16
98 94 25
85 82 18
98 94 19
91 88 18
85 83 3
94 91 28
96 93 8
95 92 16
92 89 8
106 101 8
101 97 3
98 92 11
93 89 16
87 85 8
102 100 8
107 103 0
104 101 0
97 95 8
110 107 0
97 95 16
102 100 11
116 112 8
106 104 8
125 118 0
123 119 8
118 114 8
120 115 0
123 119 0
127 123 0
120 116 0
130 124 0
124 119 0
124 120 0
124 122 0
130 126 0
131 127 0
132 128 0
134 132 0
139 135 0
130 128 0
136 131 0
134 129 0
133 128 0
137 132 0
135 130 0
138 133 0
138 134 0
139 136 0
141 138 0
139 135 0
135 131 0
139 136 0
140 135 0
138 134 0
143 139 0
137 133 0
141 137 0
144 140 0
139 134 0
141 136 0
145 141 0
146 141 0
144 138 0
140 136 0
145 142 0
148 143 0
141 137 0
142 139 0
145 141 0
143 140 0
147 144 0
145 141 0
151 145 0
145 141 0
149 144 0
150 145 0
149 145 0
150 145 0
144 140 0
147 142 0
149 145 0
147 143 0
147 142 0
151 146 0
143 139 0
147 143 0
144 140 0
147 142 0
148 144 0
149 144 0
151 146 0
150 146 0
152 148 0
148 146 0
149 145 0
151 146 11
149 144 0
152 147 0
152 148 11
151 147 0
150 146 11
147 142 0
154 150 19
149 145 11
149 145 25
151 146 22
155 150 22
147 143 22
153 149 22
151 146 11
156 151 30
155 151 25
150 145 19
149 145 25
155 150 25
151 146 25
153 148 30
158 152 34
153 149 30
151 147 22
152 145 30
158 153 36
154 149 25
159 153 36
155 151 37
158 151 41
159 154 39
161 155 47
160 153 41
160 154 42
161 155 42
160 154 49
152 148 32
154 175 0
154 174 0
154 175 0
152 173 0
155 176 0
151 173 0
154 175 0
152 173 0
152 172 0
150 171 0
150 171 0
152 172 0
151 172 0
153 173 0
151 171 0
154 173 0
151 172 0
152 173 0
151 172 0
150 170 0
151 171 0
150 171 0
152 172 0
152 173 0
151 171 0
152 172 0
150 171 0
149 170 0
150 170 0
151 172 0
151 172 0
150 171 0
151 171 0
151 171 0
151 171 0
149 169 0
146 166 0
149 169 0
151 172 0
150 170 0
151 171 0
149 169 0
151 170 0
146 167 0
145 165 0
154 174 0
147 167 0
148 168 0
151 171 0
151 172 0
148 168 0
150 170 0
148 168 0
148 169 0
144 165 0
146 166 0
143 163 0
147 167 0
139 160 0
146 166 0
145 165 0
144 164 0
142 162 0
147 167 0
146 166 0
147 167 0
147 167 0
142 162 0
145 165 0
141 162 0
140 160 0
144 164 0
142 161 0
142 161 0
146 167 0
142 161 0
141 160 0
141 160 0
136 154 0
140 160 0
144 163 0
138 157 0
139 158 0
140 159 0
140 160 0
136 155 0
139 158 0
136 156 0
138 157 0
132 151 0
131 150 0
136 155 0
130 148 0
142 161 0
134 153 0
134 153 0
133 151 0
133 151 0
133 151 0
132 151 0
128 146 0
124 143 0
129 147 0
128 147 0
125 143 0
127 146 0
119 137 0
126 145 0
122 140 0
116 133 0
119 136 0
116 133 0
117 134 0
120 137 0
119 136 0
114 130 0
115 131 0
111 128 0
112 129 0
110 127 0
111 127 0
105 122 0
101 117 0
108 124 0
112 127 0
108 123 0
93 109 0
107 123 0
114 129 0
123 138 0
120 136 0
118 134 0
114 130 0
118 135 0
120 137 0
141 159 0
163 185 0
167 189 0
162 185 0
161 185 0
164 187 0
156 178 0
159 182 0
163 186 0
163 186 0
161 183 0
156 178 0
157 180 0
152 174 0
152 175 0
165 188 0
158 180 0
159 181 0
159 181 0
155 178 0
155 179 0
153 176 0
159 181 0
151 172 0
157 181 0
100 121 61
46 74 69
48 77 79
50 79 84
49 79 78
52 82 87
52 83 91
51 81 98
52 82 92
54 85 103
51 81 93
56 89 95
51 81 86
53 84 95
53 84 84
55 87 99
53 84 91
56 88 106
55 87 102
54 85 97
55 86 100
54 86 99
53 84 98
53 85 99
55 87 106
53 84 90
56 89 102
54 86 99
54 86 107
54 85 102
50 80 82
55 87 97
54 86 97
55 87 95
55 87 102
54 86 92
51 82 86
55 87 103
55 86 104
54 85 102
54 85 102
55 87 105
55 87 102
56 89 110
54 85 95
55 86 100
54 86 102
54 85 97
54 85 102
56 89 108
54 85 100
54 86 88
53 84 99
55 87 110
53 84 88
53 84 90
55 86 111
53 83 88
54 85 100
52 82 94
53 84 102
54 85 94
52 83 96
53 83 89
54 85 94
54 85 96
50 78 86
51 81 82
53 83 91
52 81 87
52 81 86
47 74 79
52 81 81
50 77 84
51 80 96
50 78 80
49 76 71
47 72 63
44 69 68
112 132 54
161 182 0
156 175 0
159 180 0
155 174 0
156 176 0
160 180 0
165 185 0
157 176 0
158 177 0
154 174 0
157 178 0
160 179 0
157 178 0
157 176 0
155 173 0
157 176 0
161 179 0
160 180 0
157 178 0
156 175 0
160 178 0
158 177 0
159 176 0
163 182 0
134 144 16
107 100 37
105 98 30
87 83 31
93 87 16
92 88 21
86 83 12
83 79 18
81 77 11
88 85 4
94 90 18
91 88 0
95 92 14
94 91 11
101 98 8
93 90 8
93 92 8
103 99 3
105 102 11
101 97 11
106 101 0
100 97 8
115 109 8
109 105 3
113 108 0
114 111 8
122 118 11
113 110 8
120 114 0
126 122 0
122 118 8
120 116 0
129 124 0
132 127 8
118 115 0
129 125 0
120 117 0
128 125 0
129 124 0
124 120 0
129 124 0
134 129 0
132 127 0
136 131 0
123 118 0
134 131 0
131 127 0
132 130 0
134 129 0
130 126 0
138 132 0
137 132 0
134 128 0
138 134 0
137 133 0
131 127 0
140 134 0
139 134 0
137 131 0
141 136 0
145 142 0
142 139 0
143 137 0
144 139 0
141 136 0
144 140 0
144 138 0
145 140 0
145 140 0
142 137 0
140 136 0
143 140 0
142 136 0
146 142 0
143 140 0
147 143 0
145 141 0
144 141 0
151 147 0
143 138 0
145 141 0
146 141 0
144 139 0
148 144 0
142 138 0
148 145 0
150 145 0
144 139 0
150 145 0
146 143 0
147 142 0
147 143 0
148 144 0
150 145 0
149 145 0
147 144 0
149 145 0
147 144 0
151 147 0
150 145 0
148 143 0
151 147 0
149 145 0
151 146 0
149 143 0
146 141 0
148 143 11
151 147 0
149 143 16
149 145 11
149 145 22
151 146 16
150 147 19
149 144 22
149 145 19
152 148 22
155 151 16
150 144 16
154 149 22
154 149 16
157 151 32
153 147 32
158 153 37
154 150 30
158 152 37
156 150 37
150 145 11
152 148 22
159 154 36
157 153 30
157 149 37
159 154 39
153 149 34
157 152 32
155 150 36
163 156 47
153 173 0
154 175 0
152 172 0
152 172 0
152 172 0
153 174 0
154 175 0
154 174 0
153 174 0
152 173 0
151 171 0
150 171 0
150 170 0
150 170 0
151 171 0
151 171 0
150 170 0
153 174 0
151 171 0
150 171 0
150 171 0
151 173 0
151 172 0
150 170 0
151 171 0
152 172 0
150 171 0
153 174 0
151 172 0
149 170 0
149 169 0
154 173 0
150 171 0
153 174 0
150 171 0
148 169 0
148 169 0
151 171 0
149 170 0
147 167 0
148 168 0
144 164 0
150 169 0
151 172 0
152 172 0
150 170 0
148 169 0
148 169 0
145 164 0
145 166 0
152 173 0
146 165 0
147 167 0
152 172 0
141 162 0
149 169 0
145 166 0
148 168 0
140 159 0
151 170 0
147 168 0
142 162 0
148 169 0
147 167 0
145 166 0
143 162 0
142 162 0
140 160 0
138 157 0
137 155 0
148 168 0
140 159 0
145 165 0
138 157 0
143 161 0
140 159 0
139 158 0
141 160 0
141 160 0
141 161 0
142 160 0
146 165 0
141 161 0
132 151 0
137 155 0
128 146 0
136 156 0
131 151 0
128 147 0
134 153 0
137 156 0
133 152 0
124 142 0
130 149 0
133 153 0
127 146 0
138 156 0
132 150 0
125 143 0
126 144 0
135 153 0
130 149 0
126 144 0
127 145 0
124 142 0
121 139 0
125 142 0
126 143 0
125 143 0
116 132 0
117 134 0
113 130 0
125 142 0
118 135 0
114 131 0
114 130 0
111 127 0
110 125 0
116 132 0
114 130 0
103 117 0
106 123 0
113 129 0
110 126 0
110 125 0
109 124 0
105 121 0
113 129 0
120 135 0
111 127 0
110 126 0
119 136 0
118 135 0
111 127 0
140 159 0
165 187 0
163 185 0
160 182 0
154 176 0
167 189 0
160 182 0
161 183 0
162 185 0
158 180 0
162 185 0
160 183 0
160 182 0
160 182 0
160 182 0
152 175 0
149 172 0
156 178 0
158 181 0
153 174 0
154 175 0
158 180 0
152 174 0
151 174 0
155 178 0
153 176 0
150 173 0
81 106 70
46 74 57
49 78 74
49 77 67
48 77 78
52 82 88
51 81 88
54 85 100
51 81 91
52 82 84
52 84 82
52 82 92
52 83 100
52 83 104
54 84 94
53 84 89
55 87 105
55 87 103
53 85 100
54 86 90
54 86 99
55 87 100
54 86 90
55 87 100
56 88 114
55 87 100
53 85 84
56 88 105
56 89 105
53 85 98
56 89 114
53 84 103
54 85 97
56 88 100
57 89 111
53 84 95
54 85 102
55 87 99
53 84 92
57 90 106
54 86 103
55 87 94
53 84 97
53 85 88
53 83 94
52 83 95
56 89 114
53 84 95
54 86 94
55 86 104
51 81 92
54 86 105
56 88 105
54 85 97
55 87 99
52 82 101
55 86 114
51 80 92
53 83 95
56 88 103
55 86 102
54 85 90
51 80 89
53 84 97
51 80 83
53 83 100
50 79 82
52 82 88
50 78 83
51 80 85
53 83 87
49 78 85
50 77 79
51 80 82
46 71 63
49 76 80
46 69 67
96 115 54
157 176 8
155 176 0
150 170 0
153 173 0
156 177 0
155 176 0
153 170 0
152 171 0
159 177 0
153 170 0
154 172 0
154 173 0
154 173 0
156 174 0
154 174 0
161 180 0
162 181 0
156 174 0
163 183 0
159 178 0
159 179 0
159 177 0
159 177 0
162 181 0
162 180 0
159 177 0
130 139 25
92 88 25
96 90 25
93 89 26
89 87 11
90 85 32
89 86 16
90 85 0
98 94 11
93 92 18
86 81 11
99 94 11
98 94 0
91 87 11
96 93 0
106 103 0
110 105 0
96 94 8
99 94 0
112 108 8
109 105 0
106 99 8
100 99 8
112 106 0
115 110 0
115 110 0
121 116 8
120 115 0
113 110 0
120 115 11
120 114 0
132 126 0
120 117 0
131 125 0
125 122 0
133 128 0
125 121 0
130 126 0
130 125 0
124 120 0
123 120 0
135 130 0
131 126 0
129 124 0
132 127 0
131 125 0
130 125 0
139 133 0
130 127 0
144 140 0
135 129 0
137 131 0
138 133 0
139 134 0
140 137 0
138 134 0
136 133 0
138 134 0
134 130 0
141 138 0
136 133 0
144 139 0
143 138 0
144 140 0
143 138 0
138 134 0
138 134 0
142 138 0
147 142 0
144 140 0
143 140 0
147 141 0
143 140 0
144 140 0
148 144 0
145 142 0
142 137 0
140 134 0
144 139 0
144 140 0
145 142 0
146 141 0
147 142 0
149 144 0
145 140 0
149 144 0
140 135 0
151 145 0
146 142 0
145 141 0
146 143 0
147 142 0
151 146 0
149 144 0
142 138 0
148 143 0
152 147 0
150 146 0
149 145 0
148 143 0
151 148 0
146 142 0
148 144 0
149 145 0
153 147 0
148 145 0
149 145 0
151 147 0
152 148 0
148 144 0
146 143 0
153 148 19
151 146 0
152 148 19
151 147 11
150 145 11
154 149 34
153 148 16
152 147 25
153 148 19
155 151 25
154 149 25
155 149 28
154 149 30
155 151 32
155 149 28
158 152 34
159 154 32
155 149 28
157 152 36
156 150 34
158 151 32
155 150 30
155 151 28
158 152 39
151 171 0
153 173 0
151 171 0
154 175 0
152 171 0
151 172 0
151 171 0
153 174 0
152 173 0
151 172 0
152 173 0
149 170 0
152 172 0
150 170 0
151 171 0
151 171 0
152 172 0
153 173 0
150 171 0
149 170 0
152 172 0
152 173 0
151 171 0
153 173 0
151 172 0
152 172 0
152 172 0
150 170 0
149 169 0
149 169 0
151 171 0
150 171 0
148 168 0
149 170 0
149 169 0
151 171 0
145 165 0
151 171 0
144 163 0
146 166 0
148 169 0
149 170 0
148 167 0
145 165 0
151 171 0
145 165 0
150 170 0
146 166 0
151 170 0
149 169 0
146 166 0
145 165 0
148 168 0
145 165 0
143 163 0
150 169 0
144 164 0
145 165 0
147 166 0
143 163 0
146 166 0
144 164 0
149 169 0
142 162 0
144 164 0
142 162 0
148 167 0
146 166 0
139 159 0
146 167 0
140 159 0
142 161 0
144 163 0
146 165 0
145 164 0
137 156 0
142 162 0
140 159 0
138 157 0
140 159 0
140 159 0
141 160 0
135 153 0
139 158 0
136 154 0
129 148 0
135 154 0
134 153 0
136 155 0
134 153 0
138 157 0
132 150 0
132 151 0
125 143 0
130 148 0
133 151 0
131 149 0
127 146 0
129 148 0
121 139 0
126 144 0
129 147 0
134 153 0
133 151 0
118 136 0
124 142 0
124 142 0
120 137 0
120 137 0
118 136 0
123 139 0
116 132 0
125 142 0
105 120 0
116 133 0
110 127 0
108 123 0
119 134 0
104 119 0
108 123 0
112 129 0
114 132 0
109 124 0
102 117 0
111 125 0
98 112 0
111 126 0
105 120 0
116 132 0
106 122 0
118 134 0
120 135 0
113 128 0
133 151 0
155 177 0
159 181 0
162 184 0
157 179 0
157 179 0
163 185 0
160 181 0
163 185 0
158 179 0
153 175 0
155 176 0
156 178 0
156 177 0
158 179 0
151 173 0
159 182 0
150 171 0
157 178 0
151 173 0
152 174 0
157 179 0
148 170 0
155 177 0
136 158 0
155 176 0
157 179 0
152 175 0
146 168 0
77 98 44
48 75 84
48 76 84
50 79 82
48 77 82
51 81 99
49 79 89
48 77 91
53 84 95
51 81 86
50 80 96
52 83 100
48 76 70
52 83 91
50 79 76
55 87 110
54 86 105
54 86 89
52 83 78
55 87 111
53 84 95
56 88 113
56 88 110
56 89 108
53 84 95
52 82 86
55 87 103
53 84 95
54 86 105
54 85 103
52 82 84
54 85 92
53 84 100
55 88 105
51 81 86
52 82 99
54 86 99
53 83 84
52 84 88
56 89 110
53 85 90
52 83 90
54 85 101
53 84 102
55 88 103
53 85 95
56 89 114
54 85 95
53 84 88
52 83 88
54 86 90
53 84 94
53 84 107
54 85 101
54 85 99
55 86 103
52 83 97
53 83 92
55 87 101
52 82 95
50 80 74
52 81 83
51 81 81
55 85 99
51 81 97
51 80 90
52 82 94
50 79 82
49 78 79
49 76 89
48 75 72
46 71 69
47 73 71
49 76 77
46 72 74
71 90 58
140 159 0
146 164 0
143 161 0
156 175 0
150 169 0
151 170 0
146 164 0
158 180 0
152 171 0
150 170 0
150 168 0
154 170 0
159 177 0
159 178 0
154 172 0
157 176 0
158 178 0
158 177 0
152 169 0
154 172 0
157 174 0
160 178 0
152 168 0
161 178 0
158 176 0
159 179 0
159 177 0
162 180 0
129 134 22
99 96 22
101 95 22
87 81 16
103 99 26
97 92 14
91 88 19
89 84 11
89 86 0
95 90 3
81 77 16
97 92 0
101 98 14
98 96 8
108 104 11
111 105 0
95 90 3
90 90 0
105 101 0
100 97 0
113 109 8
109 105 0
114 109 0
119 114 8
108 104 8
107 102 0
119 114 0
118 114 0
125 119 0
125 120 0
130 126 0
121 114 0
127 120 0
128 123 0
125 120 0
122 117 0
129 123 0
123 117 0
127 121 0
131 125 0
129 123 0
135 130 0
136 131 0
137 133 0
133 129 0
139 134 0
133 129 0
131 127 0
144 139 0
135 131 0
137 132 0
140 137 0
142 135 0
138 135 0
141 136 0
140 135 0
142 137 0
138 133 0
138 133 0
135 130 0
140 136 0
147 141 0
138 134 0
143 138 0
142 138 0
143 140 0
137 131 0
143 138 0
143 139 0
145 141 0
145 141 0
144 138 0
142 137 0
148 144 0
140 136 0
148 143 0
145 141 0
142 137 0
145 141 0
143 137 0
146 142 0
143 138 0
146 141 0
146 141 0
149 144 0
146 141 0
144 138 0
151 145 0
148 144 0
144 139 0
151 146 0
148 143 0
147 141 0
147 141 0
146 141 0
146 141 0
150 145 0
150 145 0
145 141 0
152 147 0
152 148 0
149 144 0
150 147 0
145 142 0
151 147 0
149 145 0
148 143 0
152 148 0
152 147 0
151 147 0
152 146 0
151 146 0
150 146 11
150 145 0
151 147 0
151 145 16
146 141 16
150 146 16
150 144 19
152 147 11
151 144 16
154 148 16
153 149 19
151 145 25
153 147 25
154 149 25
155 150 30
154 149 28
153 147 30
157 150 36
153 149 30
159 151 42
159 153 30
155 150 37
152 173 0
152 173 0
153 174 0
154 174 0
153 173 0
151 171 0
151 172 0
150 171 0
152 173 0
152 172 0
152 172 0
150 171 0
151 171 0
149 170 0
153 174 0
148 169 0
150 170 0
153 173 0
149 169 0
154 174 0
148 167 0
153 173 0
148 169 0
149 168 0
151 171 0
151 171 0
147 168 0
152 173 0
150 171 0
150 171 0
149 168 0
151 171 0
149 169 0
149 169 0
149 168 0
151 171 0
152 172 0
148 168 0
153 172 0
149 170 0
144 165 0
145 165 0
151 171 0
147 167 0
143 163 0
149 170 0
146 166 0
148 168 0
150 170 0
144 164 0
142 162 0
148 168 0
144 164 0
144 163 0
146 166 0
146 166 0
148 167 0
146 167 0
143 163 0
147 167 0
149 169 0
143 163 0
146 166 0
142 162 0
143 162 0
142 162 0
145 165 0
136 155 0
143 163 0
137 156 0
141 161 0
143 162 0
145 166 0
142 162 0
141 160 0
139 158 0
140 160 0
139 159 0
141 160 0
142 161 0
139 159 0
137 157 0
134 153 0
144 163 0
136 154 0
134 153 0
137 157 0
143 161 0
138 157 0
133 152 0
137 155 0
130 149 0
134 152 0
128 146 0
133 150 0
126 144 0
128 148 0
129 147 0
134 152 0
130 148 0
131 150 0
124 141 0
120 137 0
120 137 0
123 141 0
126 143 0
121 138 0
125 143 0
118 136 0
109 125 0
110 127 0
120 137 0
120 137 0
110 126 0
124 140 0
113 130 0
117 133 0
106 121 0
121 138 0
110 126 0
109 124 0
107 123 0
111 127 0
115 130 0
117 133 0
105 120 0
115 131 0
113 128 0
117 132 0
119 135 0
110 126 0
111 126 0
133 150 0
155 177 0
160 181 0
159 181 0
157 179 0
158 179 0
158 179 0
159 180 0
152 174 0
156 178 0
156 177 0
152 173 0
151 172 0
151 173 0
151 173 0
151 173 0
156 177 0
151 173 0
148 170 0
158 181 0
147 169 0
157 178 0
152 173 0
149 171 0
148 170 0
146 168 0
153 176 0
148 171 0
147 169 0
153 175 0
142 162 18
85 109 69
47 76 77
49 78 72
49 79 77
49 78 71
51 81 89
52 82 84
52 83 91
52 82 88
53 84 96
54 86 99
53 84 103
52 82 103
51 82 84
50 80 78
50 80 80
51 81 99
51 81 74
53 84 95
53 84 99
55 87 107
54 85 107
55 87 99
51 81 90
53 84 84
54 85 102
53 83 100
54 85 88
52 83 97
52 82 92
54 86 88
54 86 97
54 85 107
52 83 84
53 84 88
55 87 110
53 85 94
51 81 90
53 84 95
54 85 94
53 84 90
54 84 100
57 90 105
53 84 82
53 84 90
54 85 105
52 83 92
53 84 90
54 85 107
55 87 97
54 85 95
55 87 96
54 86 97
50 79 82
52 83 83
53 84 89
54 85 94
51 81 88
54 85 96
55 86 102
52 82 94
51 81 96
50 79 84
51 80 97
53 83 94
50 78 94
50 78 85
50 79 78
49 77 89
51 79 89
50 78 73
42 66 68
44 69 54
73 95 55
128 145 25
142 161 0
148 165 0
143 160 0
147 165 0
152 174 0
145 163 0
142 162 0
143 161 0
148 166 0
152 169 0
149 167 0
156 173 0
146 162 0
146 164 0
154 173 0
150 168 0
154 173 0
151 168 0
159 176 0
151 168 0
158 175 0
154 170 0
157 175 0
152 168 0
156 174 0
158 177 0
164 182 0
155 171 0
157 174 0
117 123 16
86 82 16
101 96 19
89 84 25
89 85 16
101 95 22
85 82 18
96 91 0
95 91 0
94 89 19
106 101 0
103 98 0
100 94 11
94 91 8
92 90 0
106 101 0
97 95 0
94 90 8
107 100 0
98 94 0
111 106 8
118 112 0
108 103 0
112 107 0
118 113 0
117 112 0
118 112 0
113 109 0
115 110 0
125 119 0
122 117 0
118 115 0
127 122 0
120 115 0
123 119 0
128 125 0
128 124 0
128 124 0
123 120 0
135 128 0
134 129 0
125 121 0
132 128 0
131 125 0
132 128 0
131 124 0
136 132 0
135 130 0
139 135 0
129 126 0
141 136 0
139 133 0
144 139 0
146 140 0
141 136 0
139 136 0
137 132 0
136 132 0
142 136 0
136 133 0
143 137 0
145 140 0
138 132 0
142 136 0
143 138 0
141 135 0
144 139 0
142 137 0
143 140 0
141 138 0
138 133 0
146 141 0
140 135 0
143 139 0
146 141 0
143 136 0
148 142 0
146 140 0
147 142 0
144 139 0
151 145 0
145 141 0
142 137 0
146 142 0
147 142 0
147 143 0
147 143 0
149 142 0
148 143 0
145 141 0
147 142 0
150 145 0
148 144 0
146 141 0
148 141 0
152 149 0
147 143 0
150 144 0
148 142 0
148 144 0
146 142 0
148 144 0
150 144 0
146 142 0
146 140 0
148 144 0
146 142 0
151 146 0
152 148 0
151 146 0
148 142 0
150 144 0
152 149 0
150 146 0
151 146 0
151 147 0
154 149 16
147 143 11
154 150 16
151 145 19
152 147 22
151 146 19
151 146 19
150 146 16
154 149 11
152 149 22
153 146 22
153 147 22
154 149 16
152 147 22
155 150 30
156 150 36
156 152 30
152 173 0
151 171 0
152 173 0
153 173 0
154 174 0
153 173 0
151 171 0
149 169 0
152 172 0
153 173 0
152 172 0
148 169 0
151 172 0
151 172 0
154 174 0
150 170 0
150 171 0
151 172 0
152 172 0
151 171 0
151 172 0
153 172 0
147 167 0
150 170 0
151 172 0
148 168 0
149 169 0
152 172 0
153 173 0
150 170 0
151 172 0
152 172 0
151 171 0
149 169 0
148 168 0
148 168 0
148 167 0
146 165 0
149 169 0
146 165 0
145 165 0
149 169 0
147 167 0
150 171 0
147 167 0
150 170 0
147 166 0
143 163 0
144 164 0
147 167 0
144 164 0
148 168 0
145 165 0
143 163 0
150 170 0
144 164 0
142 162 0
142 161 0
146 165 0
145 165 0
143 163 0
143 162 0
145 164 0
148 168 0
144 163 0
146 166 0
149 169 0
143 162 0
143 163 0
132 151 0
141 161 0
141 160 0
140 158 0
136 155 0
143 162 0
141 158 0
131 150 0
142 162 0
139 159 0
136 155 0
134 153 0
142 161 0
137 156 0
136 154 0
134 152 0
143 161 0
136 156 0
130 148 0
128 147 0
127 146 0
132 150 0
131 150 0
134 152 0
137 155 0
133 152 0
131 150 0
125 143 0
129 147 0
133 152 0
127 145 0
130 148 0
128 146 0
124 142 0
123 141 0
120 137 0
120 136 0
117 133 0
123 141 0
125 142 0
113 130 0
117 134 0
120 137 0
119 135 0
121 138 0
118 135 0
114 130 0
110 126 0
116 132 0
110 127 0
116 132 0
115 130 0
107 122 0
106 121 0
105 119 0
114 129 0
115 131 0
106 121 0
120 135 0
114 130 0
116 132 0
113 129 0
133 149 0
160 181 0
159 180 0
156 177 0
150 171 0
152 173 0
155 176 0
146 167 0
152 174 0
152 173 0
153 174 0
151 173 0
143 163 0
154 175 0
149 169 0
148 169 0
153 175 0
148 169 0
145 165 0
147 169 0
143 165 0
151 173 0
145 166 0
151 173 0
152 173 0
139 160 0
143 163 0
140 160 0
143 164 0
146 168 0
143 165 0
145 167 0
136 157 18
67 92 72
44 71 60
49 78 74
48 76 80
49 78 78
47 76 72
49 79 80
50 79 83
49 79 89
50 80 88
50 80 88
53 84 100
51 81 76
52 83 91
52 83 89
52 82 97
52 83 96
52 84 90
51 81 85
53 84 103
52 82 90
51 80 74
53 84 95
56 88 102
51 82 86
54 86 106
54 86 94
52 83 100
55 86 110
54 85 103
55 87 97
53 85 102
54 86 100
54 86 94
52 83 82
54 86 100
54 86 95
54 85 92
56 88 107
55 87 97
53 84 100
54 85 99
52 82 90
53 84 100
50 80 80
53 84 105
53 84 102
54 85 94
54 85 94
53 84 94
51 80 92
52 82 84
51 82 95
54 85 99
52 81 88
53 84 96
53 83 97
54 84 110
50 80 95
51 81 80
51 81 92
50 78 88
50 79 81
50 78 81
50 79 80
51 79 88
50 78 79
48 76 73
52 81 101
48 74 75
44 68 70
74 90 46
140 158 18
142 160 0
133 151 0
140 158 0
147 164 0
139 157 0
143 162 0
155 174 0
145 163 0
152 169 0
143 160 0
148 166 0
146 163 0
146 163 0
144 161 0
138 153 0
156 172 0
147 164 0
141 158 0
143 159 0
151 168 0
154 171 0
145 159 0
158 177 0
147 162 0
151 166 0
145 160 0
155 170 0
161 177 0
158 176 0
150 165 0
160 176 0
123 133 16
95 91 28
98 92 19
99 93 30
92 87 11
84 79 16
92 87 11
90 86 16
105 99 11
98 93 8
102 97 0
97 93 3
99 93 8
97 93 0
114 106 0
111 105 0
103 99 8
107 101 0
117 111 8
103 99 0
123 116 0
108 103 0
112 109 0
119 113 0
108 104 0
115 109 0
124 117 0
113 108 0
115 111 0
120 113 0
123 120 0
116 110 0
124 118 0
124 118 0
122 116 0
120 117 0
131 123 0
130 126 0
130 126 0
132 128 0
127 123 0
128 122 0
130 125 0
138 132 0
131 126 0
138 132 0
139 134 0
130 126 0
142 136 0
141 137 0
133 129 0
133 129 0
137 130 0
137 130 0
139 133 0
140 133 0
141 136 0
139 133 0
137 132 0
136 131 0
145 140 0
143 139 0
143 137 0
135 129 0
145 140 0
143 138 0
145 140 0
142 137 0
141 137 0
144 139 0
140 135 0
146 140 0
137 132 0
145 139 0
143 140 0
144 138 0
141 135 0
144 137 0
149 145 0
145 139 0
146 140 0
141 135 0
143 136 0
148 143 0
146 140 0
148 142 0
145 140 0
147 141 0
146 141 0
146 141 0
147 141 0
145 141 0
149 146 0
150 144 0
150 146 0
149 144 0
147 141 0
153 146 0
151 147 0
147 142 0
146 143 0
146 141 0
147 144 0
151 146 0
150 146 0
150 146 0
147 143 0
152 146 0
147 142 0
148 143 0
153 149 0
152 148 0
153 148 0
150 145 0
149 144 0
148 145 0
152 147 0
148 144 0
149 144 11
150 146 11
151 147 16
153 148 16
152 147 0
154 148 22
154 149 16
153 148 16
152 147 28
154 149 19
150 146 16
154 148 25
153 148 25
157 150 36
153 174 0
153 174 0
151 172 0
150 170 0
152 172 0
149 170 0
151 171 0
153 174 0
153 173 0
150 170 0
151 172 0
154 174 0
152 173 0
151 171 0
149 170 0
153 173 0
151 172 0
150 171 0
149 169 0
150 172 0
151 171 0
151 172 0
153 174 0
148 168 0
151 171 0
149 168 0
145 165 0
150 170 0
151 171 0
150 170 0
145 165 0
149 169 0
147 167 0
148 169 0
150 170 0
147 168 0
149 169 0
148 168 0
145 165 0
149 169 0
149 170 0
149 168 0
150 170 0
150 170 0
147 167 0
148 169 0
143 163 0
147 168 0
148 168 0
146 166 0
145 165 0
144 164 0
147 166 0
144 163 0
142 161 0
142 160 0
147 167 0
145 166 0
144 163 0
143 161 0
143 163 0
144 164 0
142 161 0
139 158 0
140 158 0
144 162 0
142 162 0
144 164 0
142 161 0
144 164 0
143 161 0
142 161 0
140 160 0
138 158 0
142 160 0
146 166 0
145 164 0
143 163 0
137 156 0
141 160 0
136 154 0
137 156 0
135 154 0
134 153 0
137 155 0
141 160 0
131 149 0
136 156 0
134 153 0
136 154 0
133 152 0
136 154 0
137 155 0
129 147 0
128 147 0
136 153 0
124 141 0
132 150 0
129 147 0
127 144 0
130 148 0
129 145 0
125 143 0
129 146 0
120 138 0
124 140 0
128 145 0
119 135 0
116 133 0
115 131 0
125 142 0
124 139 0
117 132 0
117 133 0
121 137 0
116 132 0
109 125 0
114 129 0
113 128 0
114 131 0
112 127 0
100 115 0
113 128 0
109 124 0
108 124 0
109 123 0
112 127 0
111 125 0
100 114 0
110 124 0
141 159 0
153 173 0
151 172 0
153 175 0
149 169 0
152 173 0
150 171 0
152 171 0
148 169 0
148 169 0
155 175 0
148 168 0
153 174 0
151 172 0
155 177 0
149 170 0
153 174 0
144 165 0
144 165 0
149 170 0
140 161 0
146 167 0
140 161 0
136 156 0
146 168 0
148 170 0
144 165 0
141 161 0
145 166 0
138 159 0
140 160 0
136 157 0
140 160 0
135 155 0
130 151 31
75 96 63
44 71 65
48 76 74
49 78 83
50 80 94
49 78 80
49 78 82
49 79 88
49 79 74
52 83 98
49 78 86
52 83 84
52 83 96
51 81 88
55 86 105
54 85 90
52 82 94
52 82 94
52 83 88
54 85 92
55 86 98
54 85 95
51 82 86
53 85 96
52 83 84
53 85 92
54 85 100
52 83 93
53 83 100
53 84 88
53 84 92
54 86 90
53 84 84
54 85 95
52 83 94
53 84 97
54 86 95
54 86 86
48 77 86
55 87 94
53 84 86
49 79 82
53 84 92
55 86 95
51 81 80
55 87 92
52 82 90
54 85 90
52 82 88
53 84 108
54 86 100
52 82 99
52 82 96
51 81 97
53 83 95
52 82 95
52 82 90
48 76 73
48 75 70
49 77 81
54 84 107
48 75 86
50 79 90
49 77 79
48 75 63
48 75 64
46 72 68
47 74 62
46 72 62
65 88 60
127 144 0
136 155 0
142 161 0
130 144 0
134 152 0
142 159 0
132 147 0
138 157 0
142 159 0
138 155 0
146 160 0
151 169 0
143 159 0
145 162 0
142 158 0
153 169 0
139 156 0
144 159 0
144 161 0
150 167 0
146 164 0
144 158 0
147 160 0
152 166 0
144 159 0
157 172 0
146 158 0
153 167 0
152 169 0
149 166 0
150 165 0
150 163 0
144 157 0
149 165 0
132 141 11
91 86 28
79 75 16
99 93 11
92 86 16
96 90 18
99 93 0
92 88 11
92 86 11
97 93 0
110 103 0
88 86 8
103 97 0
97 90 0
94 87 0
107 101 0
107 100 0
106 100 0
105 100 11
112 107 0
107 102 0
104 101 0
115 112 0
111 107 0
103 101 0
118 114 0
114 108 0
117 111 0
118 114 0
121 114 0
124 117 0
123 118 0
126 121 0
123 118 0
123 115 0
128 122 0
126 120 0
135 129 0
123 118 0
125 120 0
132 125 0
129 125 0
135 128 0
132 126 0
135 130 0
131 127 0
129 124 0
137 131 0
134 129 0
134 128 0
135 129 0
137 133 0
136 130 0
143 137 0
140 134 0
139 133 0
137 132 0
142 137 0
136 132 0
139 135 0
141 135 0
134 128 0
139 134 0
142 136 0
140 135 0
140 133 0
142 138 0
144 139 0
142 135 0
145 140 0
143 136 0
145 139 0
146 140 0
144 139 0
141 137 0
141 135 0
145 139 0
141 136 0
140 135 0
150 145 0
145 139 0
149 144 0
142 136 0
146 140 0
151 144 0
148 143 0
145 140 0
147 142 0
150 144 0
144 139 0
147 142 0
146 140 0
146 140 0
147 141 0
147 142 0
147 142 0
145 140 0
146 141 0
144 139 0
151 147 0
150 145 0
150 146 0
150 146 0
149 144 0
150 146 0
153 149 0
152 146 0
148 143 0
149 144 0
151 147 0
149 144 0
151 146 0
150 144 0
152 148 0
153 148 0
150 145 0
148 144 0
151 147 0
150 145 0
153 149 0
153 149 0
153 149 11
149 144 0
150 146 0
153 148 16
153 148 32
156 152 28
152 145 16
156 149 25
155 149 30
153 148 19
152 173 0
155 174 0
152 172 0
154 173 0
149 170 0
150 170 0
150 171 0
153 173 0
152 172 0
150 171 0
152 172 0
147 167 0
150 171 0
152 172 0
154 173 0
153 172 0
151 171 0
148 169 0
149 169 0
147 167 0
149 170 0
150 170 0
148 167 0
149 169 0
149 170 0
152 171 0
149 169 0
149 169 0
150 170 0
147 167 0
151 170 0
150 170 0
148 168 0
148 168 0
149 169 0
150 169 0
145 165 0
148 167 0
146 166 0
146 166 0
143 162 0
146 166 0
147 167 0
150 169 0
146 166 0
146 165 0
145 165 0
147 166 0
148 167 0
146 166 0
147 166 0
147 166 0
145 165 0
144 163 0
148 168 0
144 164 0
142 163 0
142 161 0
145 164 0
141 160 0
139 159 0
142 161 0
142 162 0
145 164 0
141 159 0
142 161 0
143 161 0
141 161 0
140 160 0
142 161 0
139 157 0
138 157 0
143 163 0
137 155 0
141 160 0
138 158 0
142 160 0
140 159 0
134 152 0
131 150 0
135 154 0
137 155 0
127 145 0
137 156 0
130 148 0
133 151 0
133 150 0
134 152 0
134 153 0
131 149 0
133 151 0
133 151 0
131 149 0
133 151 0
134 152 0
133 151 0
131 149 0
128 146 0
130 147 0
126 144 0
131 149 0
121 138 0
125 142 0
121 138 0
124 141 0
110 126 0
123 139 0
117 134 0
119 136 0
122 138 0
118 134 0
123 140 0
112 127 0
115 131 0
110 124 0
111 126 0
107 122 0
110 124 0
108 125 0
108 123 0
116 131 0
111 125 0
106 121 0
97 112 0
113 128 0
111 126 0
110 126 0
109 123 0
105 120 0
133 150 0
149 169 0
156 175 0
152 171 0
150 169 0
149 169 0
153 174 0
148 167 0
151 171 0
138 158 0
151 172 0
144 163 0
147 168 0
143 164 0
143 163 0
139 159 0
136 155 0
148 170 0
142 162 0
149 170 0
144 165 0
140 160 0
148 168 0
139 160 0
133 152 0
137 158 0
146 166 0
144 164 0
138 158 0
146 167 0
138 159 0
140 160 0
140 160 0
144 164 0
132 152 0
132 152 0
125 145 0
73 94 40
46 74 70
47 75 76
51 80 88
48 77 76
49 79 75
49 78 67
53 84 80
50 79 86
50 79 74
51 81 93
52 83 92
54 86 94
49 78 67
51 81 90
52 83 90
50 80 82
54 85 94
51 81 80
51 81 82
54 86 91
51 82 92
53 84 95
52 83 84
53 84 84
52 83 97
53 84 97
53 84 90
54 85 92
50 79 94
51 81 82
55 86 99
51 81 95
51 82 82
51 81 86
49 78 80
55 86 99
51 82 84
54 85 100
52 83 90
52 83 88
52 83 100
51 81 88
51 82 86
52 83 94
54 85 99
51 81 86
51 80 84
52 83 88
54 85 95
53 83 99
49 79 62
51 81 78
52 83 100
54 84 100
51 80 87
49 77 70
51 82 87
50 79 79
53 83 94
52 81 96
47 75 72
48 76 72
50 78 87
49 77 81
49 76 79
47 73 66
80 98 44
135 153 0
135 153 0
135 153 0
138 156 0
132 148 0
140 157 0
136 153 0
140 159 0
138 156 0
137 155 0
139 157 0
139 157 0
137 151 0
146 163 0
144 159 0
146 162 0
144 160 0
147 162 0
137 152 0
136 149 0
140 156 0
146 161 0
141 155 0
146 160 0
150 164 0
146 162 0
154 168 0
138 150 0
145 159 0
143 158 0
153 167 0
149 165 0
144 159 0
145 159 0
150 163 0
149 159 0
123 129 16
89 84 16
90 85 19
84 80 25
100 94 22
99 95 0
99 93 16
98 91 11
98 93 16
87 84 0
95 90 0
102 98 0
96 92 0
97 90 0
93 88 0
106 100 0
110 102 0
105 98 0
111 106 0
100 93 0
114 108 0
112 107 0
111 105 0
117 109 0
121 114 0
120 112 0
116 109 0
122 117 0
111 104 0
123 118 0
128 122 0
121 115 0
129 122 0
131 125 0
127 120 0
129 123 0
128 121 0
130 124 0
131 126 0
129 124 0
134 128 0
128 122 0
129 122 0
131 123 0
139 133 0
134 129 0
131 125 0
136 131 0
142 137 0
138 131 0
134 128 0
133 127 0
134 129 0
131 127 0
137 133 0
141 134 0
138 132 0
133 128 0
142 137 0
142 135 0
141 135 0
139 134 0
140 133 0
142 136 0
138 132 0
147 142 0
138 133 0
143 138 0
144 138 0
142 134 0
140 134 0
146 140 0
143 137 0
143 137 0
147 142 0
144 137 0
148 143 0
147 143 0
147 141 0
149 144 0
141 135 0
144 139 0
145 140 0
147 141 0
146 140 0
145 139 0
144 139 0
149 143 0
149 143 0
150 144 0
148 141 0
148 144 0
148 142 0
147 139 0
151 145 0
148 144 0
147 141 0
149 143 0
148 143 0
147 142 0
148 143 0
145 140 0
149 143 0
147 142 0
148 143 0
147 143 0
151 145 0
144 137 0
148 143 0
148 142 0
149 145 0
150 145 0
152 147 0
146 141 0
152 147 0
148 143 0
152 147 0
150 145 0
154 150 0
147 144 0
150 144 11
151 146 0
152 147 11
152 148 11
152 148 16
156 151 19
153 148 25
150 145 25
151 145 19
148 143 19
153 173 0
153 173 0
151 172 0
151 171 0
152 173 0
150 172 0
151 172 0
151 171 0
145 165 0
152 172 0
151 172 0
152 173 0
153 173 0
150 171 0
147 168 0
151 171 0
149 170 0
151 172 0
151 172 0
147 167 0
152 172 0
151 171 0
152 172 0
151 171 0
150 170 0
148 168 0
148 167 0
148 168 0
148 168 0
148 167 0
148 168 0
148 167 0
152 172 0
148 168 0
149 169 0
146 166 0
146 166 0
145 165 0
147 167 0
146 166 0
147 167 0
147 166 0
145 164 0
150 170 0
145 166 0
147 166 0
149 168 0
145 164 0
141 162 0
145 164 0
150 170 0
150 169 0
143 162 0
144 162 0
142 161 0
145 164 0
141 160 0
146 166 0
145 165 0
145 164 0
142 163 0
142 163 0
141 159 0
144 163 0
144 163 0
143 161 0
137 156 0
142 161 0
138 157 0
139 157 0
134 151 0
144 164 0
140 159 0
136 156 0
138 156 0
137 155 0
132 150 0
141 160 0
139 158 0
138 157 0
136 154 0
134 153 0
131 149 0
134 152 0
136 154 0
134 151 0
126 143 0
134 151 0
136 155 0
134 152 0
131 150 0
129 147 0
132 151 0
130 148 0
137 156 0
134 153 0
132 150 0
130 147 0
129 146 0
128 145 0
126 144 0
129 147 0
126 144 0
123 139 0
119 135 0
121 137 0
121 138 0
122 138 0
120 136 0
118 134 0
123 140 0
112 129 0
114 129 0
113 129 0
117 132 0
117 132 0
104 118 0
100 115 0
110 125 0
104 119 0
108 123 0
110 127 0
117 132 0
107 121 0
108 123 0
109 124 0
109 123 0
101 114 0
132 149 0
152 172 0
145 164 0
156 177 0
144 164 0
162 181 0
147 168 0
142 161 0
143 164 0
142 161 0
139 158 0
146 165 0
139 158 0
143 163 0
151 171 0
139 158 0
150 171 0
144 163 0
141 161 0
139 158 0
141 161 0
147 167 0
142 162 0
149 170 0
141 161 0
144 165 0
146 166 0
129 148 0
141 161 0
136 155 0
128 148 0
142 162 0
135 155 0
126 145 0
132 152 0
133 152 0
137 157 0
144 163 0
128 148 0
88 109 50
48 76 71
47 75 64
47 75 75
47 75 88
48 77 74
47 75 70
48 77 78
51 81 86
50 80 96
51 82 82
49 79 72
48 78 78
51 81 88
51 81 88
49 78 76
49 78 71
53 84 90
51 81 86
52 82 78
52 82 94
50 80 86
48 77 82
54 85 100
51 81 80
52 83 88
53 84 90
52 82 97
53 84 92
53 83 94
52 82 74
53 84 98
51 81 90
53 84 92
52 82 90
52 83 92
52 83 86
50 79 80
51 81 82
52 82 82
50 79 88
52 83 95
53 84 105
50 80 90
54 85 105
49 79 86
50 78 79
52 82 86
52 83 96
49 79 74
50 79 87
52 81 96
49 77 81
50 78 84
51 79 89
50 78 94
46 73 67
48 75 75
50 78 82
45 71 60
45 71 67
44 69 58
51 79 85
45 71 76
48 74 82
86 104 60
122 140 0
131 148 0
131 148 0
122 138 0
127 142 0
127 143 0
130 145 0
129 146 0
139 158 0
136 152 0
145 161 0
133 150 0
143 159 0
138 155 0
142 157 0
132 147 0
138 153 0
131 146 0
141 154 0
145 162 0
140 153 0
141 155 0
139 155 0
145 161 0
146 158 0
135 150 0
146 160 0
145 159 0
149 164 0
138 149 0
148 161 0
144 156 0
147 157 0
142 153 0
143 157 0
150 162 0
146 159 0
154 166 0
142 150 0
100 95 25
84 79 22
90 86 11
94 90 16
84 79 11
86 81 16
90 84 0
98 92 0
87 83 0
102 93 0
88 80 0
100 94 0
101 96 0
99 93 0
99 93 0
116 110 0
104 99 0
113 105 0
109 102 0
106 100 0
110 105 0
117 110 0
106 101 0
115 108 0
126 116 0
119 112 0
120 115 0
116 110 0
130 124 0
120 113 0
121 115 0
118 112 0
131 125 0
131 125 0
129 122 0
128 120 0
127 122 0
136 131 0
131 124 0
131 123 0
132 124 0
135 128 0
133 128 0
137 130 0
135 130 0
131 125 0
135 129 0
139 133 0
135 130 0
136 130 0
137 130 0
141 136 0
138 131 0
134 127 0
137 131 0
139 134 0
139 133 0
137 131 0
140 136 0
140 135 0
136 132 0
141 135 0
141 136 0
139 130 0
140 135 0
141 136 0
141 136 0
143 137 0
142 135 0
145 139 0
143 137 0
141 133 0
144 137 0
145 138 0
145 139 0
142 137 0
143 137 0
146 140 0
144 138 0
146 141 0
145 138 0
145 141 0
144 139 0
148 143 0
148 142 0
145 140 0
145 141 0
144 137 0
149 145 0
148 143 0
146 140 0
148 142 0
146 142 0
146 142 0
148 142 0
145 139 0
150 145 0
153 148 0
151 147 0
147 142 0
147 142 0
146 139 0
148 142 0
146 140 0
152 148 0
151 146 0
150 144 0
148 143 0
148 143 0
148 143 0
150 144 0
149 144 0
148 143 0
152 147 0
150 145 0
145 141 0
149 143 0
150 146 0
151 145 0
152 147 0
148 143 0
149 144 0
151 144 11
148 143 16
148 143 11
154 149 19
151 145 32
151 144 19
151 171 0
152 171 0
150 171 0
152 172 0
153 173 0
152 173 0
151 171 0
154 174 0
152 172 0
151 172 0
149 169 0
151 172 0
149 169 0
150 170 0
151 171 0
150 170 0
148 169 0
146 166 0
149 169 0
151 172 0
150 170 0
151 170 0
152 172 0
147 168 0
152 172 0
146 165 0
150 170 0
149 169 0
145 165 0
150 170 0
146 165 0
147 167 0
150 169 0
147 168 0
143 163 0
146 166 0
150 171 0
147 166 0
146 166 0
149 170 0
149 170 0
149 168 0
145 164 0
146 165 0
145 165 0
144 163 0
147 167 0
149 169 0
144 163 0
145 164 0
145 164 0
147 166 0
147 166 0
142 161 0
144 164 0
145 165 0
146 166 0
145 164 0
143 163 0
136 155 0
143 162 0
140 159 0
141 159 0
145 163 0
138 157 0
139 158 0
143 162 0
140 159 0
137 156 0
141 161 0
137 156 0
139 158 0
136 155 0
138 157 0
140 158 0
136 154 0
144 162 0
143 162 0
137 155 0
139 157 0
136 154 0
131 151 0
128 147 0
138 155 0
132 150 0
133 151 0
130 148 0
135 153 0
135 152 0
133 150 0
132 150 0
131 149 0
140 158 0
132 149 0
125 142 0
122 139 0
127 145 0
134 150 0
123 139 0
126 143 0
120 137 0
131 148 0
128 146 0
118 136 0
117 133 0
119 135 0
118 134 0
115 131 0
119 134 0
113 128 0
111 126 0
128 144 0
121 135 0
108 123 0
102 116 0
105 120 0
114 128 0
111 126 0
113 126 0
110 125 0
104 119 0
115 129 0
106 119 0
116 130 0
116 130 0
97 111 0
105 118 0
140 158 0
147 166 0
147 165 0
152 172 0
144 163 0
137 156 0
145 164 0
146 166 0
140 159 0
142 161 0
143 163 0
143 162 0
145 164 0
142 161 0
151 170 0
143 163 0
139 159 0
141 161 0
142 161 0
135 156 0
140 159 0
127 147 0
135 155 0
139 159 0
137 157 0
141 160 0
139 158 0
130 150 0
135 154 0
141 161 0
135 155 0
125 144 0
133 154 0
133 154 0
132 152 0
131 152 0
124 143 0
122 141 0
134 153 0
127 146 0
121 140 0
100 119 18
62 87 64
45 73 58
48 77 66
49 79 84
48 77 76
50 79 86
49 77 78
46 73 72
50 79 82
52 83 86
51 81 82
48 76 82
52 82 91
50 80 82
50 79 86
50 79 84
51 81 78
50 79 82
50 80 86
51 81 74
51 81 72
49 79 86
50 79 92
49 79 76
52 82 84
51 81 95
54 86 108
52 83 90
54 85 107
53 84 97
50 80 86
51 82 92
52 83 92
50 80 86
50 80 76
52 82 88
49 78 72
53 83 97
50 80 86
51 81 88
53 84 90
53 83 92
51 80 90
50 79 82
55 87 102
52 81 86
49 78 82
52 83 85
51 80 97
48 76 75
50 78 78
49 77 76
48 77 74
51 80 92
49 78 73
49 77 83
48 76 79
49 78 86
46 73 60
48 75 70
46 71 71
54 76 60
107 124 26
129 143 0
125 139 0
129 145 0
118 134 0
127 141 0
128 144 0
140 157 0
125 142 0
126 144 0
131 148 0
134 149 0
117 133 0
145 163 0
124 139 0
133 147 0
133 148 0
135 147 0
134 147 0
132 145 0
143 159 0
134 150 0
139 154 0
143 158 0
142 154 0
136 147 0
146 159 0
135 148 0
138 152 0
143 155 0
139 151 0
137 150 0
143 154 0
143 152 0
146 157 0
147 162 0
147 157 0
139 151 0
141 151 0
152 164 0
140 154 0
142 151 0
97 93 11
84 79 19
85 81 16
85 78 11
93 87 16
100 94 11
82 76 0
104 96 0
97 89 0
94 90 0
100 94 0
85 81 0
99 93 0
108 103 0
100 96 0
96 91 0
108 103 0
110 103 0
105 100 0
111 101 0
109 102 0
109 105 0
118 110 0
121 115 0
114 107 0
116 109 0
127 118 0
112 107 0
131 125 0
117 112 0
120 115 0
127 121 0
126 121 0
133 126 0
126 121 0
136 129 0
127 121 0
132 126 0
126 119 0
128 124 0
135 129 0
131 125 0
137 130 0
131 126 0
125 117 0
132 126 0
132 126 0
137 132 0
134 128 0
133 124 0
137 132 0
136 130 0
133 127 0
144 137 0
139 133 0
142 136 0
135 129 0
144 137 0
138 132 0
139 134 0
141 135 0
139 133 0
141 134 0
140 134 0
139 133 0
140 134 0
143 137 0
140 135 0
142 136 0
139 132 0
145 139 0
145 138 0
142 136 0
140 134 0
142 137 0
144 139 0
141 135 0
146 139 0
146 138 0
148 143 0
143 137 0
142 137 0
146 139 0
143 135 0
148 141 0
141 135 0
146 141 0
144 138 0
147 142 0
145 139 0
147 140 0
149 144 0
148 142 0
146 140 0
151 145 0
147 140 0
151 145 0
147 143 0
150 146 0
148 143 0
150 145 0
150 145 0
147 142 0
149 143 0
149 145 0
150 144 0
144 138 0
149 145 0
145 140 0
146 141 0
151 146 0
149 143 0
150 145 0
149 145 0
149 144 0
152 147 0
150 145 0
151 147 0
149 144 0
150 144 0
149 145 0
146 141 16
148 143 0
153 148 16
151 144 19
148 142 19
150 145 22
152 172 0
151 172 0
150 170 0
151 171 0
149 170 0
151 172 0
152 172 0
147 167 0
151 171 0
150 170 0
152 172 0
150 169 0
150 169 0
149 169 0
151 172 0
148 169 0
152 171 0
151 170 0
148 168 0
148 167 0
147 166 0
149 169 0
150 170 0
149 169 0
149 168 0
151 172 0
146 165 0
149 169 0
149 169 0
150 171 0
144 163 0
144 163 0
148 168 0
148 168 0
147 167 0
148 168 0
147 166 0
149 169 0
143 162 0
146 165 0
147 167 0
149 168 0
151 171 0
150 169 0
148 168 0
145 164 0
145 163 0
143 162 0
146 165 0
144 163 0
144 163 0
141 161 0
145 164 0
149 169 0
142 161 0
144 163 0
144 163 0
146 165 0
144 162 0
142 160 0
141 160 0
140 158 0
142 161 0
139 158 0
142 161 0
141 160 0
140 157 0
134 152 0
144 163 0
138 157 0
134 152 0
138 156 0
137 155 0
138 157 0
138 157 0
133 152 0
139 156 0
139 158 0
139 158 0
143 162 0
131 148 0
135 154 0
137 155 0
131 148 0
133 151 0
125 143 0
129 146 0
128 145 0
131 149 0
132 150 0
132 150 0
127 143 0
126 143 0
135 153 0
129 146 0
128 145 0
124 142 0
127 144 0
123 141 0
130 147 0
127 144 0
120 136 0
118 133 0
121 138 0
120 135 0
121 136 0
110 125 0
111 127 0
111 126 0
117 132 0
115 130 0
113 129 0
109 124 0
117 132 0
113 128 0
107 122 0
117 132 0
105 119 0
111 125 0
101 115 0
110 124 0
110 124 0
115 130 0
109 123 0
102 116 0
116 132 0
141 159 0
146 165 0
154 173 0
142 160 0
150 168 0
148 165 0
146 164 0
142 160 0
142 160 0
138 156 0
138 155 0
148 166 0
138 157 0
144 163 0
148 166 0
137 156 0
140 159 0
145 164 0
148 167 0
132 151 0
135 155 0
134 154 0
139 159 0
128 147 0
129 148 0
127 147 0
131 150 0
135 154 0
124 143 0
135 155 0
134 154 0
130 150 0
130 150 0
135 154 0
131 150 0
125 144 0
123 142 0
122 141 0
131 150 0
122 139 0
111 131 0
120 138 0
121 139 0
114 134 25
65 87 65
44 70 68
47 75 62
44 71 54
46 74 69
48 77 76
50 80 82
50 80 78
48 77 82
50 79 90
49 78 78
54 85 91
53 83 100
50 79 84
52 82 84
52 82 95
50 79 88
49 78 76
50 80 90
51 80 86
50 79 82
52 82 92
52 83 92
48 77 72
51 81 86
53 84 95
51 80 90
50 80 82
52 83 84
52 82 92
51 82 80
52 83 86
47 75 88
53 83 99
49 78 78
54 85 102
51 81 90
52 83 84
52 82 86
50 79 88
49 78 82
53 83 85
51 82 82
51 81 94
50 80 76
50 79 92
49 78 78
48 77 79
47 74 72
48 77 81
48 76 86
50 77 85
49 77 79
48 76 74
47 74 76
46 73 70
46 73 68
48 76 65
44 70 65
64 81 51
106 119 0
104 121 0
106 120 0
129 145 0
112 126 0
126 140 0
117 132 0
128 143 0
125 140 0
127 141 0
127 142 0
128 144 0
128 143 0
131 147 0
128 144 0
117 132 0
123 139 0
140 155 0
141 157 0
134 150 0
133 147 0
130 145 0
135 149 0
138 150 0
126 140 0
139 151 0
129 140 0
141 154 0
139 153 0
147 159 0
136 148 0
137 150 0
130 138 0
145 153 0
139 151 0
134 143 0
133 143 0
140 152 0
148 159 0
135 145 0
138 149 0
142 150 0
142 147 0
147 157 0
120 125 11
89 81 11
93 88 0
79 74 11
95 89 16
96 89 0
92 87 0
88 82 0
95 90 0
101 95 0
97 93 0
95 90 0
97 91 0
110 101 0
99 93 0
112 107 0
104 97 0
105 99 0
106 101 0
118 110 0
114 108 0
115 111 0
111 104 0
115 109 0
115 107 0
119 113 0
115 107 0
124 117 0
111 105 0
123 116 0
115 108 0
118 112 0
126 121 0
123 116 0
126 118 0
131 124 0
127 119 0
129 122 0
130 123 0
133 123 0
138 131 0
129 122 0
138 132 0
128 122 0
138 132 0
138 130 0
135 128 0
131 125 0
140 133 0
133 126 0
138 130 0
137 130 0
132 124 0
140 133 0
136 130 0
141 134 0
135 127 0
140 134 0
139 133 0
140 134 0
137 131 0
139 133 0
144 137 0
141 133 0
142 135 0
143 136 0
145 139 0
147 141 0
141 135 0
146 140 0
144 138 0
148 143 0
141 135 0
132 125 0
142 137 0
148 144 0
136 130 0
143 137 0
145 139 0
141 135 0
145 138 0
144 137 0
142 137 0
145 140 0
144 139 0
144 140 0
146 139 0
145 138 0
143 138 0
145 140 0
148 144 0
146 139 0
150 144 0
148 143 0
152 146 0
149 143 0
146 139 0
150 145 0
150 144 0
151 143 0
148 142 0
146 138 0
146 141 0
152 146 0
147 142 0
151 146 0
146 141 0
149 144 0
149 145 0
150 143 0
152 146 0
146 141 0
150 144 0
147 140 0
153 148 0
152 147 0
151 146 0
147 143 0
147 142 0
149 144 0
146 140 11
151 146 0
150 145 19
149 145 0
153 148 22
148 141 30
152 172 0
152 172 0
153 172 0
149 170 0
153 173 0
152 172 0
148 168 0
150 171 0
148 168 0
150 169 0
151 172 0
148 168 0
150 170 0
147 168 0
152 172 0
152 172 0
147 167 0
152 171 0
150 169 0
152 172 0
148 167 0
147 166 0
150 170 0
151 171 0
150 170 0
147 167 0
151 170 0
149 168 0
148 167 0
149 169 0
152 172 0
149 168 0
147 167 0
147 166 0
146 164 0
146 166 0
148 168 0
146 166 0
147 167 0
148 167 0
147 167 0
147 166 0
146 165 0
145 164 0
146 164 0
144 163 0
144 164 0
146 165 0
147 166 0
144 164 0
142 161 0
144 164 0
145 165 0
147 166 0
146 165 0
145 163 0
144 163 0
142 161 0
143 160 0
144 164 0
140 158 0
140 159 0
140 159 0
141 160 0
141 159 0
141 159 0
140 159 0
141 160 0
137 156 0
137 155 0
142 161 0
136 154 0
142 160 0
137 155 0
135 152 0
138 156 0
140 158 0
137 155 0
129 146 0
132 150 0
137 155 0
136 154 0
134 151 0
132 151 0
134 153 0
134 151 0
132 151 0
123 140 0
122 138 0
129 147 0
126 145 0
129 146 0
126 142 0
132 149 0
123 141 0
126 143 0
120 136 0
125 142 0
127 143 0
132 148 0
131 147 0
128 144 0
120 136 0
127 144 0
117 132 0
119 134 0
111 126 0
119 134 0
113 129 0
126 142 0
117 133 0
106 122 0
109 124 0
114 129 0
104 118 0
97 111 0
99 113 0
108 122 0
107 121 0
110 123 0
102 115 0
85 98 0
106 119 0
97 110 0
123 139 0
141 159 0
136 154 0
152 170 0
142 160 0
142 160 0
136 154 0
141 159 0
142 159 0
134 152 0
142 160 0
140 157 0
137 156 0
131 149 0
137 156 0
128 145 0
134 152 0
131 149 0
138 157 0
129 147 0
134 152 0
132 150 0
132 150 0
137 155 0
131 151 0
131 148 0
128 147 0
128 146 0
131 149 0
125 144 0
127 146 0
126 144 0
128 147 0
124 142 0
131 150 0
136 155 0
117 136 0
114 131 0
123 141 0
117 135 0
119 138 0
119 137 0
121 139 0
127 145 0
117 135 0
119 138 0
105 122 0
79 98 54
44 71 65
45 71 70
47 74 70
46 75 59
47 76 71
46 74 72
50 79 76
49 78 72
47 76 84
49 78 76
48 77 76
54 85 95
51 82 88
50 80 88
51 81 78
53 83 97
46 75 74
51 81 92
49 78 74
52 82 76
52 82 78
50 80 88
50 79 76
51 81 92
54 85 99
51 81 80
53 84 103
53 84 90
49 79 82
49 79 78
52 82 97
53 84 86
48 76 80
51 80 88
50 80 78
50 80 84
52 82 86
49 78 74
52 82 80
51 81 92
52 82 92
48 77 84
53 83 92
49 78 94
49 77 82
50 80 90
50 80 90
47 74 72
49 78 90
46 73 63
46 73 77
48 75 77
44 70 57
47 73 73
47 74 68
48 75 65
84 100 40
110 125 0
108 124 0
112 126 0
123 138 0
104 119 0
115 130 0
117 130 0
122 137 0
123 139 0
131 148 0
123 138 0
119 133 0
121 136 0
128 143 0
115 128 0
126 142 0
131 145 0
119 132 0
123 136 0
123 137 0
115 125 0
130 142 0
135 147 0
127 140 0
125 137 0
136 150 0
135 147 0
128 139 0
122 133 0
146 157 0
140 153 0
135 148 0
136 148 0
134 143 0
132 142 0
146 158 0
131 139 0
142 152 0
139 150 0
130 134 0
135 145 0
140 147 0
135 146 0
134 144 0
132 141 0
143 151 0
135 140 16
87 83 0
88 83 11
82 77 11
92 85 0
104 96 0
98 93 0
98 91 0
91 85 0
90 84 0
91 84 0
100 94 0
103 98 0
104 96 0
105 98 0
102 95 0
105 98 0
106 100 0
103 97 0
111 102 0
106 98 0
112 105 0
116 108 0
124 117 0
112 105 0
117 111 0
117 110 0
116 108 0
116 110 0
128 119 0
129 120 0
129 120 0
126 118 0
134 126 0
131 124 0
130 122 0
129 122 0
124 116 0
131 123 0
126 118 0
131 125 0
136 126 0
138 130 0
127 119 0
132 125 0
135 130 0
140 133 0
134 128 0
132 124 0
138 133 0
134 126 0
135 128 0
137 132 0
134 129 0
136 130 0
142 134 0
137 129 0
140 135 0
140 133 0
136 131 0
139 134 0
138 132 0
137 129 0
139 132 0
138 132 0
140 135 0
143 135 0
145 138 0
144 136 0
142 137 0
140 134 0
141 134 0
141 134 0
140 133 0
145 138 0
146 139 0
139 133 0
143 137 0
143 136 0
147 140 0
143 135 0
143 135 0
140 137 0
148 141 0
147 141 0
142 135 0
147 141 0
144 138 0
143 137 0
145 138 0
142 136 0
147 141 0
149 144 0
146 140 0
145 140 0
148 142 0
147 141 0
147 141 0
146 142 0
152 146 0
146 140 0
149 144 0
150 145 0
141 134 0
148 142 0
149 144 0
151 145 0
148 143 0
149 143 0
148 141 0
152 147 0
151 145 0
147 143 0
149 145 0
153 147 0
147 144 0
144 138 0
147 142 0
146 141 0
147 141 11
145 141 16
149 144 19
148 144 0
145 138 16
147 143 11
153 173 0
150 170 0
152 172 0
152 173 0
152 172 0
149 170 0
152 172 0
148 168 0
152 172 0
152 171 0
149 168 0
149 169 0
151 171 0
152 172 0
149 169 0
147 167 0
150 170 0
145 165 0
151 170 0
150 169 0
150 171 0
149 169 0
151 171 0
151 171 0
148 167 0
149 168 0
149 169 0
148 167 0
149 168 0
148 167 0
150 170 0
150 170 0
144 163 0
148 167 0
148 167 0
149 168 0
145 165 0
146 166 0
143 163 0
148 167 0
145 164 0
143 161 0
144 163 0
146 165 0
147 166 0
148 167 0
142 161 0
144 162 0
141 159 0
147 166 0
146 166 0
145 164 0
144 163 0
147 167 0
141 161 0
138 157 0
135 153 0
146 166 0
142 160 0
144 163 0
142 160 0
140 158 0
145 164 0
143 162 0
143 162 0
140 158 0
144 164 0
142 161 0
136 154 0
140 158 0
138 156 0
140 158 0
137 156 0
139 156 0
141 160 0
140 158 0
136 154 0
137 155 0
136 154 0
137 154 0
136 153 0
129 147 0
129 147 0
127 144 0
132 149 0
136 154 0
128 145 0
127 143 0
135 152 0
128 145 0
138 155 0
127 143 0
131 148 0
132 149 0
124 140 0
125 141 0
128 145 0
122 138 0
113 130 0
115 130 0
127 143 0
121 136 0
123 138 0
111 126 0
118 133 0
122 138 0
114 129 0
124 139 0
113 128 0
118 132 0
108 123 0
106 120 0
112 127 0
97 110 0
101 115 0
107 121 0
99 112 0
107 121 0
104 118 0
100 113 0
110 124 0
109 121 0
99 111 0
136 152 0
144 160 0
144 162 0
141 158 0
137 154 0
124 141 0
139 156 0
139 157 0
138 155 0
133 150 0
132 150 0
137 154 0
133 151 0
128 145 0
135 153 0
136 154 0
125 142 0
139 158 0
131 149 0
134 153 0
132 150 0
139 158 0
133 150 0
133 152 0
131 149 0
130 149 0
128 146 0
133 152 0
136 155 0
132 151 0
126 144 0
131 150 0
138 157 0
129 147 0
130 148 0
124 142 0
116 134 0
122 142 0
121 138 0
123 142 0
119 139 0
121 140 0
118 135 0
111 128 0
102 120 0
120 137 0
102 120 0
102 118 0
91 109 0
85 102 25
66 88 51
45 72 66
43 69 62
44 72 57
46 74 78
48 77 80
52 83 92
48 77 74
50 80 88
48 76 69
47 75 64
49 77 76
47 76 70
48 77 72
51 81 94
49 78 76
49 79 82
49 78 86
49 78 80
51 80 82
50 78 86
52 83 94
52 83 88
49 79 72
50 79 93
48 77 74
49 79 78
52 82 80
50 79 87
50 80 92
49 77 74
49 78 76
52 82 88
50 80 82
50 79 86
49 78 62
49 78 88
51 80 78
48 76 76
47 74 68
51 81 92
49 77 84
48 76 86
48 77 81
49 77 81
49 78 78
50 78 75
48 76 77
48 76 75
46 73 72
46 73 68
46 73 74
42 67 47
64 82 44
94 106 25
123 137 0
95 110 0
107 121 0
112 126 0
104 117 0
117 130 0
115 127 0
111 126 0
118 133 0
121 136 0
117 132 0
123 137 0
124 140 0
125 141 0
116 131 0
126 140 0
122 136 0
116 130 0
127 141 0
121 135 0
120 134 0
123 136 0
125 139 0
119 133 0
128 140 0
131 144 0
122 135 0
134 144 0
125 138 0
119 129 0
140 151 0
134 143 0
130 142 0
139 152 0
132 141 0
119 127 0
133 143 0
123 133 0
127 138 0
137 147 0
127 134 0
133 136 0
140 150 0
123 129 0
125 133 0
137 143 0
141 149 0
129 134 0
142 147 11
102 99 11
86 79 11
81 77 0
84 78 19
95 90 0
92 87 0
92 87 0
91 83 0
104 96 0
95 89 0
103 97 0
94 85 0
105 98 0
98 91 0
108 103 0
108 100 0
114 107 0
104 96 0
105 98 0
105 97 0
110 104 0
119 111 0
112 103 0
114 106 0
129 121 0
117 110 0
110 104 0
114 109 0
124 116 0
116 111 0
123 116 0
123 118 0
127 120 0
130 121 0
131 122 0
130 123 0
118 111 0
124 117 0
127 119 0
133 125 0
132 120 0
135 127 0
130 123 0
135 128 0
130 122 0
134 129 0
133 126 0
134 126 0
140 131 0
137 129 0
134 126 0
139 131 0
138 132 0
141 133 0
130 123 0
133 126 0
143 136 0
139 133 0
135 129 0
136 129 0
144 137 0
134 126 0
145 137 0
148 141 0
135 129 0
142 136 0
141 135 0
142 134 0
143 135 0
138 131 0
146 138 0
146 138 0
140 135 0
141 134 0
136 130 0
140 134 0
137 131 0
140 134 0
146 140 0
142 135 0
139 134 0
144 138 0
144 137 0
150 143 0
145 138 0
150 144 0
145 137 0
146 141 0
147 142 0
148 143 0
150 143 0
147 141 0
144 138 0
143 138 0
151 145 0
151 144 0
149 143 0
145 139 0
145 139 0
147 141 0
146 141 0
147 141 0
150 146 0
147 141 0
148 142 0
145 139 0
148 142 0
152 146 0
150 144 0
149 143 0
147 142 0
145 139 0
145 141 0
150 145 0
144 139 0
149 144 0
145 138 0
145 139 0
149 144 0
145 139 0
145 139 19
142 136 19
142 138 11
152 172 0
149 169 0
150 170 0
149 169 0
152 173 0
155 174 0
150 170 0
148 167 0
151 171 0
150 171 0
151 171 0
149 168 0
146 166 0
150 170 0
152 171 0
150 169 0
148 168 0
145 164 0
149 169 0
149 169 0
146 165 0
147 165 0
147 167 0
149 169 0
150 169 0
151 170 0
148 167 0
145 165 0
146 165 0
146 165 0
150 170 0
147 167 0
146 166 0
148 168 0
148 168 0
145 164 0
146 165 0
144 163 0
146 164 0
143 161 0
146 166 0
141 160 0
146 165 0
146 165 0
144 163 0
147 167 0
143 162 0
150 170 0
146 164 0
147 166 0
140 158 0
141 159 0
146 165 0
148 166 0
147 166 0
141 160 0
143 161 0
144 164 0
144 162 0
139 157 0
137 155 0
139 158 0
137 155 0
141 159 0
140 158 0
139 157 0
135 152 0
138 156 0
140 159 0
135 153 0
136 154 0
139 157 0
140 157 0
133 152 0
139 156 0
141 159 0
139 157 0
134 151 0
140 158 0
130 148 0
132 149 0
130 147 0
125 141 0
134 151 0
128 145 0
133 152 0
130 147 0
128 145 0
126 143 0
132 150 0
128 145 0
132 148 0
123 140 0
124 140 0
126 142 0
124 140 0
128 144 0
123 139 0
121 137 0
124 140 0
116 132 0
116 132 0
119 134 0
124 139 0
111 126 0
118 133 0
120 135 0
102 117 0
118 134 0
124 140 0
112 126 0
113 126 0
119 133 0
109 123 0
102 115 0
112 126 0
115 129 0
100 112 0
101 114 0
102 114 0
86 96 0
118 133 0
139 155 0
139 155 0
135 152 0
143 159 0
137 154 0
139 155 0
133 150 0
135 151 0
130 147 0
125 141 0
118 135 0
129 146 0
130 148 0
133 149 0
125 143 0
121 139 0
128 146 0
138 155 0
132 150 0
118 136 0
131 148 0
129 147 0
141 161 0
125 143 0
123 141 0
125 144 0
120 138 0
126 145 0
125 143 0
126 145 0
135 152 0
115 132 0
128 147 0
120 138 0
121 139 0
121 138 0
116 135 0
113 130 0
120 138 0
118 137 0
107 126 0
121 140 0
116 133 0
119 137 0
123 141 0
117 134 0
106 123 0
107 124 0
107 124 0
107 125 0
109 126 0
100 116 0
77 93 36
51 75 64
45 73 67
45 73 59
45 72 70
43 69 57
44 71 70
47 76 67
50 80 76
47 75 62
50 80 82
48 77 74
50 80 80
47 75 80
52 82 95
50 79 80
49 79 74
50 79 76
48 76 72
50 79 88
47 76 70
48 77 72
49 78 74
49 77 90
49 79 72
51 81 82
51 80 88
49 77 72
47 75 72
52 82 84
47 76 76
49 78 90
51 81 90
49 78 72
48 76 76
48 77 78
48 76 70
48 76 72
47 75 74
49 77 86
48 76 74
48 76 82
47 75 67
48 76 81
51 80 75
44 70 72
48 77 65
41 66 57
47 74 81
45 71 76
53 70 36
85 99 31
95 108 0
113 123 0
106 120 0
108 122 0
113 125 0
100 112 0
110 123 0
97 108 0
113 127 0
118 130 0
126 142 0
119 134 0
123 137 0
125 140 0
123 136 0
132 149 0
124 139 0
118 131 0
128 143 0
123 139 0
124 137 0
128 142 0
122 133 0
126 140 0
122 135 0
128 141 0
132 144 0
119 130 0
120 133 0
122 133 0
123 137 0
127 137 0
125 135 0
123 131 0
132 145 0
126 134 0
124 132 0
135 145 0
130 141 0
126 136 0
127 137 0
134 141 0
132 139 0
137 147 0
127 136 0
133 141 0
129 133 0
136 142 0
131 137 0
134 137 0
133 140 0
129 134 0
116 117 16
86 78 16
88 82 16
77 72 0
91 85 0
91 82 0
81 74 0
96 88 0
91 85 0
83 77 0
103 96 0
90 84 0
107 98 0
99 90 0
100 93 0
105 98 0
104 96 0
112 102 0
103 96 0
108 101 0
112 104 0
106 97 0
115 104 0
115 110 0
114 107 0
127 118 0
114 107 0
116 108 0
123 117 0
126 120 0
121 116 0
121 113 0
121 112 0
126 119 0
120 111 0
112 107 0
130 123 0
126 120 0
131 123 0
130 121 0
136 129 0
132 123 0
133 124 0
133 125 0
129 121 0
136 127 0
134 124 0
133 125 0
134 127 0
135 128 0
140 132 0
136 129 0
137 130 0
141 133 0
134 127 0
134 128 0
143 136 0
139 132 0
132 124 0
143 136 0
136 128 0
138 131 0
144 136 0
141 132 0
141 133 0
143 134 0
145 137 0
144 137 0
142 135 0
143 135 0
144 135 0
144 135 0
141 136 0
145 138 0
145 139 0
142 137 0
140 134 0
146 138 0
143 137 0
143 137 0
146 137 0
140 133 0
145 137 0
147 140 0
144 136 0
150 142 0
144 137 0
149 142 0
149 144 0
145 140 0
147 142 0
145 139 0
147 142 0
151 144 0
148 141 0
147 141 0
150 142 0
145 137 0
147 140 0
147 141 0
146 140 0
147 140 0
145 140 0
147 141 0
144 138 0
145 140 0
144 137 0
145 139 0
146 140 0
143 137 0
151 145 0
146 140 0
145 140 0
146 141 0
146 142 0
144 139 0
147 141 0
146 140 0
147 141 0
144 138 0
145 139 16
146 140 19
150 170 0
151 171 0
152 172 0
150 171 0
150 170 0
151 170 0
151 170 0
150 170 0
150 171 0
153 172 0
150 169 0
146 165 0
151 171 0
150 170 0
149 169 0
146 167 0
146 165 0
150 169 0
151 171 0
149 168 0
148 167 0
148 167 0
149 168 0
150 169 0
147 166 0
148 168 0
145 164 0
148 167 0
148 167 0
148 167 0
146 166 0
147 165 0
141 160 0
150 169 0
148 167 0
148 167 0
144 163 0
147 167 0
147 164 0
144 163 0
145 165 0
145 164 0
148 166 0
144 164 0
145 165 0
144 162 0
142 160 0
147 165 0
148 167 0
144 162 0
144 163 0
148 166 0
142 160 0
142 160 0
144 163 0
143 160 0
143 162 0
139 157 0
140 159 0
141 159 0
138 155 0
144 161 0
143 161 0
141 159 0
140 159 0
135 152 0
137 154 0
142 160 0
143 161 0
136 154 0
134 151 0
139 157 0
141 158 0
139 157 0
135 153 0
142 160 0
135 152 0
140 158 0
132 150 0
140 158 0
129 146 0
138 156 0
132 149 0
135 151 0
140 157 0
139 156 0
126 142 0
136 153 0
131 147 0
126 141 0
133 150 0
126 142 0
126 143 0
125 141 0
124 140 0
124 141 0
119 135 0
129 145 0
120 136 0
119 135 0
123 138 0
114 128 0
116 131 0
114 128 0
114 129 0
114 129 0
108 123 0
118 133 0
108 123 0
114 129 0
113 127 0
109 123 0
116 130 0
99 112 0
99 112 0
112 125 0
105 117 0
104 117 0
96 108 0
108 120 0
113 128 0
122 137 0
126 141 0
135 151 0
133 150 0
138 154 0
126 142 0
125 141 0
135 151 0
130 147 0
134 151 0
124 142 0
136 154 0
130 147 0
128 144 0
132 150 0
125 142 0
139 156 0
129 146 0
137 154 0
124 141 0
130 148 0
122 139 0
123 139 0
127 145 0
129 147 0
119 136 0
121 138 0
126 142 0
126 144 0
126 144 0
124 142 0
126 144 0
121 139 0
132 150 0
124 142 0
131 151 0
119 137 0
119 136 0
121 139 0
110 128 0
126 144 0
118 136 0
113 130 0
110 126 0
115 131 0
121 139 0
114 131 0
111 128 0
110 127 0
107 124 0
102 118 0
98 115 0
102 117 0
92 107 0
97 113 0
76 92 40
58 80 57
43 70 54
48 77 72
46 74 62
44 70 62
46 74 67
45 72 69
46 74 67
47 75 80
46 74 67
48 77 71
48 77 70
47 75 62
46 73 72
46 74 67
52 82 88
49 77 84
48 76 67
46 75 65
49 78 80
48 76 80
46 73 76
49 78 78
50 79 78
48 76 84
51 81 88
48 78 67
50 79 84
48 77 70
49 77 78
47 76 62
46 74 74
48 76 67
48 76 78
49 79 82
47 76 78
48 76 67
49 77 70
46 74 63
47 74 80
44 69 60
43 68 67
43 68 65
46 72 70
41 66 65
48 67 47
65 78 32
89 100 0
83 94 0
92 104 0
82 94 0
88 101 0
101 114 0
115 127 0
112 124 0
104 117 0
105 117 0
112 123 0
113 128 0
117 130 0
120 133 0
115 126 0
117 130 0
114 129 0
119 132 0
119 133 0
123 136 0
119 131 0
121 134 0
116 130 0
119 132 0
121 132 0
122 135 0
125 137 0
129 144 0
118 129 0
130 142 0
122 131 0
128 140 0
133 144 0
131 144 0
121 132 0
124 135 0
133 142 0
131 143 0
119 124 0
123 133 0
127 134 0
133 141 0
120 127 0
134 141 0
128 132 0
121 126 0
130 134 0
130 138 0
117 123 0
131 138 0
123 126 0
133 141 0
127 131 0
128 131 0
129 134 0
129 133 0
96 90 11
83 78 0
85 77 0
91 84 0
88 81 0
92 84 0
92 84 0
100 92 0
102 94 0
102 92 0
107 98 0
107 98 0
101 93 0
101 94 0
107 98 0
93 87 0
105 96 0
110 103 0
116 108 0
113 106 0
114 107 0
106 97 0
124 116 0
117 109 0
107 99 0
117 109 0
123 114 0
121 113 0
119 109 0
125 116 0
114 107 0
119 113 0
129 122 0
127 118 0
123 115 0
128 120 0
132 124 0
133 123 0
133 125 0
131 123 0
134 126 0
138 129 0
134 126 0
140 134 0
136 127 0
132 123 0
138 130 0
136 127 0
137 128 0
132 123 0
135 127 0
136 129 0
127 121 0
144 137 0
139 131 0
136 131 0
139 131 0
141 133 0
135 125 0
139 132 0
137 130 0
142 136 0
137 130 0
137 130 0
143 135 0
141 133 0
142 133 0
141 133 0
139 131 0
145 137 0
142 135 0
144 137 0
140 134 0
141 135 0
138 133 0
144 137 0
143 135 0
142 136 0
148 140 0
149 143 0
139 131 0
149 143 0
145 137 0
146 139 0
148 142 0
144 135 0
139 134 0
145 139 0
146 140 0
148 143 0
147 138 0
142 137 0
145 138 0
148 142 0
150 145 0
151 144 0
146 141 0
145 140 0
149 142 0
150 143 0
148 143 0
146 139 0
138 132 0
148 142 0
147 141 0
143 137 0
143 135 0
147 140 0
142 136 0
141 136 0
147 142 0
139 134 0
140 135 0
146 139 0
140 134 0
147 143 0
147 141 0
141 136 22
140 136 11
138 134 11
150 170 0
154 173 0
152 172 0
150 169 0
150 170 0
150 170 0
154 173 0
151 171 0
150 170 0
150 169 0
151 170 0
148 169 0
151 170 0
149 169 0
150 169 0
149 168 0
149 168 0
150 169 0
147 166 0
149 167 0
147 167 0
149 169 0
148 168 0
148 167 0
147 166 0
144 164 0
148 167 0
145 164 0
147 166 0
151 170 0
147 166 0
147 166 0
145 165 0
146 166 0
147 167 0
145 164 0
148 168 0
147 167 0
140 159 0
144 163 0
145 164 0
145 163 0
142 161 0
147 166 0
144 163 0
146 164 0
142 161 0
142 160 0
143 161 0
140 158 0
145 164 0
144 161 0
140 159 0
144 163 0
141 159 0
144 162 0
142 160 0
139 157 0
140 159 0
145 164 0
141 159 0
137 155 0
138 155 0
141 159 0
139 156 0
136 154 0
139 156 0
136 154 0
138 155 0
139 157 0
138 156 0
140 158 0
135 152 0
141 159 0
131 149 0
139 156 0
133 150 0
129 146 0
135 153 0
130 145 0
131 148 0
135 152 0
133 150 0
133 150 0
135 151 0
136 152 0
125 141 0
130 146 0
121 136 0
125 141 0
127 143 0
117 133 0
126 142 0
125 141 0
127 144 0
125 141 0
121 136 0
124 140 0
118 133 0
119 134 0
121 136 0
129 145 0
123 138 0
116 131 0
110 126 0
111 124 0
113 127 0
113 127 0
106 121 0
107 121 0
110 124 0
115 128 0
101 115 0
110 123 0
109 122 0
103 115 0
88 100 0
86 98 0
110 122 0
116 130 0
127 141 0
126 141 0
121 136 0
128 144 0
136 152 0
121 135 0
125 141 0
119 134 0
123 139 0
134 151 0
124 140 0
122 140 0
136 153 0
123 140 0
127 143 0
128 145 0
129 145 0
132 150 0
131 148 0
129 147 0
119 136 0
121 137 0
126 143 0
124 141 0
123 141 0
129 146 0
129 145 0
119 136 0
130 147 0
117 135 0
114 131 0
131 148 0
127 145 0
119 136 0
125 144 0
122 140 0
125 143 0
117 134 0
127 145 0
124 142 0
120 137 0
119 135 0
110 126 0
117 134 0
106 122 0
115 132 0
108 124 0
103 119 0
108 124 0
96 112 0
104 120 0
108 124 0
83 98 0
90 104 0
90 105 0
104 119 0
93 108 0
82 97 0
70 85 25
58 80 54
40 64 62
42 67 60
46 74 54
40 65 57
44 70 67
47 74 74
46 74 74
45 71 57
48 77 78
45 72 65
45 72 65
46 73 65
46 74 57
45 72 65
47 76 76
45 72 54
44 71 57
42 69 67
47 75 78
51 81 80
47 76 67
47 75 82
48 77 76
46 73 72
49 79 78
52 81 92
46 74 72
48 77 86
46 74 65
48 76 80
43 69 62
47 76 74
46 73 76
44 70 60
45 71 57
46 73 62
45 71 70
47 74 84
42 67 62
45 71 57
59 79 57
71 83 31
92 102 0
84 94 0
94 105 0
89 101 0
83 95 0
96 108 0
103 116 0
93 103 0
101 112 0
112 125 0
122 135 0
109 121 0
112 127 0
109 119 0
113 129 0
115 126 0
111 124 0
110 122 0
116 129 0
114 126 0
124 135 0
116 128 0
110 121 0
126 137 0
119 131 0
124 136 0
128 142 0
130 142 0
118 132 0
124 136 0
110 121 0
130 144 0
124 138 0
127 140 0
127 138 0
123 135 0
129 140 0
121 130 0
122 135 0
126 136 0
126 137 0
117 126 0
117 123 0
124 132 0
122 129 0
119 125 0
108 114 0
129 140 0
125 131 0
117 121 0
127 133 0
129 134 0
126 129 0
123 126 0
121 126 0
138 142 0
124 125 0
132 135 0
121 123 0
113 112 11
74 66 0
79 72 0
82 74 0
94 86 0
96 88 0
89 81 0
104 93 0
93 85 0
94 86 0
104 97 0
102 94 0
105 98 0
105 97 0
108 97 0
100 92 0
103 94 0
112 103 0
98 91 0
106 98 0
112 104 0
113 104 0
115 107 0
123 114 0
112 102 0
119 110 0
114 109 0
121 111 0
126 117 0
126 116 0
121 112 0
121 114 0
116 108 0
129 124 0
122 114 0
121 114 0
122 113 0
130 122 0
128 121 0
136 128 0
127 117 0
133 125 0
135 125 0
132 124 0
143 132 0
128 118 0
129 121 0
134 127 0
135 125 0
135 128 0
133 125 0
141 134 0
139 131 0
135 128 0
143 134 0
143 136 0
135 127 0
132 123 0
139 133 0
139 132 0
133 125 0
133 124 0
140 133 0
144 136 0
141 132 0
139 133 0
143 136 0
141 133 0
144 136 0
139 132 0
138 131 0
142 133 0
142 135 0
144 135 0
142 135 0
148 140 0
139 131 0
144 139 0
149 142 0
140 132 0
145 136 0
147 139 0
146 139 0
146 141 0
140 134 0
146 138 0
141 135 0
145 136 0
145 138 0
150 143 0
146 140 0
143 136 0
143 137 0
146 142 0
144 136 0
147 140 0
141 133 0
144 137 0
145 138 0
142 134 0
145 140 0
145 138 0
145 139 0
146 140 0
144 138 0
141 135 0
144 138 0
146 141 0
147 140 0
142 137 0
144 139 0
143 138 0
137 131 0
142 136 0
138 134 0
136 130 11
138 132 16
141 134 22
146 140 28
148 169 0
150 171 0
149 168 0
150 170 0
148 167 0
151 170 0
149 169 0
148 167 0
149 169 0
150 169 0
150 170 0
149 169 0
149 168 0
143 162 0
150 169 0
150 169 0
149 168 0
145 165 0
149 168 0
147 167 0
148 167 0
147 167 0
151 170 0
149 168 0
147 166 0
147 166 0
151 170 0
147 165 0
144 163 0
144 162 0
146 164 0
145 163 0
145 164 0
147 165 0
146 165 0
145 164 0
143 162 0
141 159 0
147 166 0
145 163 0
144 164 0
142 161 0
144 162 0
142 159 0
143 161 0
143 162 0
147 166 0
144 163 0
139 158 0
146 165 0
144 163 0
144 164 0
137 155 0
143 161 0
141 159 0
141 159 0
137 155 0
146 164 0
136 154 0
140 158 0
139 157 0
141 160 0
140 158 0
133 150 0
139 158 0
141 159 0
138 156 0
132 149 0
136 154 0
137 154 0
139 157 0
132 149 0
133 150 0
135 153 0
137 153 0
133 150 0
134 152 0
132 149 0
138 155 0
138 154 0
133 149 0
129 146 0
131 148 0
132 149 0
126 142 0
128 144 0
126 143 0
129 146 0
128 146 0
123 139 0
126 142 0
134 150 0
118 134 0
123 138 0
127 142 0
118 133 0
122 137 0
120 136 0
125 140 0
122 137 0
117 132 0
118 132 0
111 125 0
113 126 0
118 131 0
112 126 0
114 128 0
118 132 0
110 123 0
109 123 0
107 120 0
100 114 0
109 122 0
99 112 0
91 103 0
91 101 0
95 106 0
119 132 0
126 141 0
126 140 0
125 139 0
118 132 0
127 141 0
122 137 0
133 149 0
122 137 0
118 132 0
119 134 0
127 143 0
112 127 0
121 137 0
130 147 0
113 129 0
131 148 0
125 141 0
127 144 0
122 138 0
122 139 0
118 134 0
121 137 0
137 155 0
125 143 0
118 134 0
121 139 0
121 137 0
127 145 0
121 139 0
125 141 0
121 137 0
123 141 0
111 129 0
111 128 0
118 135 0
124 141 0
119 137 0
115 132 0
125 142 0
115 133 0
122 139 0
121 140 0
119 137 0
111 128 0
112 130 0
122 139 0
116 132 0
103 120 0
98 114 0
93 109 0
101 117 0
93 108 0
87 102 0
95 110 0
81 96 0
93 108 0
81 94 0
88 102 0
108 123 0
80 92 0
88 102 0
92 106 0
71 85 31
54 73 40
46 74 70
41 66 57
42 68 65
44 70 65
43 69 57
44 71 54
45 72 60
45 72 80
47 75 76
47 76 70
45 72 62
46 74 76
44 70 57
46 73 70
45 73 60
47 74 70
48 77 67
46 73 70
46 73 88
45 72 76
45 72 60
42 68 76
44 71 65
48 77 80
44 70 60
46 74 65
48 75 80
47 74 76
48 76 70
47 75 78
44 70 60
44 70 72
40 63 54
41 66 54
43 67 67
37 60 54
47 66 57
76 89 25
92 102 0
93 104 0
104 115 0
87 100 0
80 92 0
71 81 0
97 108 0
84 96 0
102 114 0
94 107 0
96 109 0
106 119 0
94 107 0
104 115 0
100 115 0
103 115 0
115 128 0
103 116 0
110 124 0
120 134 0
113 127 0
122 136 0
118 130 0
102 113 0
115 127 0
121 136 0
113 125 0
127 141 0
124 135 0
116 128 0
108 121 0
120 131 0
124 137 0
120 133 0
115 128 0
121 133 0
122 135 0
122 132 0
122 134 0
116 125 0
118 126 0
119 127 0
117 124 0
114 122 0
129 137 0
124 131 0
123 130 0
130 138 0
128 135 0
120 125 0
128 134 0
123 130 0
126 133 0
123 127 0
115 119 0
124 129 0
112 117 0
124 126 0
122 128 0
106 105 0
116 119 0
127 131 0
112 113 0
108 107 11
84 76 0
88 78 0
83 76 0
97 87 0
100 90 0
91 84 0
93 84 0
91 82 0
102 92 0
97 88 0
109 101 0
101 93 0
103 95 0
105 98 0
111 101 0
114 105 0
108 100 0
105 97 0
117 106 0
112 103 0
111 105 0
110 102 0
123 114 0
111 103 0
126 116 0
123 114 0
120 111 0
121 112 0
115 107 0
124 116 0
125 115 0
124 116 0
122 115 0
129 121 0
127 118 0
125 116 0
127 118 0
129 122 0
128 118 0
131 120 0
128 120 0
130 121 0
132 125 0
130 122 0
136 127 0
139 131 0
124 115 0
126 119 0
135 128 0
137 126 0
134 124 0
136 129 0
137 129 0
134 127 0
138 130 0
140 133 0
138 128 0
137 129 0
141 132 0
140 134 0
140 132 0
140 133 0
138 130 0
139 132 0
138 131 0
140 133 0
144 137 0
141 131 0
141 133 0
148 140 0
139 130 0
144 136 0
144 136 0
141 132 0
144 134 0
142 135 0
144 136 0
149 142 0
145 138 0
143 135 0
139 132 0
150 144 0
144 136 0
146 139 0
144 136 0
143 135 0
142 135 0
143 137 0
142 136 0
143 135 0
145 138 0
145 138 0
145 138 0
143 135 0
145 137 0
141 133 0
146 139 0
140 135 0
147 140 0
142 136 0
142 137 0
135 129 0
147 141 0
140 133 0
146 141 0
140 135 0
142 136 0
145 139 0
140 134 0
143 137 0
140 135 0
145 139 0
139 134 0
129 124 0
137 131 22
140 134 16
153 172 0
153 172 0
151 170 0
151 171 0
150 170 0
151 171 0
150 170 0
151 170 0
149 169 0
149 169 0
151 170 0
148 168 0
149 169 0
148 168 0
152 172 0
150 169 0
151 171 0
150 170 0
146 165 0
149 169 0
149 168 0
148 167 0
147 166 0
148 167 0
143 162 0
148 167 0
149 168 0
142 161 0
150 169 0
149 167 0
145 164 0
147 167 0
144 162 0
145 164 0
146 165 0
146 165 0
146 165 0
147 164 0
144 163 0
147 166 0
143 161 0
143 161 0
146 164 0
142 160 0
143 161 0
142 161 0
143 162 0
138 156 0
143 162 0
146 164 0
140 158 0
141 159 0
145 163 0
142 160 0
143 161 0
141 159 0
144 161 0
138 156 0
144 162 0
141 159 0
145 164 0
136 153 0
138 156 0
139 157 0
143 161 0
134 152 0
136 153 0
136 153 0
144 162 0
135 152 0
133 150 0
136 153 0
136 153 0
132 149 0
125 142 0
135 152 0
136 152 0
131 148 0
134 151 0
132 149 0
126 143 0
127 143 0
123 139 0
128 145 0
129 145 0
134 151 0
128 144 0
127 144 0
125 141 0
119 135 0
129 145 0
131 146 0
129 144 0
122 138 0
122 138 0
123 139 0
117 132 0
130 146 0
113 127 0
117 132 0
122 137 0
117 132 0
116 130 0
114 129 0
113 127 0
111 124 0
105 118 0
111 124 0
101 113 0
98 111 0
105 118 0
95 107 0
99 111 0
94 106 0
86 98 0
109 121 0
118 132 0
103 117 0
116 129 0
107 120 0
114 127 0
123 137 0
109 123 0
120 133 0
125 140 0
125 141 0
119 134 0
128 143 0
131 146 0
125 141 0
123 139 0
126 142 0
124 139 0
124 141 0
124 141 0
127 144 0
120 137 0
124 139 0
121 139 0
116 133 0
127 144 0
131 149 0
130 147 0
129 146 0
118 135 0
123 140 0
121 138 0
130 148 0
112 129 0
124 141 0
130 148 0
124 141 0
122 138 0
120 138 0
111 129 0
112 128 0
116 133 0
117 135 0
110 126 0
117 135 0
112 129 0
106 122 0
106 122 0
104 120 0
99 116 0
117 134 0
106 122 0
99 114 0
94 110 0
97 113 0
104 119 0
88 103 0
88 103 0
89 103 0
93 107 0
77 92 0
72 86 0
95 109 0
79 93 0
82 95 0
68 80 0
74 84 0
68 81 0
60 75 31
45 66 47
43 66 54
41 67 47
44 70 60
43 69 60
41 65 54
42 68 54
42 67 51
44 69 60
45 72 65
46 74 72
46 73 70
48 76 76
44 71 67
45 72 78
47 75 78
40 65 60
46 73 72
43 69 54
48 76 76
45 71 62
44 71 62
44 71 74
43 70 62
41 66 62
43 68 51
42 67 62
40 63 57
39 62 51
40 63 51
42 67 54
58 79 65
51 61 25
80 91 0
78 86 0
58 68 0
65 76 0
79 89 0
87 96 0
92 102 0
81 89 0
82 94 0
91 104 0
91 99 0
91 103 0
95 105 0
88 100 0
91 103 0
102 116 0
98 111 0
95 106 0
100 114 0
104 115 0
95 107 0
113 125 0
107 120 0
100 113 0
110 123 0
112 124 0
111 125 0
118 131 0
110 122 0
109 121 0
112 125 0
135 147 0
119 131 0
128 141 0
119 132 0
114 124 0
117 128 0
117 129 0
123 135 0
120 131 0
117 131 0
122 134 0
115 124 0
120 131 0
111 122 0
121 129 0
114 119 0
112 120 0
122 130 0
122 131 0
116 121 0
122 129 0
111 119 0
116 119 0
121 127 0
125 133 0
112 116 0
115 120 0
118 123 0
125 129 0
112 114 0
115 117 0
110 111 0
117 120 0
107 105 0
109 110 0
113 114 0
101 100 0
79 73 0
78 72 0
84 76 0
82 71 0
97 90 0
84 75 0
94 85 0
90 80 0
96 90 0
97 88 0
96 87 0
105 96 0
113 103 0
99 91 0
113 102 0
108 100 0
103 94 0
106 100 0
115 106 0
109 98 0
106 97 0
121 113 0
115 105 0
122 112 0
107 99 0
125 116 0
114 105 0
126 115 0
119 111 0
117 107 0
125 117 0
114 106 0
121 110 0
125 115 0
124 115 0
123 113 0
123 114 0
121 114 0
128 117 0
131 124 0
135 126 0
121 114 0
136 126 0
136 128 0
132 123 0
130 122 0
132 125 0
131 121 0
132 123 0
138 127 0
137 129 0
137 129 0
135 127 0
136 127 0
140 132 0
137 127 0
139 132 0
139 130 0
137 129 0
141 134 0
135 127 0
137 130 0
140 130 0
144 134 0
138 131 0
139 133 0
138 130 0
141 135 0
141 134 0
144 137 0
142 134 0
139 131 0
143 134 0
148 141 0
143 136 0
141 132 0
140 133 0
144 136 0
141 133 0
144 138 0
144 135 0
144 136 0
145 137 0
142 134 0
143 136 0
146 138 0
142 133 0
145 138 0
139 132 0
142 137 0
143 137 0
147 141 0
144 136 0
140 133 0
145 138 0
143 137 0
145 139 0
139 133 0
144 138 0
147 141 0
142 136 0
145 138 0
140 134 0
140 134 0
138 131 0
140 133 0
142 136 0
144 138 0
140 135 0
138 132 0
144 138 11
131 126 11
132 125 0
135 130 11
143 137 19
151 172 0
150 170 0
152 171 0
148 167 0
151 172 0
151 169 0
148 166 0
153 172 0
148 168 0
150 169 0
145 164 0
150 169 0
147 166 0
150 169 0
146 165 0
149 167 0
147 166 0
146 163 0
147 166 0
150 168 0
148 167 0
144 163 0
143 161 0
145 163 0
144 162 0
145 164 0
148 167 0
146 166 0
147 165 0
146 165 0
145 163 0
144 161 0
149 167 0
147 165 0
142 161 0
149 167 0
144 163 0
146 164 0
143 162 0
150 169 0
140 158 0
142 161 0
147 165 0
146 163 0
145 163 0
146 164 0
144 163 0
142 161 0
141 159 0
143 161 0
145 164 0
144 161 0
142 160 0
143 161 0
141 159 0
139 157 0
140 158 0
143 162 0
133 151 0
140 159 0
137 155 0
138 156 0
140 159 0
136 154 0
138 156 0
139 156 0
136 153 0
137 155 0
133 151 0
143 161 0
130 147 0
135 153 0
134 151 0
130 146 0
133 150 0
131 149 0
126 143 0
132 149 0
132 148 0
130 147 0
128 145 0
134 151 0
130 146 0
125 141 0
129 144 0
131 146 0
135 151 0
126 141 0
129 145 0
124 140 0
124 139 0
121 137 0
119 133 0
121 137 0
122 137 0
124 140 0
116 130 0
112 126 0
105 118 0
115 129 0
122 137 0
108 121 0
116 131 0
116 130 0
115 128 0
99 111 0
104 117 0
125 138 0
108 121 0
108 121 0
102 113 0
97 108 0
88 99 0
98 110 0
115 127 0
114 127 0
104 117 0
113 125 0
115 128 0
126 142 0
120 135 0
121 136 0
119 134 0
116 131 0
117 132 0
110 123 0
112 127 0
114 128 0
111 126 0
119 136 0
119 135 0
126 142 0
125 141 0
123 139 0
124 141 0
114 130 0
115 131 0
115 130 0
115 131 0
115 132 0
112 129 0
126 143 0
123 139 0
119 136 0
115 132 0
128 145 0
117 133 0
126 142 0
124 141 0
124 142 0
116 133 0
126 144 0
115 133 0
112 128 0
123 140 0
125 142 0
108 126 0
112 130 0
118 135 0
119 136 0
118 135 0
101 116 0
112 129 0
109 126 0
108 124 0
106 122 0
112 128 0
108 125 0
97 112 0
97 113 0
93 108 0
93 108 0
84 99 0
93 108 0
71 85 0
83 99 0
88 102 0
84 98 0
85 98 0
92 106 0
74 87 0
65 78 0
66 78 0
83 96 0
66 78 0
55 66 0
53 65 0
52 68 36
43 61 59
43 69 67
40 65 54
43 68 57
42 68 57
43 69 65
45 72 78
44 70 65
44 70 57
44 70 74
38 61 44
42 66 70
40 64 60
44 69 67
42 67 57
41 65 65
45 71 57
40 64 62
41 66 54
44 71 62
44 70 57
41 65 51
42 66 60
49 68 44
61 76 36
53 66 18
58 65 0
67 76 0
80 90 0
74 84 0
81 90 0
86 95 0
87 98 0
85 96 0
81 91 0
76 87 0
91 103 0
95 106 0
90 100 0
87 100 0
107 120 0
89 100 0
105 116 0
100 114 0
102 114 0
101 114 0
102 115 0
107 120 0
102 111 0
108 123 0
106 118 0
106 116 0
113 126 0
110 120 0
105 119 0
120 133 0
124 138 0
114 128 0
111 123 0
117 130 0
108 122 0
123 134 0
109 121 0
107 119 0
130 143 0
113 121 0
112 124 0
109 121 0
112 122 0
122 135 0
118 127 0
115 127 0
117 126 0
113 124 0
118 128 0
112 120 0
108 114 0
121 129 0
124 134 0
112 120 0
124 130 0
120 127 0
100 105 0
127 132 0
119 121 0
122 129 0
115 119 0
110 112 0
103 106 0
111 114 0
114 116 0
101 102 0
123 125 0
116 118 0
106 107 0
107 104 0
105 104 0
109 108 0
100 98 0
78 71 0
65 58 0
78 68 0
84 74 0
85 75 0
97 88 0
85 79 0
87 77 0
91 84 0
90 82 0
93 87 0
99 90 0
95 86 0
109 99 0
106 97 0
104 94 0
115 107 0
109 101 0
107 98 0
112 102 0
107 98 0
111 103 0
106 95 0
121 111 0
118 108 0
118 109 0
120 111 0
122 111 0
115 106 0
123 113 0
127 118 0
124 118 0
120 109 0
122 114 0
131 121 0
132 125 0
124 116 0
124 116 0
132 123 0
128 120 0
130 122 0
139 131 0
132 123 0
132 120 0
134 124 0
130 122 0
136 127 0
136 129 0
139 131 0
136 127 0
136 128 0
134 126 0
136 127 0
138 130 0
138 128 0
135 127 0
142 133 0
134 124 0
138 131 0
143 132 0
135 127 0
141 132 0
141 133 0
138 128 0
138 130 0
141 134 0
138 130 0
142 132 0
145 137 0
138 130 0
142 135 0
141 131 0
141 132 0
143 135 0
143 136 0
138 133 0
145 138 0
141 132 0
139 131 0
140 131 0
142 133 0
140 133 0
142 134 0
146 139 0
143 138 0
138 129 0
145 140 0
147 140 0
148 141 0
140 133 0
148 140 0
136 128 0
139 132 0
138 133 0
137 130 0
142 136 0
144 138 0
138 131 0
136 129 0
140 134 0
142 134 0
136 129 0
136 130 0
136 131 0
134 129 0
135 129 0
137 132 0
140 133 0
131 126 0
138 133 11
135 129 0
131 123 11
135 130 19
149 169 0
148 168 0
152 172 0
153 172 0
150 170 0
146 165 0
146 165 0
148 167 0
151 170 0
150 168 0
151 170 0
149 168 0
152 171 0
151 170 0
150 168 0
149 168 0
150 169 0
148 167 0
147 166 0
150 169 0
146 165 0
148 167 0
146 165 0
146 164 0
145 164 0
145 163 0
150 169 0
146 165 0
144 162 0
150 168 0
141 158 0
147 165 0
143 161 0
143 162 0
144 163 0
142 159 0
144 162 0
145 163 0
145 163 0
147 165 0
142 160 0
142 159 0
146 164 0
141 159 0
141 159 0
144 163 0
136 154 0
141 160 0
138 157 0
139 156 0
144 161 0
139 156 0
142 160 0
141 158 0
141 158 0
143 160 0
144 162 0
138 155 0
143 161 0
138 154 0
137 155 0
133 150 0
135 152 0
137 155 0
135 153 0
138 154 0
133 150 0
140 157 0
137 154 0
141 157 0
136 153 0
129 145 0
122 136 0
137 154 0
130 146 0
130 145 0
130 147 0
128 144 0
129 146 0
135 152 0
138 155 0
133 148 0
131 147 0
130 146 0
126 141 0
123 139 0
133 148 0
128 143 0
132 148 0
118 133 0
116 131 0
120 135 0
119 133 0
123 138 0
117 131 0
115 130 0
115 130 0
118 133 0
122 136 0
112 125 0
104 118 0
114 128 0
107 120 0
109 122 0
104 117 0
111 124 0
101 113 0
104 116 0
100 111 0
88 98 0
87 97 0
97 107 0
115 127 0
108 119 0
113 125 0
102 113 0
109 122 0
103 115 0
121 135 0
112 126 0
114 128 0
117 131 0
117 131 0
121 136 0
125 141 0
122 136 0
122 137 0
120 135 0
118 134 0
123 138 0
116 132 0
119 136 0
124 140 0
121 137 0
124 141 0
118 134 0
114 130 0
127 144 0
124 140 0
134 151 0
130 147 0
119 136 0
128 146 0
121 138 0
118 136 0
119 137 0
113 129 0
115 132 0
123 140 0
124 141 0
109 125 0
114 132 0
112 130 0
123 142 0
117 135 0
118 134 0
118 136 0
115 132 0
114 131 0
114 132 0
97 113 0
110 126 0
112 130 0
108 125 0
103 118 0
104 121 0
107 124 0
103 118 0
110 126 0
98 115 0
99 114 0
87 103 0
89 104 0
86 101 0
92 106 0
88 103 0
93 107 0
85 99 0
75 88 0
63 76 0
81 94 0
74 89 0
79 91 0
80 92 0
78 90 0
86 99 0
63 74 0
53 64 0
60 71 0
63 74 0
69 79 18
49 62 18
49 66 47
35 53 31
49 69 47
38 61 51
37 60 57
41 65 60
35 56 47
38 62 57
36 58 40
35 57 40
40 64 44
42 66 60
36 58 47
42 60 47
42 60 44
43 59 47
47 58 25
39 50 25
53 63 0
61 70 0
45 54 0
62 72 0
58 66 0
73 81 0
72 81 0
81 93 0
66 76 0
90 102 0
78 89 0
88 99 0
84 95 0
89 100 0
93 105 0
90 101 0
81 91 0
90 100 0
84 96 0
97 110 0
94 105 0
98 110 0
97 109 0
104 115 0
104 115 0
99 111 0
103 115 0
88 99 0
114 125 0
121 132 0
112 126 0
118 131 0
110 121 0
108 122 0
115 130 0
111 120 0
120 131 0
112 123 0
120 132 0
105 116 0
121 133 0
116 127 0
123 135 0
119 129 0
115 126 0
118 127 0
114 127 0
123 135 0
129 143 0
122 130 0
121 132 0
124 133 0
107 116 0
125 136 0
112 118 0
123 130 0
114 123 0
110 116 0
119 127 0
117 119 0
102 105 0
116 124 0
119 125 0
122 128 0
112 115 0
110 115 0
118 124 0
109 112 0
115 118 0
105 108 0
108 106 0
112 115 0
114 116 0
106 108 0
113 112 0
105 102 0
106 103 0
94 90 0
92 87 0
91 81 0
81 71 0
82 72 0
82 71 0
95 85 0
89 80 0
89 80 0
86 77 0
88 79 0
102 95 0
96 88 0
95 86 0
110 100 0
110 99 0
110 99 0
106 98 0
104 95 0
107 98 0
119 109 0
112 101 0
109 99 0
115 106 0
117 109 0
116 106 0
110 100 0
124 113 0
121 112 0
122 111 0
124 115 0
125 116 0
113 105 0
120 110 0
129 119 0
124 114 0
127 119 0
120 112 0
120 111 0
131 124 0
127 118 0
125 116 0
129 119 0
128 118 0
133 123 0
133 125 0
132 121 0
130 120 0
134 124 0
137 128 0
131 121 0
133 125 0
137 128 0
135 126 0
138 129 0
141 132 0
138 128 0
137 130 0
135 126 0
134 125 0
132 125 0
138 131 0
140 132 0
137 128 0
140 132 0
139 130 0
142 135 0
135 125 0
139 131 0
141 132 0
145 136 0
138 129 0
136 128 0
130 122 0
137 129 0
142 132 0
144 136 0
140 131 0
140 132 0
141 135 0
141 132 0
143 135 0
139 132 0
143 136 0
140 132 0
137 128 0
140 133 0
142 135 0
141 133 0
138 130 0
146 138 0
142 136 0
139 133 0
140 133 0
141 133 0
139 132 0
139 133 0
136 131 0
139 133 0
135 129 0
133 126 0
138 131 0
142 135 0
141 135 0
133 127 0
136 130 0
130 124 0
139 132 0
136 130 11
128 121 0
133 127 16
130 123 16
138 132 22
151 172 0
151 170 0
149 168 0
151 171 0
147 166 0
153 172 0
153 172 0
152 172 0
150 169 0
150 168 0
149 169 0
150 168 0
148 167 0
147 166 0
149 168 0
146 164 0
148 166 0
150 170 0
145 164 0
149 168 0
144 162 0
147 165 0
148 167 0
146 165 0
143 161 0
147 165 0
146 164 0
144 162 0
147 165 0
147 165 0
149 167 0
143 162 0
146 164 0
144 163 0
148 166 0
145 163 0
144 162 0
143 161 0
145 164 0
149 167 0
143 161 0
139 156 0
148 165 0
135 152 0
142 160 0
146 164 0
144 161 0
141 159 0
143 160 0
139 157 0
147 164 0
144 162 0
144 161 0
138 155 0
143 160 0
138 155 0
138 155 0
142 160 0
142 159 0
133 150 0
135 151 0
140 157 0
137 154 0
137 154 0
134 151 0
140 157 0
133 149 0
135 152 0
131 148 0
138 155 0
134 151 0
132 149 0
139 155 0
133 149 0
139 156 0
132 149 0
133 150 0
134 151 0
132 149 0
124 140 0
126 142 0
131 147 0
114 130 0
123 138 0
122 137 0
125 140 0
126 142 0
124 139 0
128 143 0
109 124 0
120 135 0
123 138 0
123 137 0
116 130 0
124 138 0
112 125 0
117 130 0
115 129 0
112 126 0
118 132 0
111 124 0
103 115 0
109 122 0
105 117 0
104 117 0
102 114 0
102 114 0
93 103 0
79 88 0
92 103 0
99 110 0
105 117 0
111 123 0
114 127 0
110 123 0
102 115 0
117 131 0
121 135 0
118 132 0
114 128 0
129 143 0
117 131 0
124 139 0
126 140 0
113 127 0
115 128 0
116 130 0
127 144 0
125 140 0
119 135 0
117 133 0
116 132 0
118 135 0
106 121 0
118 134 0
123 140 0
119 135 0
123 141 0
123 140 0
123 140 0
135 153 0
129 144 0
121 139 0
118 135 0
119 135 0
111 128 0
128 145 0
117 133 0
121 139 0
123 140 0
121 139 0
117 134 0
120 138 0
107 123 0
120 137 0
113 132 0
123 140 0
117 133 0
119 137 0
118 134 0
109 126 0
116 133 0
106 123 0
107 124 0
102 119 0
96 113 0
108 125 0
107 123 0
104 120 0
99 115 0
95 111 0
101 117 0
103 120 0
98 113 0
80 95 0
94 107 0
92 106 0
75 89 0
96 110 0
85 97 0
90 103 0
70 83 0
75 86 0
81 94 0
71 83 0
71 82 0
87 99 0
64 75 0
63 73 0
61 72 0
45 56 0
71 81 0
48 59 0
63 72 0
68 77 0
49 58 0
55 64 0
38 46 0
55 64 0
66 75 0
50 59 18
52 60 0
58 67 0
53 62 0
42 51 0
65 74 0
54 64 0
63 73 0
60 67 0
65 73 0
77 86 0
57 68 0
65 75 0
69 78 0
79 90 0
57 69 0
58 65 0
78 90 0
70 81 0
88 101 0
75 87 0
98 109 0
81 91 0
88 100 0
90 101 0
98 111 0
104 117 0
85 96 0
85 98 0
99 111 0
91 102 0
105 119 0
104 118 0
114 124 0
101 111 0
101 112 0
105 118 0
110 123 0
99 111 0
101 112 0
117 129 0
106 117 0
111 124 0
124 136 0
120 135 0
114 127 0
117 128 0
108 119 0
120 131 0
111 124 0
114 124 0
113 125 0
119 132 0
120 132 0
117 127 0
108 118 0
115 127 0
120 130 0
113 122 0
124 134 0
122 129 0
118 129 0
118 125 0
118 127 0
125 134 0
112 120 0
114 120 0
119 125 0
123 133 0
115 122 0
116 121 0
107 115 0
121 126 0
114 121 0
120 125 0
103 105 0
109 112 0
119 123 0
110 113 0
99 104 0
113 117 0
118 123 0
117 117 0
101 101 0
103 102 0
96 98 0
95 95 0
93 89 0
92 88 0
87 83 0
87 81 0
84 76 0
81 72 0
78 68 0
90 79 0
82 74 0
99 88 0
87 77 0
99 89 0
99 90 0
94 86 0
104 93 0
95 87 0
109 100 0
109 100 0
109 99 0
106 95 0
117 106 0
109 97 0
113 102 0
100 90 0
119 107 0
113 104 0
117 107 0
116 105 0
118 108 0
108 101 0
113 103 0
125 115 0
118 111 0
116 108 0
116 108 0
121 112 0
125 116 0
123 111 0
126 116 0
123 115 0
129 120 0
120 109 0
128 120 0
119 110 0
129 121 0
137 126 0
131 121 0
128 120 0
132 121 0
133 125 0
131 122 0
133 124 0
134 125 0
133 124 0
126 119 0
133 121 0
139 130 0
135 126 0
130 122 0
134 126 0
137 127 0
137 127 0
136 127 0
139 131 0
135 126 0
137 129 0
132 124 0
140 130 0
137 128 0
133 127 0
135 125 0
141 134 0
142 133 0
138 132 0
135 127 0
141 133 0
142 133 0
131 123 0
141 132 0
139 130 0
137 130 0
141 132 0
142 134 0
144 136 0
144 138 0
140 134 0
142 134 0
140 133 0
138 131 0
138 131 0
131 124 0
133 127 0
141 133 0
134 127 0
136 127 0
133 126 0
139 132 0
140 134 0
140 133 0
138 132 0
135 129 0
136 129 0
133 128 0
134 129 0
134 129 0
140 134 11
133 127 0
130 124 0
137 131 19
134 128 11
137 132 22
125 119 16
135 128 0
151 170 0
150 169 0
151 171 0
150 169 0
151 170 0
149 168 0
149 168 0
151 170 0
150 169 0
150 169 0
147 167 0
150 170 0
147 166 0
148 167 0
145 165 0
151 170 0
147 167 0
147 165 0
145 163 0
145 164 0
147 165 0
145 164 0
147 165 0
147 166 0
149 168 0
147 166 0
142 161 0
149 167 0
146 163 0
145 163 0
146 164 0
145 163 0
144 162 0
144 161 0
145 163 0
142 160 0
144 161 0
143 161 0
149 167 0
143 160 0
143 161 0
144 162 0
140 158 0
139 157 0
141 159 0
138 155 0
142 160 0
145 163 0
144 162 0
142 160 0
139 157 0
140 156 0
139 156 0
138 156 0
138 155 0
139 156 0
137 153 0
134 151 0
141 158 0
143 160 0
141 158 0
130 146 0
139 156 0
135 151 0
134 150 0
138 155 0
135 151 0
132 149 0
131 148 0
135 152 0
131 147 0
127 144 0
131 147 0
130 145 0
127 142 0
128 144 0
124 140 0
130 146 0
127 143 0
127 142 0
133 149 0
131 146 0
125 140 0
125 141 0
124 140 0
120 135 0
123 138 0
123 138 0
123 139 0
120 135 0
126 141 0
118 132 0
111 125 0
120 135 0
114 128 0
111 125 0
114 127 0
108 121 0
105 117 0
104 117 0
98 111 0
103 116 0
105 116 0
105 117 0
101 112 0
88 99 0
83 91 0
95 104 0
95 105 0
97 108 0
96 107 0
103 114 0
106 118 0
107 118 0
106 119 0
107 120 0
116 130 0
108 122 0
106 119 0
114 129 0
107 121 0
123 138 0
120 134 0
122 137 0
106 120 0
120 135 0
114 129 0
118 133 0
112 127 0
125 143 0
122 137 0
129 146 0
119 135 0
130 147 0
141 158 0
117 134 0
111 127 0
108 125 0
111 127 0
113 129 0
120 137 0
124 139 0
119 137 0
117 134 0
109 126 0
117 134 0
116 133 0
123 141 0
111 128 0
124 142 0
112 130 0
112 130 0
114 131 0
108 126 0
118 136 0
113 131 0
107 124 0
108 125 0
110 127 0
106 122 0
114 132 0
107 124 0
115 131 0
114 131 0
111 126 0
111 127 0
96 112 0
113 130 0
96 113 0
109 125 0
96 111 0
94 111 0
88 104 0
88 104 0
86 101 0
85 98 0
91 106 0
98 112 0
103 118 0
82 96 0
97 110 0
86 99 0
74 87 0
68 82 0
86 99 0
68 80 0
74 86 0
77 88 0
70 81 0
61 72 0
67 78 0
72 83 0
71 82 0
69 80 0
73 84 0
51 61 0
67 76 0
58 69 0
57 68 0
50 61 0
60 69 0
42 54 0
63 73 0
75 86 0
69 78 0
71 81 0
58 67 0
66 77 0
65 74 0
55 66 0
70 82 0
75 84 0
74 84 0
85 97 0
73 82 0
86 97 0
82 93 0
81 92 0
77 85 0
83 94 0
76 90 0
81 91 0
87 99 0
92 103 0
99 110 0
93 105 0
100 113 0
113 125 0
94 106 0
101 115 0
108 121 0
105 118 0
96 109 0
111 124 0
101 114 0
99 113 0
105 117 0
106 117 0
100 112 0
115 128 0
106 118 0
109 124 0
97 109 0
113 124 0
117 129 0
115 126 0
122 135 0
131 145 0
120 135 0
110 120 0
115 127 0
116 127 0
115 128 0
114 128 0
114 124 0
129 139 0
119 129 0
114 124 0
115 125 0
124 136 0
105 113 0
129 143 0
124 135 0
126 136 0
120 129 0
116 129 0
99 103 0
125 133 0
121 128 0
122 125 0
119 125 0
111 115 0
114 120 0
118 123 0
113 119 0
122 128 0
117 120 0
128 133 0
116 119 0
121 126 0
108 109 0
119 121 0
107 103 0
105 108 0
102 101 0
95 93 0
83 84 0
107 108 0
90 87 0
97 94 0
91 89 0
92 89 0
81 77 0
76 68 0
84 74 0
72 64 0
78 71 0
74 65 0
75 65 0
90 82 0
96 85 0
94 86 0
99 89 0
108 100 0
92 83 0
107 97 0
101 89 0
104 95 0
105 92 0
114 103 0
113 104 0
113 103 0
113 103 0
108 97 0
114 101 0
123 114 0
111 102 0
103 91 0
118 109 0
122 111 0
113 106 0
122 113 0
117 107 0
116 106 0
121 111 0
121 112 0
122 110 0
124 112 0
127 116 0
118 109 0
123 114 0
127 118 0
130 119 0
120 111 0
122 114 0
129 119 0
131 123 0
120 111 0
135 126 0
128 117 0
129 119 0
130 120 0
136 127 0
133 125 0
136 126 0
132 123 0
132 123 0
134 125 0
135 127 0
134 128 0
134 123 0
133 125 0
139 130 0
133 123 0
134 125 0
135 128 0
138 129 0
140 129 0
132 124 0
137 129 0
136 128 0
139 129 0
135 128 0
140 132 0
134 125 0
130 123 0
136 127 0
140 131 0
136 128 0
142 134 0
140 131 0
136 128 0
136 128 0
127 119 0
139 131 0
133 124 0
139 133 0
133 125 0
137 132 0
135 126 0
133 126 0
142 135 0
126 119 0
131 125 0
138 132 0
133 127 0
134 127 0
132 126 0
137 129 0
132 127 0
125 118 0
132 127 0
134 130 11
132 124 0
128 122 16
127 119 0
126 120 22
119 113 0
125 119 22
134 127 19
150 170 0
150 169 0
151 171 0
151 170 0
149 168 0
149 169 0
151 170 0
149 168 0
151 170 0
147 166 0
147 167 0
148 166 0
152 171 0
146 164 0
148 166 0
147 165 0
149 168 0
145 164 0
147 166 0
149 167 0
147 166 0
147 165 0
147 165 0
149 167 0
141 159 0
149 167 0
146 164 0
144 162 0
141 159 0
145 163 0
147 164 0
143 162 0
138 156 0
145 163 0
142 161 0
145 163 0
145 163 0
139 156 0
146 164 0
142 160 0
142 160 0
145 163 0
142 159 0
141 158 0
141 159 0
136 153 0
138 155 0
141 159 0
143 159 0
144 162 0
139 155 0
138 155 0
138 156 0
140 157 0
129 146 0
140 157 0
137 154 0
139 155 0
137 154 0
132 149 0
134 151 0
128 144 0
138 155 0
141 159 0
135 152 0
137 154 0
135 152 0
137 154 0
139 155 0
136 152 0
132 148 0
134 150 0
126 140 0
126 142 0
129 145 0
126 141 0
125 140 0
128 143 0
129 145 0
136 151 0
124 139 0
118 132 0
127 143 0
124 139 0
118 133 0
126 140 0
117 130 0
119 134 0
114 128 0
117 131 0
126 140 0
113 126 0
115 130 0
120 133 0
110 122 0
113 126 0
111 124 0
115 128 0
107 119 0
98 110 0
102 113 0
91 102 0
95 105 0
92 102 0
91 101 0
85 94 0
92 102 0
89 98 0
99 110 0
95 107 0
96 108 0
105 117 0
101 113 0
114 126 0
109 121 0
117 130 0
116 129 0
114 128 0
116 131 0
115 129 0
111 126 0
117 131 0
119 134 0
114 128 0
114 128 0
119 134 0
112 127 0
123 138 0
120 137 0
123 139 0
118 134 0
118 134 0
120 137 0
121 136 0
113 129 0
117 133 0
124 142 0
131 148 0
124 141 0
117 133 0
119 136 0
117 134 0
124 141 0
131 149 0
120 138 0
118 135 0
121 140 0
107 124 0
117 135 0
123 141 0
111 128 0
118 134 0
125 142 0
119 136 0
120 137 0
128 146 0
112 128 0
109 127 0
116 133 0
113 131 0
115 133 0
110 126 0
108 123 0
107 125 0
103 119 0
113 130 0
116 133 0
105 122 0
93 110 0
99 114 0
90 104 0
107 123 0
111 127 0
103 119 0
103 118 0
110 125 0
104 119 0
104 118 0
89 104 0
80 94 0
85 99 0
94 109 0
80 94 0
91 104 0
92 105 0
84 96 0
74 87 0
73 84 0
85 97 0
74 87 0
70 82 0
57 70 0
79 90 0
63 74 0
90 101 0
82 94 0
66 77 0
58 69 0
62 74 0
73 84 0
69 79 0
60 70 0
71 81 0
67 79 0
66 77 0
70 82 0
64 74 0
59 71 0
64 74 0
84 96 0
71 81 0
69 80 0
75 84 0
70 82 0
77 87 0
85 97 0
67 78 0
85 98 0
75 87 0
78 90 0
81 91 0
93 104 0
86 100 0
89 102 0
93 107 0
100 113 0
104 118 0
104 116 0
92 104 0
104 118 0
94 105 0
101 116 0
107 120 0
120 135 0
110 123 0
104 119 0
107 120 0
115 127 0
112 124 0
107 118 0
109 123 0
113 126 0
114 126 0
119 134 0
125 138 0
122 135 0
116 131 0
106 118 0
115 129 0
117 129 0
128 143 0
121 133 0
109 121 0
123 135 0
115 126 0
120 134 0
114 124 0
126 137 0
117 127 0
117 126 0
121 130 0
120 132 0
123 131 0
126 136 0
119 127 0
123 131 0
116 122 0
125 132 0
119 128 0
123 130 0
118 126 0
112 120 0
109 113 0
116 122 0
121 128 0
111 116 0
110 113 0
110 114 0
109 112 0
119 120 0
107 110 0
101 98 0
114 116 0
114 116 0
102 103 0
102 100 0
94 89 0
110 107 0
95 92 0
97 96 0
98 100 0
99 93 0
92 87 0
86 83 0
83 75 0
84 76 0
73 63 0
88 79 0
76 66 0
73 63 0
84 75 0
81 71 0
92 83 0
106 95 0
96 86 0
96 87 0
104 95 0
88 79 0
95 85 0
110 100 0
111 98 0
105 94 0
101 89 0
94 85 0
116 104 0
111 99 0
114 101 0
108 97 0
120 109 0
119 111 0
125 115 0
124 114 0
118 107 0
120 108 0
118 108 0
117 106 0
117 106 0
117 108 0
122 111 0
122 111 0
124 115 0
121 109 0
117 109 0
134 124 0
125 116 0
131 122 0
123 114 0
132 123 0
129 120 0
123 115 0
125 117 0
133 123 0
132 123 0
128 117 0
135 125 0
134 124 0
133 121 0
138 128 0
133 124 0
132 123 0
132 124 0
130 121 0
135 125 0
139 130 0
133 122 0
135 125 0
135 127 0
136 125 0
133 124 0
131 123 0
136 127 0
132 122 0
135 127 0
134 127 0
139 129 0
133 126 0
136 128 0
138 129 0
139 131 0
131 123 0
135 125 0
134 126 0
136 128 0
137 130 0
129 121 0
129 122 0
136 129 0
136 130 0
130 121 0
134 129 0
133 125 0
133 127 0
135 126 0
137 131 0
135 130 0
129 121 0
125 120 0
133 125 0
141 134 0
129 122 0
130 126 0
124 117 11
130 122 16
126 121 0
131 124 22
131 125 25
139 131 16
135 127 19
129 121 32
123 116 25
146 165 0
152 171 0
152 171 0
151 170 0
149 167 0
149 166 0
149 167 0
150 169 0
149 167 0
148 166 0
148 167 0
148 167 0
147 167 0
149 168 0
150 169 0
148 166 0
147 167 0
147 166 0
146 165 0
149 167 0
148 168 0
144 162 0
149 167 0
146 164 0
146 163 0
144 161 0
146 163 0
146 165 0
144 162 0
145 162 0
146 164 0
144 162 0
144 161 0
146 164 0
139 157 0
141 158 0
143 160 0
145 163 0
142 159 0
144 162 0
146 164 0
143 161 0
137 153 0
142 161 0
142 160 0
138 155 0
141 157 0
140 157 0
143 160 0
139 156 0
135 151 0
140 157 0
138 155 0
139 156 0
138 155 0
143 160 0
136 152 0
133 149 0
140 157 0
140 157 0
139 156 0
136 152 0
133 150 0
136 152 0
137 153 0
137 153 0
132 147 0
130 146 0
126 142 0
129 145 0
126 142 0
132 148 0
133 149 0
126 141 0
129 144 0
122 138 0
130 145 0
129 145 0
128 143 0
125 141 0
119 133 0
125 141 0
120 134 0
119 133 0
125 141 0
125 140 0
126 140 0
122 136 0
112 125 0
126 140 0
126 140 0
110 123 0
115 128 0
104 116 0
112 125 0
111 123 0
96 108 0
108 120 0
103 115 0
103 115 0
99 110 0
80 89 0
83 91 0
87 95 0
88 98 0
85 94 0
100 110 0
98 109 0
116 128 0
103 116 0
98 110 0
108 120 0
109 122 0
107 120 0
119 133 0
121 135 0
108 121 0
106 120 0
118 132 0
110 124 0
125 140 0
120 134 0
116 131 0
112 127 0
108 124 0
114 129 0
117 133 0
114 130 0
117 133 0
121 137 0
125 141 0
121 137 0
121 137 0
111 127 0
131 148 0
114 131 0
114 131 0
108 124 0
130 147 0
134 152 0
122 139 0
117 135 0
122 139 0
136 153 0
121 138 0
121 138 0
126 144 0
133 151 0
114 132 0
116 134 0
127 145 0
113 130 0
116 133 0
117 134 0
127 144 0
113 131 0
116 133 0
116 134 0
116 134 0
115 132 0
120 138 0
121 139 0
113 130 0
133 151 0
98 115 0
110 127 0
107 123 0
96 112 0
103 119 0
97 113 0
103 120 0
100 115 0
109 125 0
105 121 0
103 119 0
95 109 0
95 111 0
98 112 0
98 113 0
76 91 0
93 108 0
98 113 0
99 114 0
81 94 0
79 92 0
86 101 0
79 91 0
84 98 0
70 84 0
83 95 0
76 87 0
62 74 0
71 82 0
70 83 0
62 74 0
82 93 0
85 98 0
73 86 0
70 83 0
65 76 0
68 81 0
57 66 0
73 83 0
62 73 0
73 84 0
63 75 0
66 79 0
69 80 0
83 95 0
74 86 0
79 92 0
78 90 0
71 83 0
81 93 0
79 91 0
89 103 0
82 94 0
83 97 0
81 93 0
83 98 0
89 102 0
80 92 0
88 98 0
87 100 0
108 121 0
104 116 0
93 105 0
78 91 0
104 116 0
106 120 0
107 120 0
89 101 0
105 118 0
114 128 0
110 125 0
106 120 0
116 129 0
124 139 0
112 125 0
104 117 0
106 119 0
111 121 0
105 118 0
112 124 0
111 123 0
118 130 0
114 127 0
116 127 0
118 130 0
117 129 0
126 139 0
116 128 0
122 133 0
121 134 0
124 135 0
120 131 0
122 133 0
121 131 0
121 132 0
127 142 0
115 126 0
118 126 0
114 123 0
125 135 0
119 130 0
117 127 0
120 129 0
119 129 0
124 131 0
117 128 0
119 129 0
106 110 0
119 126 0
125 132 0
121 128 0
109 118 0
118 120 0
123 128 0
114 118 0
121 126 0
101 102 0
110 113 0
108 109 0
103 105 0
101 101 0
104 107 0
108 108 0
102 102 0
96 93 0
102 101 0
95 96 0
94 91 0
110 108 0
105 104 0
94 90 0
90 84 0
77 69 0
95 88 0
63 52 0
76 67 0
75 65 0
73 65 0
97 87 0
89 77 0
93 82 0
93 82 0
88 80 0
85 73 0
93 84 0
97 87 0
99 90 0
108 98 0
109 99 0
99 89 0
113 102 0
104 93 0
113 102 0
116 104 0
102 92 0
109 99 0
122 110 0
114 103 0
112 103 0
117 105 0
126 116 0
120 111 0
126 114 0
121 111 0
124 114 0
117 107 0
122 110 0
123 113 0
120 111 0
119 111 0
112 103 0
132 121 0
130 120 0
133 123 0
127 119 0
129 119 0
126 116 0
127 119 0
122 113 0
128 118 0
129 120 0
127 118 0
134 122 0
132 124 0
129 120 0
133 124 0
136 127 0
134 125 0
132 122 0
125 114 0
132 122 0
134 125 0
130 121 0
132 123 0
133 124 0
137 126 0
133 123 0
131 124 0
133 125 0
130 123 0
133 126 0
135 127 0
131 123 0
135 126 0
135 127 0
137 129 0
136 129 0
135 126 0
139 130 0
127 120 0
129 120 0
133 124 0
135 126 0
133 124 0
133 127 0
131 124 0
132 124 0
129 122 0
128 121 0
132 125 0
129 123 0
120 114 0
126 119 0
132 125 0
136 128 0
131 124 0
126 119 11
124 117 0
119 112 11
125 120 19
123 115 25
127 122 19
124 115 28
119 112 22
123 116 19
125 119 28
139 158 0
136 153 0
149 168 0
145 164 0
147 166 0
150 169 0
147 164 0
149 168 0
149 169 0
149 167 0
150 169 0
150 168 0
148 167 0
148 165 0
150 168 0
148 166 0
149 167 0
149 166 0
146 164 0
149 167 0
146 164 0
145 163 0
142 160 0
142 158 0
147 165 0
146 164 0
144 161 0
142 159 0
146 163 0
143 160 0
146 164 0
144 162 0
137 154 0
141 157 0
146 164 0
141 158 0
144 161 0
136 153 0
144 162 0
147 164 0
142 160 0
147 165 0
141 159 0
144 161 0
139 156 0
137 154 0
139 156 0
140 156 0
142 158 0
138 154 0
135 150 0
138 155 0
145 162 0
139 156 0
142 160 0
136 152 0
142 159 0
136 153 0
131 148 0
138 156 0
135 150 0
135 151 0
132 148 0
137 152 0
141 157 0
131 147 0
131 147 0
130 146 0
127 142 0
128 143 0
134 150 0
129 145 0
127 143 0
123 138 0
131 146 0
131 146 0
117 131 0
116 131 0
125 140 0
123 138 0
122 136 0
126 141 0
127 141 0
122 135 0
123 137 0
116 130 0
116 130 0
114 127 0
114 127 0
119 134 0
115 128 0
109 121 0
107 119 0
101 112 0
102 113 0
99 109 0
98 108 0
102 112 0
72 80 0
66 73 0
85 94 0
84 93 0
89 99 0
98 108 0
101 112 0
102 113 0
107 117 0
97 107 0
105 118 0
104 116 0
109 122 0
103 115 0
113 125 0
110 123 0
121 134 0
111 124 0
109 123 0
115 128 0
109 124 0
115 129 0
115 130 0
129 143 0
115 130 0
121 137 0
116 132 0
116 131 0
129 145 0
119 135 0
127 144 0
124 140 0
116 131 0
122 138 0
128 144 0
125 142 0
128 145 0
135 152 0
119 138 0
111 128 0
124 141 0
118 134 0
127 144 0
126 144 0
132 151 0
121 139 0
123 141 0
121 138 0
120 139 0
117 135 0
127 145 0
124 143 0
117 135 0
122 140 0
116 135 0
127 145 0
117 135 0
105 122 0
123 142 0
126 144 0
117 134 0
114 130 0
114 131 0
102 119 0
113 131 0
99 116 0
114 132 0
110 128 0
121 138 0
101 118 0
102 119 0
106 124 0
101 117 0
105 121 0
106 122 0
101 118 0
107 124 0
97 112 0
100 115 0
95 111 0
98 113 0
95 110 0
81 98 0
79 94 0
83 97 0
89 103 0
99 114 0
84 98 0
95 110 0
87 101 0
87 101 0
86 99 0
83 97 0
80 93 0
74 88 0
63 75 0
79 92 0
77 89 0
95 109 0
84 99 0
79 92 0
77 89 0
74 86 0
83 96 0
84 96 0
68 81 0
78 90 0
70 83 0
74 87 0
79 92 0
84 97 0
81 94 0
86 97 0
78 89 0
90 101 0
92 106 0
95 107 0
79 94 0
71 85 0
85 97 0
89 100 0
89 102 0
93 106 0
83 97 0
96 108 0
113 128 0
100 113 0
94 107 0
95 110 0
111 123 0
112 126 0
105 117 0
101 116 0
102 115 0
114 127 0
103 116 0
108 123 0
103 117 0
108 120 0
105 117 0
103 115 0
110 123 0
120 134 0
117 130 0
116 128 0
112 126 0
114 126 0
112 126 0
108 121 0
111 125 0
107 120 0
129 142 0
115 127 0
114 126 0
115 125 0
129 140 0
119 131 0
114 129 0
119 131 0
120 131 0
122 134 0
128 138 0
120 132 0
115 127 0
126 139 0
109 118 0
117 126 0
117 126 0
119 125 0
106 116 0
121 128 0
121 131 0
125 133 0
117 128 0
117 124 0
109 113 0
114 119 0
116 121 0
117 122 0
123 130 0
102 105 0
111 114 0
111 114 0
110 113 0
109 110 0
118 121 0
107 108 0
109 111 0
105 105 0
95 94 0
110 112 0
107 107 0
105 102 0
102 99 0
98 95 0
91 91 0
94 92 0
92 89 0
93 89 0
94 90 0
67 59 0
74 71 0
76 64 0
65 56 0
82 71 0
82 71 0
86 75 0
101 89 0
90 79 0
86 77 0
95 82 0
95 83 0
104 93 0
99 86 0
108 97 0
105 95 0
106 95 0
107 95 0
104 93 0
106 94 0
115 102 0
117 108 0
112 102 0
117 106 0
115 106 0
109 96 0
117 107 0
124 114 0
125 115 0
108 99 0
116 107 0
120 108 0
127 116 0
116 107 0
122 111 0
129 116 0
128 116 0
120 106 0
120 111 0
127 116 0
124 114 0
120 109 0
124 112 0
120 110 0
124 114 0
128 118 0
131 119 0
133 121 0
128 118 0
130 120 0
126 115 0
124 115 0
128 117 0
137 126 0
127 115 0
131 121 0
131 122 0
127 118 0
132 122 0
136 126 0
127 119 0
132 123 0
135 124 0
136 125 0
130 120 0
128 119 0
131 122 0
131 122 0
129 121 0
129 121 0
130 121 0
129 122 0
134 126 0
131 122 0
128 120 0
131 125 0
134 127 0
135 127 0
135 127 0
131 122 0
134 125 0
128 121 0
129 122 0
130 122 0
133 127 0
135 129 0
127 118 0
126 119 0
122 113 0
129 123 0
127 120 0
126 120 11
131 122 16
122 115 11
122 114 19
125 120 19
122 116 22
120 113 22
118 112 19
105 100 16
122 115 0
134 137 28
172 194 0
163 185 0
147 165 0
135 152 0
141 160 0
144 162 0
147 166 0
147 166 0
150 168 0
148 167 0
144 163 0
145 163 0
148 167 0
146 166 0
144 161 0
146 164 0
146 165 0
146 163 0
146 164 0
148 165 0
143 161 0
151 168 0
145 163 0
147 165 0
140 157 0
144 161 0
145 163 0
143 160 0
143 161 0
146 164 0
143 160 0
142 160 0
143 161 0
142 160 0
143 161 0
142 159 0
142 159 0
143 160 0
142 159 0
141 158 0
139 156 0
139 156 0
139 156 0
135 151 0
139 156 0
139 156 0
140 156 0
142 158 0
138 153 0
141 158 0
143 159 0
139 156 0
138 155 0
138 155 0
135 151 0
136 152 0
135 151 0
130 145 0
136 152 0
137 153 0
135 151 0
137 152 0
133 149 0
128 142 0
131 147 0
134 149 0
131 146 0
123 137 0
137 153 0
129 144 0
130 144 0
129 145 0
131 146 0
127 142 0
126 140 0
123 136 0
123 138 0
126 140 0
125 139 0
109 122 0
120 134 0
118 131 0
118 132 0
113 126 0
120 132 0
127 141 0
116 128 0
105 118 0
114 126 0
115 128 0
101 112 0
106 119 0
101 112 0
101 111 0
100 111 0
85 94 0
75 83 0
78 86 0
76 83 0
84 93 0
93 103 0
102 111 0
98 109 0
102 112 0
89 100 0
94 105 0
105 116 0
113 126 0
107 120 0
106 117 0
108 121 0
102 115 0
100 112 0
115 128 0
115 129 0
112 127 0
112 126 0
118 133 0
120 136 0
115 131 0
120 135 0
117 132 0
122 138 0
120 135 0
113 128 0
130 147 0
111 126 0
121 137 0
118 135 0
124 140 0
133 151 0
116 131 0
123 141 0
117 135 0
119 135 0
124 141 0
126 143 0
125 143 0
129 147 0
118 135 0
116 132 0
130 148 0
125 144 0
121 138 0
117 134 0
117 134 0
124 141 0
120 138 0
123 141 0
130 147 0
120 136 0
115 133 0
119 135 0
118 136 0
116 134 0
119 137 0
116 134 0
113 131 0
112 130 0
122 139 0
114 131 0
107 125 0
115 131 0
117 134 0
107 124 0
112 128 0
110 126 0
114 129 0
97 114 0
105 121 0
101 117 0
112 129 0
111 128 0
99 115 0
111 127 0
97 111 0
96 113 0
109 124 0
102 117 0
104 120 0
104 120 0
100 115 0
108 122 0
92 107 0
92 107 0
102 117 0
89 103 0
109 124 0
93 106 0
108 123 0
87 102 0
90 104 0
75 89 0
80 94 0
103 115 0
80 94 0
85 99 0
75 90 0
84 97 0
79 91 0
83 98 0
87 100 0
85 97 0
84 98 0
98 112 0
81 94 0
93 106 0
91 104 0
88 101 0
86 97 0
84 94 0
91 102 0
99 112 0
92 104 0
82 96 0
98 111 0
89 102 0
80 93 0
91 103 0
96 111 0
98 111 0
100 114 0
93 105 0
104 118 0
99 113 0
98 111 0
90 102 0
108 122 0
103 117 0
112 126 0
107 122 0
96 111 0
112 128 0
114 127 0
112 125 0
106 119 0
104 118 0
108 122 0
108 123 0
114 129 0
123 136 0
118 133 0
113 127 0
112 126 0
112 127 0
119 130 0
125 138 0
124 137 0
124 139 0
122 134 0
114 129 0
127 143 0
107 118 0
115 126 0
126 138 0
128 140 0
123 132 0
124 135 0
123 135 0
115 126 0
117 130 0
113 124 0
120 134 0
119 129 0
110 119 0
134 146 0
123 133 0
115 124 0
115 124 0
127 135 0
120 129 0
116 126 0
134 141 0
120 127 0
107 114 0
120 126 0
125 130 0
113 117 0
115 119 0
112 118 0
114 121 0
112 115 0
108 112 0
114 120 0
109 110 0
107 108 0
113 112 0
112 116 0
96 94 0
107 103 0
90 89 0
104 106 0
103 101 0
104 100 0
101 101 0
104 101 0
93 89 0
86 81 0
78 73 0
88 84 0
97 93 0
92 91 0
78 69 0
69 60 0
77 67 0
82 71 0
84 70 0
89 79 0
90 77 0
101 91 0
95 82 0
100 87 0
104 94 0
96 84 0
98 85 0
108 96 0
101 89 0
98 86 0
95 85 0
110 99 0
114 102 0
114 104 0
110 99 0
107 93 0
105 93 0
120 110 0
122 112 0
103 92 0
117 106 0
119 110 0
123 113 0
119 108 0
117 106 0
119 109 0
116 105 0
118 108 0
121 112 0
117 107 0
120 111 0
120 111 0
123 114 0
121 111 0
130 117 0
124 114 0
121 114 0
122 113 0
127 114 0
125 112 0
134 125 0
124 115 0
129 119 0
127 117 0
129 120 0
133 123 0
126 116 0
131 121 0
127 119 0
131 122 0
129 121 0
132 123 0
131 121 0
129 120 0
131 123 0
134 125 0
133 125 0
133 123 0
134 125 0
130 122 0
133 125 0
127 118 0
132 122 0
133 123 0
124 118 0
134 126 0
137 129 0
126 119 0
135 128 0
130 121 0
127 116 0
125 119 0
133 125 0
130 122 0
122 114 0
137 129 0
123 113 0
130 123 11
129 123 0
124 118 11
122 115 16
119 113 11
121 114 16
120 113 0
111 106 11
127 121 19
118 111 22
119 112 28
124 120 34
144 153 28
161 178 16
172 193 0
171 193 0
171 194 0
170 193 0
169 192 0
156 176 0
147 167 0
133 150 0
134 152 0
136 153 0
148 166 0
147 166 0
147 165 0
149 167 0
148 166 0
149 167 0
148 166 0
143 162 0
150 168 0
148 166 0
149 167 0
149 167 0
148 165 0
146 163 0
139 156 0
145 163 0
144 162 0
142 160 0
147 163 0
143 160 0
142 158 0
142 158 0
144 161 0
143 160 0
144 161 0
143 159 0
143 160 0
145 162 0
143 160 0
142 159 0
145 161 0
142 159 0
135 151 0
138 154 0
138 154 0
139 155 0
141 157 0
140 157 0
138 154 0
135 151 0
133 149 0
136 152 0
139 155 0
134 149 0
136 152 0
143 159 0
130 146 0
138 154 0
136 152 0
136 152 0
132 148 0
134 149 0
131 147 0
133 148 0
129 144 0
135 150 0
129 144 0
128 143 0
120 134 0
131 146 0
129 144 0
129 144 0
122 136 0
127 141 0
126 139 0
127 142 0
126 141 0
119 132 0
114 127 0
122 136 0
119 132 0
124 138 0
119 133 0
125 138 0
109 121 0
120 133 0
116 130 0
107 119 0
104 115 0
103 115 0
101 111 0
105 116 0
98 108 0
76 84 0
87 96 0
82 90 0
82 89 0
82 90 0
85 95 0
87 96 0
99 108 0
99 110 0
93 103 0
109 120 0
97 108 0
98 110 0
108 120 0
112 124 0
113 126 0
111 124 0
110 123 0
114 127 0
114 127 0
114 129 0
120 134 0
108 121 0
117 131 0
119 134 0
121 136 0
118 132 0
124 139 0
115 130 0
111 127 0
127 143 0
117 133 0
127 143 0
128 145 0
115 130 0
124 141 0
131 147 0
122 140 0
128 144 0
129 146 0
131 148 0
124 140 0
122 139 0
122 139 0
121 139 0
129 148 0
121 139 0
126 144 0
123 140 0
119 137 0
128 146 0
125 142 0
119 137 0
125 143 0
127 147 0
119 137 0
123 141 0
125 144 0
110 128 0
125 142 0
126 144 0
119 137 0
129 148 0
120 138 0
124 142 0
126 143 0
111 128 0
119 138 0
121 139 0
124 141 0
119 136 0
120 137 0
111 128 0
99 116 0
117 134 0
119 136 0
104 120 0
112 130 0
104 121 0
110 128 0
102 118 0
114 131 0
105 121 0
106 123 0
102 118 0
110 126 0
106 123 0
92 108 0
97 113 0
92 108 0
95 111 0
101 116 0
92 107 0
77 92 0
88 104 0
83 98 0
92 107 0
84 98 0
87 102 0
101 116 0
91 105 0
82 98 0
93 108 0
76 90 0
85 98 0
84 99 0
85 99 0
89 103 0
75 88 0
84 98 0
86 100 0
75 90 0
82 96 0
101 117 0
85 100 0
96 109 0
94 108 0
94 107 0
91 105 0
92 108 0
85 98 0
90 104 0
74 89 0
84 98 0
99 114 0
106 119 0
100 113 0
105 120 0
84 97 0
101 114 0
109 122 0
106 119 0
108 122 0
96 109 0
106 119 0
102 113 0
104 119 0
104 116 0
106 120 0
116 128 0
113 127 0
103 118 0
110 123 0
114 129 0
108 123 0
111 126 0
117 128 0
107 118 0
122 136 0
114 130 0
120 134 0
114 127 0
112 128 0
121 134 0
120 133 0
118 132 0
114 127 0
125 141 0
121 134 0
119 132 0
128 144 0
113 124 0
123 138 0
133 147 0
127 141 0
117 129 0
117 129 0
125 135 0
115 128 0
122 136 0
131 140 0
118 129 0
125 137 0
116 128 0
130 141 0
129 139 0
123 132 0
126 138 0
129 137 0
114 120 0
126 132 0
129 138 0
119 127 0
123 129 0
114 121 0
113 119 0
118 122 0
107 113 0
112 115 0
110 115 0
126 130 0
114 118 0
115 118 0
114 117 0
115 119 0
113 113 0
107 110 0
109 108 0
121 125 0
100 99 0
112 113 0
110 108 0
96 93 0
100 97 0
108 108 0
97 93 0
93 88 0
100 97 0
79 72 0
71 67 0
78 74 0
81 74 0
81 76 0
69 60 0
72 58 0
66 56 0
87 74 0
74 63 0
84 73 0
92 79 0
101 90 0
80 68 0
96 83 0
97 84 0
92 79 0
93 83 0
105 93 0
94 81 0
104 92 0
106 96 0
109 98 0
116 105 0
110 98 0
120 109 0
113 102 0
106 97 0
110 99 0
108 97 0
119 108 0
107 98 0
118 108 0
115 104 0
119 110 0
109 97 0
123 112 0
118 107 0
115 104 0
117 106 0
127 116 0
123 114 0
119 108 0
123 114 0
123 112 0
120 110 0
125 115 0
125 113 0
124 113 0
127 118 0
121 111 0
130 119 0
127 116 0
124 111 0
135 127 0
132 121 0
125 116 0
128 120 0
118 106 0
138 129 0
129 117 0
125 115 0
123 113 0
127 119 0
132 123 0
131 122 0
127 119 0
129 121 0
129 122 0
135 127 0
129 120 0
124 113 0
120 111 0
131 123 0
132 124 0
131 124 0
126 119 0
124 117 0
123 116 0
123 116 0
129 122 0
125 118 0
130 123 0
119 110 0
121 112 11
123 117 0
130 122 11
123 116 11
122 116 19
117 111 11
120 114 11
121 114 22
117 111 19
124 121 30
143 150 0
155 168 11
168 185 0
171 191 0
170 190 0
172 190 0
170 192 0
170 192 0
171 193 0
168 190 0
171 193 0
172 194 0
170 192 0
160 181 0
149 169 0
143 161 0
134 150 0
137 155 0
142 161 0
140 157 0
150 168 0
145 163 0
146 163 0
145 163 0
144 162 0
144 162 0
145 162 0
142 160 0
144 161 0
146 164 0
140 158 0
144 161 0
143 160 0
145 163 0
141 158 0
139 155 0
148 166 0
143 160 0
140 158 0
138 155 0
141 157 0
143 160 0
146 163 0
141 157 0
139 156 0
144 162 0
133 149 0
140 156 0
142 158 0
136 152 0
135 151 0
140 155 0
137 153 0
142 158 0
135 151 0
136 152 0
134 149 0
140 155 0
134 150 0
135 150 0
138 154 0
135 151 0
137 153 0
137 152 0
130 146 0
132 147 0
129 144 0
129 145 0
130 145 0
127 142 0
129 144 0
129 144 0
127 141 0
129 143 0
127 141 0
125 138 0
128 142 0
132 146 0
130 144 0
124 138 0
125 139 0
116 129 0
120 133 0
124 138 0
117 130 0
121 135 0
120 132 0
114 125 0
111 123 0
111 124 0
108 119 0
108 120 0
102 113 0
97 108 0
100 111 0
88 97 0
83 91 0
80 87 0
73 81 0
81 89 0
84 93 0
75 83 0
84 92 0
92 101 0
98 108 0
99 109 0
97 108 0
107 119 0
107 118 0
106 117 0
113 125 0
112 124 0
116 129 0
110 124 0
114 127 0
115 129 0
115 129 0
113 127 0
115 129 0
107 122 0
119 133 0
117 132 0
121 136 0
119 134 0
128 144 0
118 134 0
118 133 0
119 136 0
124 140 0
118 134 0
133 148 0
119 136 0
121 137 0
127 143 0
119 135 0
123 140 0
126 144 0
127 144 0
123 142 0
127 144 0
131 148 0
132 150 0
129 147 0
120 137 0
121 139 0
137 155 0
121 139 0
119 136 0
139 157 0
123 141 0
113 131 0
120 138 0
124 142 0
118 137 0
120 139 0
123 142 0
112 130 0
117 134 0
126 146 0
116 133 0
129 148 0
110 127 0
119 139 0
119 136 0
117 134 0
113 131 0
114 131 0
124 142 0
120 138 0
113 132 0
110 129 0
100 118 0
121 139 0
119 136 0
106 123 0
103 119 0
103 121 0
119 137 0
110 126 0
115 133 0
111 128 0
93 110 0
104 122 0
98 115 0
112 129 0
108 125 0
100 116 0
91 108 0
97 113 0
106 122 0
98 112 0
99 116 0
86 101 0
106 122 0
93 109 0
89 105 0
96 111 0
92 108 0
98 114 0
82 96 0
96 112 0
89 103 0
92 106 0
101 116 0
89 104 0
95 110 0
92 106 0
101 116 0
86 100 0
95 110 0
89 102 0
100 115 0
93 105 0
87 101 0
100 114 0
95 110 0
92 107 0
102 117 0
79 94 0
104 119 0
88 103 0
102 115 0
95 109 0
103 116 0
80 93 0
96 110 0
101 113 0
101 116 0
104 118 0
105 120 0
102 117 0
107 121 0
99 113 0
99 113 0
109 123 0
106 120 0
105 120 0
109 124 0
111 126 0
107 123 0
113 127 0
111 125 0
117 131 0
116 130 0
117 129 0
118 134 0
106 119 0
110 125 0
117 132 0
112 126 0
128 142 0
126 140 0
105 119 0
114 127 0
108 122 0
118 130 0
121 136 0
113 125 0
124 137 0
128 144 0
119 131 0
114 127 0
123 136 0
128 141 0
119 132 0
106 118 0
121 131 0
119 130 0
123 131 0
122 135 0
118 129 0
112 119 0
120 133 0
122 131 0
121 132 0
121 131 0
128 138 0
116 125 0
111 122 0
120 129 0
121 130 0
114 123 0
118 122 0
119 125 0
118 125 0
120 125 0
119 124 0
117 120 0
120 125 0
118 119 0
119 124 0
117 121 0
117 118 0
113 116 0
110 112 0
103 101 0
114 116 0
110 113 0
108 108 0
102 101 0
110 110 0
97 96 0
100 102 0
87 83 0
95 89 0
103 100 0
95 90 0
91 87 0
95 90 0
87 76 0
81 76 0
91 87 0
74 65 0
74 66 0
82 77 0
82 74 0
71 57 0
87 77 0
81 70 0
82 71 0
86 73 0
89 79 0
97 85 0
89 76 0
91 81 0
107 97 0
110 96 0
109 96 0
97 86 0
100 86 0
103 93 0
102 91 0
104 91 0
108 96 0
106 96 0
110 98 0
108 97 0
117 108 0
114 103 0
117 105 0
114 102 0
110 99 0
113 102 0
114 102 0
106 94 0
116 104 0
110 100 0
121 110 0
117 108 0
111 100 0
118 107 0
120 108 0
122 111 0
125 114 0
117 107 0
120 108 0
126 113 0
119 109 0
122 112 0
128 119 0
120 109 0
122 113 0
128 118 0
127 116 0
125 115 0
131 120 0
125 114 0
126 114 0
121 111 0
126 117 0
127 117 0
122 111 0
127 119 0
118 110 0
130 119 0
130 121 0
126 117 0
127 120 0
122 113 0
127 118 0
127 118 0
123 112 0
124 117 0
120 113 0
119 111 0
121 113 0
119 109 0
117 108 0
117 108 16
118 112 0
120 113 0
124 116 22
117 111 11
122 115 11
104 97 0
111 105 16
128 127 16
150 157 22
159 176 0
171 190 0
168 186 0
168 188 0
167 187 0
168 185 0
168 187 0
166 187 0
171 194 0
171 193 0
169 192 0
171 194 0
171 193 0
167 190 0
167 189 0
169 191 0
172 194 0
169 190 0
165 186 0
156 176 0
153 172 0
131 148 0
136 153 0
138 154 0
145 163 0
141 158 0
147 165 0
145 163 0
144 162 0
144 162 0
143 160 0
144 162 0
144 160 0
138 155 0
142 158 0
141 158 0
148 164 0
145 162 0
145 161 0
141 158 0
141 158 0
141 158 0
142 159 0
141 157 0
143 161 0
143 160 0
137 155 0
137 153 0
141 158 0
140 156 0
134 149 0
136 152 0
140 156 0
141 157 0
138 154 0
134 149 0
135 151 0
143 159 0
137 153 0
135 151 0
133 148 0
135 150 0
134 149 0
134 150 0
138 154 0
134 150 0
131 146 0
129 143 0
128 143 0
128 141 0
131 145 0
129 144 0
127 142 0
130 144 0
122 135 0
130 144 0
127 141 0
132 146 0
124 138 0
122 135 0
122 135 0
122 135 0
127 141 0
111 123 0
109 122 0
117 129 0
118 131 0
109 121 0
109 121 0
102 113 0
103 114 0
93 103 0
99 108 0
82 91 0
85 94 0
91 99 0
81 88 0
84 91 0
91 100 0
77 85 0
93 102 0
97 107 0
89 98 0
97 107 0
101 112 0
107 118 0
98 110 0
108 119 0
108 120 0
110 121 0
109 122 0
115 128 0
109 121 0
117 130 0
123 136 0
119 133 0
116 130 0
119 133 0
121 136 0
121 136 0
120 134 0
111 125 0
126 142 0
123 138 0
123 139 0
116 131 0
125 141 0
129 145 0
124 140 0
131 147 0
124 140 0
130 147 0
132 149 0
120 137 0
121 138 0
131 148 0
122 138 0
133 151 0
127 144 0
128 147 0
125 143 0
111 129 0
122 141 0
127 144 0
133 150 0
129 148 0
120 139 0
132 150 0
132 151 0
121 138 0
128 147 0
130 150 0
124 142 0
122 140 0
127 145 0
118 135 0
126 144 0
125 143 0
127 146 0
116 133 0
120 138 0
117 135 0
121 138 0
116 134 0
113 131 0
118 135 0
112 129 0
122 141 0
116 133 0
126 143 0
120 138 0
117 136 0
115 134 0
111 129 0
112 129 0
113 130 0
128 148 0
126 144 0
117 135 0
107 125 0
111 128 0
107 125 0
102 120 0
107 123 0
108 125 0
102 119 0
109 125 0
114 131 0
100 116 0
103 119 0
95 112 0
108 125 0
107 122 0
105 122 0
96 114 0
97 113 0
100 115 0
91 108 0
95 110 0
102 118 0
104 119 0
108 124 0
102 118 0
104 120 0
92 107 0
93 109 0
105 120 0
93 107 0
97 114 0
86 101 0
101 116 0
97 114 0
94 109 0
104 118 0
113 128 0
112 127 0
98 113 0
92 107 0
104 119 0
97 112 0
105 120 0
119 135 0
94 108 0
97 110 0
104 119 0
95 109 0
108 124 0
109 124 0
109 126 0
96 110 0
106 122 0
115 131 0
107 122 0
101 115 0
99 111 0
116 133 0
113 130 0
113 127 0
109 125 0
107 121 0
109 126 0
103 115 0
118 132 0
111 126 0
107 120 0
112 127 0
117 130 0
110 125 0
122 137 0
113 128 0
104 120 0
120 134 0
118 132 0
123 137 0
125 139 0
117 133 0
113 126 0
123 137 0
122 138 0
113 124 0
118 128 0
124 138 0
111 124 0
117 127 0
129 144 0
118 131 0
135 148 0
114 126 0
127 140 0
129 143 0
128 139 0
124 135 0
127 140 0
122 133 0
126 138 0
125 137 0
119 129 0
113 122 0
120 131 0
129 139 0
125 134 0
116 124 0
116 125 0
125 133 0
120 127 0
121 128 0
118 125 0
117 124 0
128 135 0
120 127 0
129 135 0
114 121 0
121 124 0
126 129 0
126 130 0
123 126 0
119 123 0
110 112 0
114 119 0
113 114 0
103 103 0
105 104 0
102 100 0
110 113 0
102 101 0
103 102 0
105 105 0
100 97 0
98 95 0
107 105 0
88 85 0
87 83 0
99 94 0
86 78 0
87 82 0
86 79 0
72 69 0
78 73 0
62 60 0
83 75 0
73 62 0
71 61 0
69 59 0
77 65 0
80 67 0
83 71 0
84 75 0
93 81 0
95 83 0
96 83 0
99 89 0
95 85 0
99 87 0
108 95 0
97 83 0
112 98 0
108 96 0
102 91 0
113 102 0
103 94 0
110 99 0
112 101 0
110 96 0
112 100 0
112 100 0
119 107 0
108 97 0
125 114 0
115 102 0
114 103 0
117 104 0
122 110 0
121 109 0
112 101 0
122 112 0
114 104 0
121 112 0
117 106 0
120 109 0
119 110 0
126 116 0
125 114 0
120 111 0
130 118 0
124 115 0
121 111 0
123 112 0
117 107 0
116 108 0
134 122 0
123 117 0
125 116 0
122 114 0
120 112 0
123 115 0
110 100 0
127 117 0
121 113 0
121 111 0
120 112 0
117 110 0
119 108 0
119 110 0
115 104 0
116 106 0
112 104 0
119 111 0
127 120 0
110 101 0
117 109 0
119 111 11
118 111 11
115 106 25
118 110 16
114 109 11
139 144 0
140 151 0
160 176 0
165 181 0
168 187 0
168 187 0
167 187 0
170 190 0
169 186 0
166 185 0
169 189 0
168 188 0
170 189 0
168 189 0
170 192 0
171 194 0
168 190 0
169 191 0
170 191 0
168 190 0
169 191 0
169 191 0
169 191 0
169 191 0
167 188 0
169 191 0
171 192 0
165 186 0
152 171 0
137 154 0
133 149 0
128 142 0
136 152 0
139 156 0
143 160 0
143 159 0
142 158 0
145 163 0
143 160 0
141 157 0
141 158 0
144 161 0
143 159 0
133 149 0
139 156 0
145 162 0
140 156 0
142 158 0
142 158 0
141 157 0
144 161 0
140 157 0
141 158 0
137 152 0
137 153 0
140 156 0
136 151 0
134 150 0
136 150 0
140 155 0
137 152 0
131 147 0
130 145 0
135 149 0
141 157 0
129 143 0
132 146 0
126 140 0
130 145 0
132 147 0
123 138 0
130 144 0
134 149 0
126 140 0
120 135 0
131 145 0
128 142 0
121 134 0
131 146 0
120 134 0
123 136 0
130 144 0
117 129 0
122 135 0
114 127 0
119 131 0
116 129 0
107 119 0
113 125 0
110 122 0
117 129 0
104 115 0
102 113 0
100 111 0
86 95 0
78 87 0
85 93 0
81 89 0
82 90 0
79 86 0
88 96 0
83 92 0
87 95 0
98 107 0
90 99 0
93 103 0
93 104 0
99 110 0
100 111 0
106 117 0
108 120 0
108 120 0
109 121 0
110 122 0
114 126 0
125 138 0
108 121 0
108 121 0
118 131 0
107 120 0
114 127 0
110 124 0
127 142 0
121 136 0
131 146 0
129 144 0
134 149 0
133 149 0
130 146 0
125 142 0
126 141 0
121 138 0
122 138 0
128 144 0
119 134 0
125 141 0
123 138 0
125 142 0
127 144 0
135 152 0
133 150 0
114 130 0
125 142 0
125 142 0
133 151 0
125 142 0
132 150 0
129 145 0
124 142 0
120 139 0
127 145 0
140 158 0
122 140 0
120 139 0
124 140 0
125 143 0
129 146 0
127 146 0
130 148 0
116 134 0
123 142 0
128 146 0
123 143 0
119 137 0
124 141 0
120 139 0
130 150 0
121 140 0
116 136 0
121 139 0
133 151 0
120 138 0
120 139 0
113 131 0
120 138 0
115 133 0
118 136 0
119 138 0
115 132 0
116 133 0
109 127 0
112 130 0
116 133 0
119 137 0
109 127 0
115 133 0
104 122 0
108 127 0
115 133 0
111 129 0
104 122 0
97 113 0
101 119 0
113 128 0
107 122 0
102 118 0
106 123 0
99 116 0
106 122 0
104 121 0
93 109 0
110 127 0
104 119 0
101 117 0
110 126 0
107 124 0
98 114 0
101 117 0
85 100 0
106 122 0
104 121 0
99 114 0
98 114 0
105 121 0
109 126 0
106 122 0
118 133 0
105 121 0
95 109 0
92 106 0
90 106 0
104 121 0
94 109 0
103 119 0
103 119 0
105 120 0
100 115 0
99 114 0
87 103 0
99 115 0
119 133 0
108 123 0
107 121 0
115 131 0
114 131 0
105 120 0
102 117 0
116 132 0
106 122 0
105 120 0
105 121 0
124 140 0
107 121 0
121 137 0
122 137 0
109 124 0
115 131 0
126 142 0
108 125 0
117 132 0
119 134 0
121 136 0
120 136 0
115 130 0
122 137 0
116 129 0
121 136 0
131 147 0
124 138 0
128 141 0
129 143 0
111 126 0
121 135 0
126 143 0
125 141 0
127 140 0
118 131 0
132 146 0
131 146 0
130 143 0
118 132 0
121 133 0
131 144 0
127 139 0
120 134 0
121 134 0
131 143 0
130 143 0
122 132 0
120 131 0
120 132 0
125 135 0
117 127 0
118 127 0
122 132 0
120 128 0
132 142 0
129 136 0
125 136 0
119 127 0
123 131 0
116 122 0
120 126 0
121 127 0
126 133 0
118 124 0
115 118 0
124 130 0
112 116 0
121 128 0
120 125 0
115 120 0
122 125 0
125 130 0
106 109 0
115 120 0
115 118 0
117 119 0
125 128 0
98 97 0
105 107 0
108 109 0
107 106 0
100 97 0
110 107 0
109 107 0
113 115 0
97 92 0
86 85 0
103 99 0
97 93 0
98 94 0
100 96 0
84 78 0
83 79 0
94 89 0
68 61 0
73 66 0
85 78 0
79 69 0
78 69 0
85 73 0
70 61 0
78 67 0
94 81 0
85 71 0
92 80 0
100 87 0
102 90 0
106 89 0
94 84 0
104 92 0
108 98 0
94 83 0
109 99 0
104 91 0
111 99 0
117 104 0
115 101 0
111 96 0
112 99 0
105 94 0
117 104 0
108 93 0
114 102 0
116 106 0
114 102 0
115 103 0
110 99 0
120 107 0
113 104 0
112 100 0
113 101 0
112 100 0
120 108 0
116 107 0
117 108 0
114 106 0
109 98 0
117 108 0
118 108 0
122 111 0
115 105 0
127 117 0
124 113 0
124 114 0
122 112 0
116 106 0
126 116 0
124 114 0
123 111 0
117 109 0
115 106 0
107 96 0
117 109 0
125 116 0
120 113 0
125 115 0
115 106 0
113 104 0
115 107 0
120 111 11
112 104 11
117 110 11
114 106 16
128 127 0
130 133 11
146 155 22
159 173 0
171 188 0
167 184 0
164 178 0
167 184 0
169 189 0
168 186 0
169 187 0
168 186 0
168 185 0
165 184 0
169 187 0
168 185 0
169 189 0
165 184 0
169 191 0
170 192 0
169 190 0
168 191 0
169 191 0
169 191 0
169 191 0
168 190 0
168 189 0
168 188 0
168 189 0
169 190 0
168 190 0
166 186 0
170 191 0
165 186 0
167 189 0
170 191 0
159 178 0
151 170 0
144 162 0
144 161 0
139 155 0
134 149 0
137 154 0
137 153 0
134 149 0
144 161 0
136 151 0
141 157 0
144 161 0
141 158 0
135 151 0
141 157 0
137 152 0
141 157 0
137 151 0
139 155 0
139 155 0
135 150 0
131 145 0
132 147 0
139 155 0
135 150 0
136 150 0
129 144 0
133 148 0
129 143 0
128 142 0
134 149 0
134 149 0
130 145 0
127 141 0
133 148 0
127 141 0
128 142 0
128 142 0
132 146 0
131 145 0
134 148 0
126 139 0
132 145 0
121 134 0
128 142 0
123 136 0
121 134 0
123 136 0
115 127 0
112 123 0
119 131 0
111 123 0
114 126 0
118 130 0
109 121 0
107 118 0
97 107 0
96 106 0
93 102 0
84 93 0
79 86 0
80 88 0
79 87 0
86 95 0
87 94 0
103 113 0
84 92 0
102 112 0
100 110 0
103 113 0
106 117 0
99 109 0
107 117 0
111 122 0
110 121 0
103 114 0
107 119 0
101 112 0
111 123 0
111 123 0
114 127 0
122 135 0
117 130 0
122 136 0
122 136 0
127 140 0
112 127 0
110 123 0
127 142 0
123 137 0
113 127 0
129 144 0
122 137 0
131 147 0
126 142 0
121 137 0
125 141 0
124 140 0
126 142 0
140 158 0
126 142 0
125 141 0
132 149 0
130 147 0
114 130 0
133 150 0
139 157 0
122 138 0
125 142 0
130 147 0
128 145 0
128 146 0
137 155 0
127 144 0
120 137 0
132 149 0
131 150 0
128 145 0
140 160 0
135 153 0
127 145 0
133 152 0
126 144 0
126 144 0
120 139 0
121 139 0
136 156 0
115 133 0
121 140 0
128 147 0
132 150 0
136 156 0
128 147 0
119 139 0
127 146 0
133 152 0
130 149 0
132 151 0
116 136 0
121 140 0
110 129 0
120 140 0
124 142 0
112 130 0
116 133 0
119 137 0
122 141 0
123 142 0
117 135 0
116 134 0
119 137 0
100 119 0
96 115 0
113 131 0
107 124 0
112 130 0
104 121 0
109 128 0
108 125 0
110 127 0
114 130 0
101 119 0
113 132 0
115 133 0
104 121 0
119 137 0
115 133 0
108 125 0
103 120 0
107 124 0
103 121 0
96 111 0
102 120 0
115 132 0
101 117 0
98 114 0
97 114 0
100 117 0
102 118 0
103 119 0
110 127 0
83 97 0
114 130 0
107 121 0
96 112 0
85 101 0
100 117 0
110 126 0
97 114 0
105 120 0
93 109 0
105 120 0
116 132 0
116 134 0
115 131 0
104 120 0
114 129 0
103 117 0
96 113 0
106 121 0
109 124 0
125 140 0
107 122 0
120 135 0
107 123 0
114 130 0
110 126 0
107 122 0
116 134 0
105 120 0
109 124 0
114 131 0
109 122 0
124 140 0
113 131 0
121 138 0
119 133 0
128 144 0
129 145 0
117 132 0
122 138 0
125 141 0
118 131 0
120 135 0
116 131 0
127 143 0
123 138 0
120 134 0
124 139 0
127 142 0
132 146 0
125 137 0
121 138 0
118 132 0
131 145 0
117 131 0
127 142 0
131 147 0
115 130 0
126 140 0
134 148 0
130 142 0
121 134 0
118 131 0
123 136 0
131 144 0
127 142 0
122 133 0
108 120 0
121 133 0
130 142 0
118 128 0
127 138 0
121 133 0
127 139 0
122 134 0
127 137 0
133 144 0
132 141 0
130 141 0
123 130 0
109 116 0
133 143 0
121 128 0
116 123 0
127 133 0
117 123 0
131 140 0
124 127 0
116 120 0
118 124 0
124 127 0
118 117 0
122 127 0
118 122 0
113 116 0
118 120 0
124 125 0
122 123 0
114 114 0
109 111 0
108 106 0
112 112 0
100 99 0
111 108 0
108 107 0
111 109 0
109 110 0
87 82 0
113 108 0
97 96 0
90 86 0
93 87 0
92 85 0
89 82 0
87 79 0
75 71 0
79 72 0
81 74 0
92 88 0
93 90 0
76 68 0
84 73 0
78 66 0
85 72 0
90 77 0
84 71 0
85 72 0
94 82 0
91 81 0
95 84 0
99 88 0
100 88 0
104 91 0
97 85 0
97 85 0
109 98 0
103 90 0
106 96 0
96 82 0
105 94 0
108 95 0
112 102 0
106 94 0
106 93 0
116 105 0
109 98 0
115 103 0
109 96 0
117 106 0
110 99 0
117 109 0
115 105 0
111 99 0
118 110 0
114 104 0
111 103 0
122 113 0
119 107 0
122 111 0
113 103 0
117 108 0
121 110 0
115 106 0
115 104 0
115 104 0
116 106 0
123 113 0
114 105 0
117 107 0
114 104 0
112 102 0
106 98 0
117 109 0
109 102 0
120 111 0
110 101 11
123 114 0
113 104 16
124 123 0
141 147 16
145 153 0
161 174 11
166 181 0
161 176 0
168 183 0
166 184 0
160 174 0
167 183 0
167 181 0
167 183 0
168 185 0
161 177 0
166 183 0
164 181 0
165 181 0
169 188 0
166 183 0
170 189 0
167 185 0
167 188 0
170 193 0
170 192 0
169 192 0
168 190 0
167 189 0
171 192 0
166 188 0
167 189 0
167 188 0
169 190 0
168 189 0
168 188 0
169 190 0
165 186 0
164 185 0
170 191 0
167 189 0
162 183 0
165 186 0
164 185 0
163 182 0
167 187 0
163 183 0
162 182 0
157 176 0
147 165 0
143 161 0
132 148 0
124 139 0
133 148 0
131 146 0
132 147 0
132 148 0
132 147 0
137 152 0
135 151 0
137 152 0
133 148 0
139 154 0
137 152 0
138 153 0
133 148 0
139 154 0
138 153 0
134 149 0
129 143 0
131 144 0
131 145 0
128 143 0
136 150 0
131 145 0
132 146 0
124 137 0
128 142 0
126 140 0
125 138 0
123 136 0
128 142 0
122 135 0
123 136 0
122 135 0
123 137 0
121 134 0
119 132 0
110 122 0
112 125 0
105 116 0
100 110 0
107 118 0
104 115 0
100 110 0
97 106 0
101 111 0
94 103 0
90 99 0
96 105 0
98 107 0
84 92 0
93 101 0
98 107 0
95 104 0
98 107 0
101 110 0
96 106 0
99 108 0
105 116 0
103 113 0
97 107 0
103 114 0
117 128 0
108 120 0
116 129 0
117 130 0
118 131 0
112 125 0
117 130 0
115 127 0
111 124 0
118 131 0
121 134 0
119 133 0
124 138 0
118 132 0
123 138 0
117 131 0
115 129 0
135 150 0
130 146 0
127 143 0
119 135 0
126 142 0
122 139 0
132 148 0
128 143 0
128 144 0
134 150 0
126 142 0
133 151 0
126 143 0
122 139 0
124 140 0
124 142 0
130 146 0
139 157 0
122 139 0
131 150 0
128 146 0
126 143 0
134 152 0
128 146 0
126 144 0
129 147 0
147 166 0
133 151 0
122 141 0
138 156 0
129 148 0
139 158 0
141 160 0
130 149 0
122 141 0
126 145 0
128 146 0
129 148 0
135 155 0
134 153 0
132 151 0
125 144 0
123 142 0
128 148 0
123 141 0
128 147 0
126 145 0
123 141 0
126 145 0
127 146 0
120 138 0
123 142 0
127 146 0
117 135 0
123 140 0
112 130 0
110 129 0
110 127 0
103 121 0
111 128 0
114 132 0
118 138 0
105 124 0
117 135 0
118 137 0
107 126 0
103 121 0
111 128 0
106 123 0
112 129 0
110 128 0
110 128 0
114 132 0
101 120 0
116 133 0
102 119 0
109 127 0
113 130 0
115 134 0
121 137 0
94 110 0
121 138 0
106 123 0
101 119 0
108 124 0
111 128 0
110 126 0
115 132 0
104 122 0
114 132 0
128 145 0
101 117 0
97 113 0
99 115 0
109 125 0
109 126 0
105 122 0
110 126 0
105 121 0
108 122 0
116 133 0
109 126 0
109 124 0
93 110 0
95 112 0
115 132 0
104 119 0
117 134 0
107 124 0
99 115 0
111 126 0
102 119 0
107 124 0
105 122 0
114 130 0
119 134 0
111 125 0
107 122 0
127 144 0
117 134 0
111 127 0
122 139 0
129 148 0
113 130 0
112 127 0
129 146 0
119 135 0
114 129 0
119 135 0
118 132 0
115 130 0
120 135 0
118 132 0
115 131 0
124 140 0
121 135 0
124 140 0
119 135 0
119 134 0
127 141 0
123 137 0
133 150 0
115 129 0
126 140 0
111 125 0
125 139 0
129 144 0
124 138 0
122 137 0
124 139 0
128 141 0
137 152 0
130 141 0
123 133 0
127 138 0
128 142 0
125 138 0
132 142 0
126 138 0
128 142 0
133 145 0
132 144 0
120 132 0
118 131 0
125 134 0
130 141 0
122 130 0
119 130 0
130 139 0
130 142 0
117 127 0
129 136 0
126 134 0
122 130 0
120 130 0
126 138 0
116 124 0
127 134 0
122 129 0
130 134 0
121 128 0
128 134 0
116 122 0
121 126 0
124 129 0
126 132 0
120 121 0
128 132 0
129 133 0
126 127 0
124 127 0
118 120 0
121 122 0
116 116 0
125 125 0
119 120 0
107 105 0
112 109 0
115 117 0
113 112 0
111 110 0
106 104 0
107 103 0
97 90 0
111 108 0
94 89 0
106 101 0
107 102 0
99 99 0
91 87 0
95 88 0
95 88 0
80 73 0
87 83 0
89 83 0
83 74 0
88 79 0
83 75 0
99 94 0
79 71 0
95 84 0
97 88 0
71 62 0
84 69 0
85 73 0
76 66 0
100 87 0
105 92 0
96 85 0
98 86 0
103 92 0
104 92 0
93 80 0
107 96 0
102 90 0
104 93 0
100 89 0
84 70 0
99 89 0
102 91 0
99 89 0
105 93 0
103 93 0
114 102 0
105 95 0
112 102 0
103 92 0
115 103 0
110 98 0
105 94 0
107 97 0
121 108 0
109 100 0
102 93 0
112 102 0
106 97 0
112 101 0
112 100 0
107 98 0
116 108 0
110 100 0
118 109 0
111 103 0
109 99 0
113 104 11
130 127 16
126 126 0
130 133 0
134 135 11
147 154 11
162 173 0
163 176 0
164 177 0
161 174 0
160 174 0
164 176 0
164 177 0
165 179 0
167 185 0
165 177 0
164 179 0
163 178 0
167 184 0
169 184 0
166 184 0
168 185 0
166 181 0
171 189 0
166 184 0
169 186 0
167 185 0
168 187 0
170 187 0
171 188 0
169 192 0
165 187 0
170 192 0
172 193 0
166 188 0
168 190 0
166 187 0
170 191 0
169 191 0
167 189 0
167 187 0
166 187 0
166 187 0
169 190 0
166 188 0
163 184 0
167 187 0
168 189 0
164 183 0
165 185 0
162 181 0
165 185 0
167 187 0
160 179 0
160 179 0
165 185 0
165 185 0
161 180 0
161 181 0
163 182 0
154 172 0
156 173 0
145 161 0
135 150 0
135 149 0
136 151 0
119 133 0
129 144 0
124 138 0
128 142 0
124 138 0
126 139 0
122 135 0
124 137 0
124 137 0
130 144 0
128 142 0
122 135 0
121 134 0
125 139 0
125 138 0
119 132 0
119 131 0
123 136 0
121 134 0
119 131 0
113 124 0
116 129 0
107 118 0
114 126 0
105 117 0
104 115 0
111 122 0
94 103 0
99 109 0
103 113 0
96 105 0
104 114 0
99 109 0
99 108 0
107 117 0
112 122 0
103 113 0
101 110 0
105 115 0
104 114 0
103 112 0
111 121 0
104 114 0
102 112 0
103 114 0
100 110 0
106 117 0
106 117 0
109 120 0
104 115 0
111 123 0
113 124 0
109 121 0
119 131 0
119 131 0
116 129 0
121 134 0
116 129 0
118 131 0
121 136 0
127 141 0
118 132 0
119 134 0
126 140 0
123 137 0
121 136 0
120 134 0
124 139 0
126 141 0
123 139 0
130 146 0
128 144 0
134 150 0
129 145 0
128 145 0
131 147 0
130 147 0
126 143 0
126 143 0
127 144 0
133 150 0
128 144 0
133 149 0
136 153 0
125 142 0
135 153 0
134 152 0
128 147 0
131 148 0
132 150 0
125 143 0
132 150 0
137 155 0
134 154 0
132 151 0
133 150 0
131 150 0
122 139 0
131 148 0
131 148 0
130 148 0
120 138 0
141 158 0
128 145 0
128 147 0
124 144 0
128 148 0
122 140 0
132 150 0
124 143 0
127 144 0
129 148 0
122 140 0
123 141 0
124 144 0
128 147 0
132 150 0
122 142 0
123 141 0
127 146 0
129 148 0
125 144 0
131 151 0
132 151 0
124 143 0
117 136 0
118 136 0
133 151 0
127 146 0
123 142 0
112 129 0
130 149 0
112 130 0
120 137 0
118 136 0
111 130 0
119 137 0
127 145 0
106 124 0
112 131 0
102 120 0
115 134 0
110 128 0
107 126 0
117 134 0
119 137 0
118 137 0
114 132 0
107 124 0
116 134 0
112 129 0
111 128 0
116 135 0
124 143 0
111 130 0
101 119 0
110 128 0
105 123 0
112 130 0
111 128 0
108 126 0
113 131 0
101 118 0
117 135 0
106 122 0
103 119 0
107 125 0
115 132 0
101 116 0
99 115 0
101 118 0
111 128 0
104 121 0
107 124 0
111 127 0
111 128 0
104 118 0
121 138 0
122 138 0
117 133 0
103 120 0
121 135 0
115 132 0
123 140 0
119 135 0
114 132 0
109 126 0
98 114 0
123 139 0
109 124 0
120 134 0
115 131 0
120 136 0
120 136 0
119 137 0
123 141 0
118 134 0
123 140 0
122 137 0
121 137 0
131 149 0
120 134 0
112 128 0
116 131 0
119 134 0
116 132 0
117 133 0
127 141 0
131 148 0
120 135 0
133 148 0
124 139 0
130 144 0
123 140 0
131 146 0
118 132 0
121 135 0
127 140 0
125 139 0
124 138 0
132 148 0
135 148 0
124 138 0
134 148 0
120 133 0
134 146 0
129 140 0
129 143 0
125 141 0
135 147 0
125 138 0
127 141 0
129 143 0
124 136 0
121 131 0
123 134 0
136 148 0
124 134 0
118 125 0
120 129 0
124 136 0
131 140 0
129 140 0
123 132 0
130 141 0
127 133 0
132 139 0
128 136 0
129 136 0
129 138 0
125 135 0
124 132 0
126 131 0
122 128 0
121 126 0
127 133 0
124 131 0
125 131 0
128 132 0
122 126 0
120 127 0
121 120 0
119 119 0
126 129 0
119 122 0
123 124 0
117 117 0
121 121 0
121 122 0
122 123 0
119 117 0
123 122 0
108 106 0
119 116 0
111 107 0
111 106 0
108 104 0
110 106 0
101 97 0
104 100 0
99 96 0
102 96 0
91 86 0
88 84 0
94 90 0
102 97 0
91 84 0
105 101 0
110 105 0
107 102 0
88 79 0
101 98 0
106 98 0
87 78 0
97 92 0
102 96 0
97 87 0
99 93 0
92 84 0
86 74 0
94 81 0
96 84 0
86 78 0
95 81 0
97 85 0
93 83 0
96 83 0
92 82 0
101 90 0
97 85 0
103 90 0
105 93 0
100 88 0
95 81 0
98 86 0
101 89 0
98 86 0
102 89 0
109 100 0
112 100 0
101 90 0
99 90 0
109 98 0
104 94 0
97 83 0
116 106 0
96 89 0
110 104 0
110 105 0
124 123 0
132 131 11
132 135 11
138 141 0
150 158 0
157 167 0
157 165 0
158 171 0
158 170 0
161 171 0
162 173 0
160 172 0
163 176 0
159 170 0
164 179 0
163 176 0
160 173 0
163 177 0
165 179 0
161 173 0
165 180 0
170 187 0
163 177 0
166 183 0
168 185 0
164 180 0
167 182 0
163 179 0
168 185 0
166 183 0
167 183 0
171 188 0
169 187 0
169 188 0
170 188 0
168 189 0
169 190 0
168 190 0
169 191 0
173 195 0
168 190 0
169 190 0
167 189 0
168 189 0
167 188 0
168 189 0
169 190 0
165 186 0
167 187 0
168 188 0
163 182 0
161 181 0
161 180 0
162 182 0
162 182 0
167 187 0
166 187 0
165 185 0
164 182 0
163 182 0
162 182 0
160 179 0
163 183 0
158 177 0
156 174 0
162 180 0
163 181 0
161 179 0
155 173 0
156 174 0
156 174 0
155 173 0
154 171 0
150 166 0
155 171 0
143 159 0
135 150 0
137 152 0
132 147 0
132 147 0
135 150 0
129 143 0
128 141 0
126 139 0
126 139 0
129 142 0
127 140 0
129 142 0
118 130 0
130 143 0
118 130 0
121 133 0
120 132 0
125 138 0
121 133 0
120 132 0
124 135 0
106 116 0
117 128 0
115 126 0
125 138 0
112 123 0
107 118 0
107 117 0
110 120 0
111 122 0
106 116 0
115 126 0
103 114 0
94 104 0
106 116 0
120 131 0
111 121 0
110 121 0
120 131 0
104 115 0
110 121 0
114 126 0
106 118 0
113 125 0
116 128 0
113 125 0
119 132 0
122 135 0
120 132 0
119 132 0
121 134 0
118 131 0
120 134 0
119 133 0
124 138 0
123 137 0
126 140 0
127 141 0
118 131 0
120 134 0
132 148 0
123 139 0
134 151 0
120 136 0
122 138 0
130 146 0
122 139 0
129 145 0
140 157 0
128 145 0
136 153 0
131 147 0
135 151 0
130 146 0
129 145 0
135 152 0
127 145 0
131 148 0
134 152 0
134 152 0
137 155 0
132 150 0
140 157 0
129 145 0
132 149 0
126 143 0
126 143 0
124 142 0
119 137 0
138 156 0
133 150 0
137 156 0
135 153 0
132 150 0
127 146 0
123 141 0
131 149 0
129 147 0
140 159 0
143 163 0
126 145 0
135 155 0
128 147 0
133 152 0
127 146 0
118 136 0
121 140 0
135 154 0
133 152 0
127 146 0
128 146 0
128 148 0
131 150 0
121 140 0
131 150 0
122 143 0
120 139 0
128 147 0
119 137 0
118 137 0
129 149 0
120 139 0
129 148 0
125 145 0
121 138 0
123 142 0
124 143 0
138 157 0
113 133 0
114 133 0
110 130 0
120 138 0
105 123 0
110 126 0
116 134 0
115 133 0
131 150 0
106 123 0
109 127 0
118 136 0
115 134 0
114 133 0
108 126 0
111 128 0
119 137 0
115 132 0
112 132 0
109 128 0
113 130 0
110 127 0
122 141 0
104 122 0
119 138 0
105 124 0
110 128 0
111 130 0
125 143 0
122 139 0
122 142 0
108 125 0
110 127 0
116 133 0
105 123 0
115 132 0
112 128 0
129 147 0
102 118 0
123 142 0
113 128 0
119 137 0
111 127 0
115 133 0
120 137 0
117 135 0
115 133 0
120 138 0
119 136 0
120 136 0
114 131 0
111 128 0
123 139 0
118 132 0
121 137 0
104 120 0
121 139 0
120 136 0
122 140 0
116 134 0
121 139 0
112 128 0
126 140 0
128 143 0
124 138 0
130 148 0
124 139 0
119 134 0
118 134 0
124 141 0
124 139 0
123 140 0
123 139 0
126 143 0
130 146 0
137 154 0
122 138 0
130 146 0
121 136 0
120 136 0
124 140 0
138 155 0
132 148 0
125 141 0
134 149 0
128 141 0
122 137 0
122 137 0
134 150 0
130 145 0
128 143 0
124 139 0
124 137 0
125 140 0
134 147 0
125 140 0
126 139 0
133 146 0
118 129 0
137 152 0
128 140 0
126 140 0
143 154 0
130 141 0
129 138 0
125 137 0
130 140 0
131 140 0
133 145 0
127 137 0
130 139 0
143 156 0
130 141 0
134 143 0
127 136 0
119 127 0
121 132 0
128 137 0
129 136 0
129 136 0
125 132 0
133 142 0
129 135 0
128 131 0
127 131 0
121 124 0
126 131 0
120 123 0
128 134 0
134 140 0
121 120 0
121 122 0
132 138 0
124 127 0
129 131 0
123 126 0
116 116 0
119 119 0
121 120 0
119 119 0
121 122 0
115 113 0
108 107 0
117 116 0
104 101 0
103 101 0
116 116 0
107 103 0
105 102 0
107 103 0
107 104 0
100 94 0
104 101 0
108 103 0
106 103 0
110 107 0
103 97 0
95 88 0
98 88 0
109 103 0
101 92 0
113 109 0
98 92 0
96 91 0
112 104 0
117 111 0
111 106 0
119 111 0
119 114 0
124 123 0
120 117 0
108 105 0
116 112 0
125 122 0
116 110 0
112 107 0
109 105 0
115 107 0
118 114 0
112 109 0
124 120 0
121 116 0
123 119 0
127 124 0
123 119 0
124 122 0
128 127 0
134 135 0
140 144 0
143 142 0
144 146 0
145 151 0
153 157 0
146 148 0
153 159 0
153 161 0
154 160 0
156 165 0
163 173 0
151 156 0
158 167 0
161 172 0
159 168 0
158 166 0
164 178 0
158 168 0
157 165 0
158 168 0
158 168 0
165 176 0
160 171 0
165 178 0
168 183 0
158 171 0
161 174 0
161 171 0
163 177 0
161 173 0
167 183 0
167 182 0
162 175 0
161 175 0
163 177 0
166 181 0
164 180 0
165 180 0
166 182 0
163 178 0
165 181 0
165 184 0
170 187 0
168 190 0
167 188 0
168 190 0
167 189 0
169 190 0
166 187 0
168 188 0
168 190 0
165 185 0
167 188 0
168 187 0
168 188 0
166 186 0
165 186 0
166 186 0
163 184 0
163 183 0
163 184 0
162 181 0
167 186 0
163 183 0
166 185 0
163 181 0
162 181 0
162 182 0
162 181 0
161 179 0
154 173 0
157 175 0
159 178 0
163 181 0
160 178 0
155 173 0
157 173 0
146 163 0
153 171 0
156 174 0
158 175 0
149 165 0
148 164 0
150 166 0
151 167 0
147 163 0
142 157 0
147 163 0
146 162 0
144 158 0
148 164 0
142 156 0
141 155 0
144 159 0
139 153 0
133 147 0
131 144 0
134 148 0
137 150 0
133 146 0
128 141 0
134 148 0
124 137 0
125 137 0
128 140 0
125 137 0
117 128 0
123 134 0
114 124 0
127 139 0
116 127 0
114 126 0
111 123 0
109 119 0
112 123 0
108 118 0
118 129 0
107 117 0
118 129 0
118 130 0
122 134 0
125 138 0
114 125 0
118 131 0
123 136 0
111 123 0
123 135 0
120 132 0
119 132 0
119 133 0
113 126 0
118 132 0
126 140 0
121 134 0
114 127 0
132 146 0
130 145 0
114 128 0
123 138 0
129 144 0
126 141 0
133 149 0
133 148 0
126 142 0
130 145 0
121 136 0
128 144 0
133 149 0
133 148 0
122 138 0
123 139 0
130 147 0
127 144 0
133 150 0
127 143 0
126 142 0
130 147 0
138 156 0
143 159 0
136 153 0
134 151 0
118 134 0
141 158 0
136 155 0
128 147 0
134 152 0
138 155 0
131 149 0
131 149 0
132 150 0
130 148 0
128 146 0
123 141 0
131 150 0
122 140 0
131 149 0
126 145 0
122 139 0
127 145 0
129 147 0
125 144 0
129 149 0
119 137 0
130 149 0
136 155 0
130 149 0
117 136 0
127 147 0
128 148 0
133 151 0
132 152 0
130 148 0
123 143 0
135 153 0
121 140 0
125 144 0
127 148 0
130 148 0
117 137 0
127 146 0
127 146 0
125 145 0
137 157 0
124 143 0
127 146 0
122 141 0
117 135 0
126 145 0
129 149 0
123 141 0
130 150 0
117 134 0
120 138 0
118 137 0
119 139 0
124 143 0
123 142 0
120 140 0
121 138 0
125 144 0
125 142 0
120 139 0
113 132 0
119 137 0
116 135 0
118 138 0
109 127 0
127 145 0
114 133 0
118 137 0
121 139 0
109 126 0
121 140 0
112 129 0
122 140 0
112 131 0
109 126 0
111 129 0
122 141 0
119 137 0
117 136 0
110 128 0
101 119 0
118 136 0
117 135 0
122 140 0
112 129 0
106 123 0
125 143 0
116 132 0
104 122 0
112 131 0
119 137 0
116 134 0
119 137 0
118 137 0
112 129 0
101 118 0
110 125 0
113 129 0
116 133 0
119 137 0
120 136 0
113 129 0
114 132 0
123 142 0
126 143 0
130 146 0
112 129 0
128 145 0
112 130 0
130 146 0
128 144 0
127 144 0
115 131 0
117 134 0
129 146 0
126 143 0
124 140 0
114 129 0
108 123 0
122 138 0
119 133 0
133 148 0
127 144 0
131 147 0
132 148 0
125 141 0
123 140 0
127 144 0
119 132 0
131 148 0
133 148 0
129 145 0
129 144 0
136 153 0
117 131 0
111 126 0
120 134 0
133 150 0
136 151 0
130 145 0
121 135 0
136 148 0
126 142 0
132 144 0
139 152 0
123 138 0
123 137 0
130 142 0
124 138 0
135 149 0
135 149 0
129 140 0
136 148 0
135 148 0
130 142 0
128 139 0
136 149 0
137 148 0
131 142 0
127 137 0
131 143 0
135 144 0
134 146 0
127 138 0
137 147 0
126 137 0
129 135 0
132 142 0
131 141 0
123 132 0
133 143 0
130 137 0
126 132 0
131 139 0
129 135 0
128 132 0
121 124 0
134 140 0
131 138 0
130 134 0
116 119 0
123 127 0
131 133 0
119 121 0
125 129 0
120 122 0
117 121 0
118 118 0
132 136 0
119 121 0
114 114 0
109 109 0
117 115 0
120 118 0
110 106 0
131 132 0
123 122 0
112 109 0
115 113 0
112 109 0
107 103 0
116 113 0
103 101 0
122 117 0
105 101 0
109 105 0
110 106 0
105 99 0
118 113 0
104 96 0
109 107 0
114 107 0
110 103 0
115 108 0
116 107 0
103 97 0
108 103 0
114 110 0
125 121 0
124 117 0
114 109 0
121 119 0
112 106 0
121 120 0
121 117 0
129 125 0
122 117 0
125 121 0
133 131 0
131 130 0
130 130 0
141 143 0
142 143 0
142 141 0
130 128 0
143 145 0
148 150 0
146 148 0
153 157 0
144 145 0
153 159 0
148 150 0
152 156 0
143 146 0
149 154 0
152 156 0
158 165 0
151 158 0
159 166 0
158 166 0
158 164 0
155 161 0
160 170 0
156 164 0
160 172 0
157 167 0
157 165 0
158 167 0
163 172 0
162 172 0
164 178 0
161 172 0
161 169 0
160 171 0
160 171 0
164 175 0
158 167 0
163 176 0
163 175 0
161 173 0
162 174 0
168 183 0
165 180 0
162 177 0
163 176 0
163 177 0
164 179 0
165 181 0
167 184 0
165 180 0
162 178 0
167 188 0
164 186 0
168 190 0
168 189 0
168 189 0
168 188 0
167 187 0
166 187 0
166 185 0
165 185 0
161 182 0
163 183 0
166 187 0
168 188 0
165 186 0
164 183 0
165 185 0
163 182 0
164 184 0
162 181 0
164 183 0
162 181 0
161 180 0
160 179 0
161 181 0
157 175 0
161 179 0
160 177 0
154 173 0
154 170 0
153 171 0
158 175 0
154 171 0
154 171 0
152 169 0
153 171 0
148 164 0
156 172 0
153 170 0
148 164 0
149 165 0
149 165 0
145 161 0
147 162 0
149 164 0
150 166 0
145 160 0
148 163 0
146 160 0
140 154 0
143 158 0
142 156 0
135 149 0
135 149 0
132 145 0
133 146 0
133 146 0
136 150 0
127 140 0
123 136 0
132 145 0
125 137 0
120 131 0
118 129 0
122 134 0
119 131 0
127 140 0
110 122 0
121 133 0
108 119 0
131 144 0
114 125 0
123 135 0
115 126 0
120 132 0
113 125 0
125 137 0
126 138 0
126 139 0
122 135 0
119 132 0
131 145 0
124 137 0
121 134 0
124 137 0
118 130 0
123 137 0
133 148 0
121 136 0
129 144 0
122 137 0
121 135 0
127 141 0
134 149 0
126 140 0
124 139 0
132 147 0
121 136 0
114 129 0
132 148 0
127 141 0
135 151 0
133 150 0
127 143 0
125 141 0
124 140 0
133 149 0
142 159 0
131 148 0
140 157 0
117 133 0
134 152 0
126 143 0
134 152 0
116 133 0
121 138 0
128 144 0
132 150 0
138 156 0
140 158 0
137 157 0
128 145 0
130 148 0
132 150 0
136 154 0
136 155 0
130 149 0
138 157 0
136 155 0
139 158 0
135 154 0
128 146 0
130 148 0
132 151 0
127 145 0
132 151 0
137 156 0
134 152 0
134 152 0
130 149 0
127 147 0
133 152 0
127 146 0
132 151 0
129 149 0
129 147 0
129 149 0
130 149 0
137 157 0
140 160 0
127 146 0
129 149 0
137 157 0
136 155 0
131 149 0
123 141 0
128 146 0
136 156 0
129 148 0
133 152 0
130 150 0
120 140 0
134 153 0
116 135 0
129 148 0
121 141 0
123 142 0
129 149 0
118 138 0
128 148 0
128 147 0
133 153 0
120 139 0
124 143 0
126 146 0
126 145 0
125 143 0
124 143 0
125 144 0
122 139 0
126 144 0
115 133 0
119 137 0
119 137 0
127 146 0
114 132 0
118 136 0
113 130 0
111 129 0
117 136 0
114 132 0
117 135 0
106 124 0
117 135 0
121 139 0
111 129 0
100 118 0
122 141 0
114 131 0
127 144 0
110 128 0
118 137 0
115 133 0
117 135 0
107 125 0
122 139 0
112 132 0
121 138 0
120 137 0
112 130 0
113 131 0
113 131 0
104 122 0
116 133 0
112 130 0
117 134 0
115 130 0
112 129 0
116 133 0
111 128 0
117 135 0
122 139 0
110 127 0
120 140 0
115 132 0
116 133 0
122 139 0
121 138 0
113 130 0
134 152 0
128 146 0
115 130 0
116 132 0
121 137 0
129 146 0
133 150 0
119 136 0
122 139 0
136 150 0
131 148 0
122 139 0
131 146 0
126 140 0
132 148 0
127 143 0
128 142 0
120 135 0
132 150 0
128 144 0
135 151 0
123 138 0
133 149 0
124 140 0
140 156 0
123 139 0
134 149 0
134 151 0
130 146 0
128 145 0
123 135 0
122 136 0
134 150 0
132 147 0
129 141 0
136 151 0
129 144 0
135 150 0
134 146 0
125 137 0
134 147 0
140 155 0
132 144 0
131 145 0
135 150 0
134 150 0
123 135 0
130 141 0
136 146 0
138 149 0
131 142 0
124 136 0
126 136 0
123 137 0
119 128 0
128 138 0
136 147 0
127 136 0
120 128 0
135 145 0
122 130 0
122 128 0
131 135 0
129 139 0
124 131 0
127 132 0
133 140 0
125 133 0
134 140 0
133 138 0
133 136 0
115 117 0
128 133 0
124 126 0
133 137 0
122 125 0
132 134 0
127 129 0
127 132 0
123 125 0
128 129 0
114 115 0
119 121 0
111 111 0
113 112 0
121 119 0
128 126 0
118 112 0
118 117 0
113 111 0
120 119 0
115 110 0
117 112 0
109 104 0
108 106 0
118 115 0
115 109 0
100 94 0
106 101 0
109 105 0
115 112 0
111 104 0
123 119 0
116 115 0
126 122 0
111 104 0
119 112 0
112 109 0
114 109 0
112 105 0
130 127 0
128 124 0
120 114 0
130 127 0
131 132 0
124 120 0
122 119 0
131 131 0
136 136 0
135 135 0
138 137 0
134 132 0
140 139 0
139 140 0
139 141 0
143 144 0
145 146 0
139 141 0
144 146 0
144 148 0
144 147 0
146 150 0
145 147 0
153 156 0
145 147 0
154 159 0
146 148 0
152 157 0
151 158 0
146 150 0
149 155 0
158 167 0
162 172 0
156 164 0
162 172 0
155 163 0
157 166 0
152 159 0
156 168 0
162 174 0
158 168 0
160 171 0
159 170 0
163 174 0
163 175 0
161 174 0
166 180 0
164 178 0
160 173 0
162 175 0
163 174 0
164 178 0
166 181 0
162 173 0
166 181 0
160 176 0
162 178 0
162 177 0
165 178 0
162 177 0
167 183 0
167 187 0
167 188 0
169 189 0
167 188 0
168 188 0
161 182 0
166 186 0
167 188 0
163 183 0
164 184 0
161 181 0
163 182 0
166 186 0
163 183 0
161 180 0
165 184 0
166 186 0
165 183 0
159 178 0
162 180 0
163 182 0
164 183 0
159 177 0
162 181 0
162 181 0
160 178 0
158 177 0
161 179 0
157 175 0
159 177 0
155 174 0
153 171 0
155 172 0
154 172 0
158 175 0
155 172 0
151 168 0
156 173 0
148 163 0
148 164 0
149 165 0
153 169 0
149 164 0
145 160 0
139 155 0
136 150 0
142 157 0
144 159 0
142 156 0
146 161 0
133 147 0
133 146 0
139 152 0
130 144 0
135 148 0
133 147 0
126 138 0
127 140 0
137 151 0
130 143 0
124 137 0
124 136 0
117 129 0
131 143 0
127 139 0
120 133 0
118 131 0
123 135 0
120 132 0
124 135 0
126 139 0
114 125 0
125 139 0
126 139 0
127 140 0
122 134 0
127 140 0
126 139 0
131 145 0
124 137 0
124 137 0
132 147 0
119 132 0
126 141 0
128 142 0
133 147 0
129 144 0
132 147 0
132 147 0
124 139 0
131 146 0
137 153 0
124 139 0
134 150 0
135 150 0
132 149 0
123 139 0
124 140 0
130 147 0
131 146 0
130 145 0
137 154 0
134 152 0
137 154 0
136 153 0
131 148 0
124 140 0
129 146 0
133 150 0
132 149 0
134 152 0
125 143 0
128 146 0
138 156 0
136 154 0
143 161 0
119 137 0
134 151 0
133 152 0
132 149 0
136 155 0
136 155 0
136 154 0
137 156 0
140 159 0
130 149 0
134 152 0
131 149 0
131 149 0
137 155 0
136 156 0
134 153 0
141 161 0
138 157 0
131 151 0
125 144 0
134 153 0
134 153 0
127 146 0
130 150 0
134 153 0
128 147 0
130 151 0
137 156 0
124 142 0
127 145 0
135 153 0
132 151 0
125 145 0
127 147 0
131 149 0
125 145 0
124 144 0
130 150 0
132 151 0
126 144 0
135 154 0
136 155 0
124 144 0
144 164 0
125 145 0
127 146 0
130 151 0
132 152 0
134 153 0
132 152 0
124 143 0
128 148 0
124 142 0
124 143 0
129 149 0
125 145 0
121 140 0
122 142 0
128 148 0
135 154 0
122 141 0
121 140 0
122 142 0
122 140 0
113 132 0
125 143 0
127 146 0
122 141 0
117 134 0
121 140 0
130 149 0
134 154 0
114 133 0
107 125 0
124 141 0
113 129 0
113 129 0
122 142 0
124 143 0
128 147 0
118 137 0
115 134 0
122 141 0
125 144 0
108 125 0
114 134 0
119 137 0
119 138 0
123 141 0
117 134 0
119 137 0
125 142 0
121 138 0
119 137 0
116 134 0
126 142 0
129 146 0
120 137 0
124 143 0
125 143 0
121 138 0
120 139 0
120 136 0
115 131 0
122 140 0
122 140 0
124 142 0
106 122 0
123 142 0
119 136 0
121 137 0
118 137 0
116 134 0
120 137 0
127 143 0
130 150 0
129 148 0
125 141 0
133 149 0
123 140 0
132 151 0
115 130 0
119 136 0
123 140 0
127 146 0
131 147 0
128 144 0
123 138 0
129 146 0
123 137 0
131 147 0
127 143 0
133 148 0
134 151 0
144 162 0
129 145 0
136 152 0
131 147 0
127 142 0
131 148 0
127 140 0
135 150 0
130 147 0
133 151 0
138 153 0
128 143 0
123 136 0
138 153 0
131 143 0
126 140 0
134 149 0
131 141 0
132 147 0
131 142 0
132 144 0
134 148 0
133 146 0
131 146 0
138 151 0
130 145 0
125 137 0
125 136 0
123 134 0
130 141 0
125 135 0
124 136 0
119 128 0
130 141 0
135 147 0
123 134 0
129 137 0
140 146 0
136 144 0
133 143 0
127 134 0
132 141 0
132 140 0
135 142 0
124 134 0
137 145 0
136 143 0
129 137 0
124 130 0
141 148 0
136 143 0
126 132 0
129 134 0
127 130 0
124 129 0
137 141 0
128 131 0
115 116 0
126 125 0
138 142 0
130 131 0
124 125 0
133 134 0
124 123 0
120 119 0
124 126 0
117 115 0
124 123 0
125 127 0
123 123 0
115 112 0
127 127 0
123 123 0
127 124 0
117 110 0
122 122 0
123 123 0
126 122 0
120 117 0
116 112 0
121 119 0
121 117 0
115 112 0
125 123 0
118 113 0
121 117 0
122 119 0
121 117 0
113 107 0
113 106 0
126 123 0
120 115 0
125 123 0
125 118 0
122 118 0
127 128 0
141 140 0
135 132 0
141 139 0
134 131 0
130 127 0
134 134 0
140 143 0
141 142 0
140 141 0
147 147 0
141 140 0
139 140 0
139 140 0
141 141 0
149 151 0
146 152 0
152 154 0
149 153 0
153 156 0
150 155 0
146 149 0
153 159 0
147 152 0
151 156 0
150 153 0
150 156 0
158 165 0
156 165 0
155 163 0
159 165 0
150 155 0
159 167 0
161 168 0
157 166 0
156 168 0
161 171 0
160 169 0
164 174 0
156 167 0
165 178 0
166 176 0
160 170 0
162 175 0
164 176 0
157 169 0
165 180 0
162 174 0
165 182 0
160 170 0
167 183 0
164 178 0
163 177 0
165 182 0
163 178 0
167 189 0
166 187 0
164 184 0
170 191 0
160 181 0
167 187 0
168 187 0
165 186 0
163 182 0
163 183 0
163 182 0
164 184 0
164 182 0
165 185 0
164 184 0
162 181 0
163 182 0
163 182 0
163 182 0
161 180 0
165 183 0
161 181 0
161 178 0
155 174 0
157 174 0
159 177 0
164 183 0
151 168 0
159 176 0
156 174 0
154 171 0
155 173 0
154 171 0
155 172 0
152 170 0
154 170 0
150 166 0
151 166 0
154 170 0
148 164 0
140 155 0
146 161 0
145 160 0
148 164 0
136 150 0
148 163 0
137 152 0
137 151 0
139 154 0
141 156 0
144 158 0
139 153 0
145 160 0
138 152 0
132 146 0
131 145 0
131 145 0
138 152 0
135 149 0
128 141 0
125 139 0
137 151 0
125 137 0
124 137 0
122 135 0
126 140 0
128 141 0
117 130 0
122 135 0
122 135 0
129 142 0
137 151 0
127 141 0
131 144 0
133 147 0
139 153 0
129 143 0
117 130 0
134 149 0
124 138 0
128 142 0
130 144 0
128 142 0
134 148 0
133 148 0
132 148 0
135 151 0
133 149 0
136 152 0
132 147 0
128 143 0
139 155 0
134 149 0
122 138 0
135 151 0
136 150 0
137 154 0
127 143 0
130 146 0
138 155 0
132 148 0
142 159 0
127 143 0
133 150 0
139 156 0
137 154 0
130 148 0
134 152 0
144 162 0
147 165 0
135 152 0
138 156 0
127 146 0
136 154 0
138 155 0
127 144 0
134 151 0
140 158 0
134 152 0
138 159 0
136 155 0
127 144 0
133 151 0
135 154 0
141 161 0
139 158 0
148 168 0
134 153 0
139 158 0
138 158 0
145 164 0
130 150 0
138 157 0
129 146 0
141 160 0
135 155 0
138 158 0
142 160 0
128 147 0
137 156 0
134 153 0
141 161 0
131 150 0
135 154 0
128 148 0
132 152 0
132 152 0
135 155 0
124 144 0
135 155 0
133 153 0
137 157 0
135 155 0
141 162 0
142 162 0
133 153 0
135 156 0
133 151 0
120 138 0
126 146 0
122 141 0
128 148 0
127 147 0
135 155 0
121 141 0
129 149 0
130 149 0
120 140 0
126 146 0
128 149 0
124 143 0
126 147 0
132 152 0
123 142 0
124 144 0
128 148 0
127 146 0
137 157 0
125 144 0
133 152 0
119 137 0
122 140 0
125 143 0
116 133 0
126 145 0
131 152 0
126 144 0
120 139 0
129 147 0
110 130 0
120 139 0
116 134 0
125 145 0
113 131 0
122 140 0
129 148 0
116 134 0
120 139 0
127 145 0
118 137 0
114 131 0
130 148 0
121 139 0
127 144 0
127 145 0
128 146 0
113 132 0
115 133 0
122 140 0
124 142 0
131 150 0
112 131 0
128 148 0
118 135 0
115 133 0
114 133 0
110 128 0
129 147 0
113 129 0
125 142 0
124 142 0
127 144 0
127 145 0
126 143 0
129 147 0
130 147 0
114 134 0
115 132 0
132 149 0
128 145 0
117 133 0
130 148 0
126 145 0
124 141 0
127 142 0
123 139 0
117 133 0
130 150 0
123 139 0
132 150 0
123 139 0
124 139 0
123 137 0
134 150 0
124 140 0
130 147 0
128 144 0
127 143 0
127 143 0
131 147 0
139 155 0
127 143 0
129 143 0
128 142 0
128 144 0
133 147 0
128 145 0
136 152 0
137 154 0
126 142 0
139 155 0
126 139 0
142 155 0
139 156 0
131 146 0
144 159 0
130 145 0
135 149 0
134 148 0
141 155 0
131 147 0
136 151 0
131 145 0
138 152 0
137 150 0
132 146 0
136 149 0
130 142 0
128 139 0
132 144 0
127 138 0
122 135 0
130 143 0
135 144 0
144 158 0
135 147 0
126 136 0
131 144 0
136 143 0
122 131 0
135 148 0
126 137 0
127 135 0
138 149 0
140 149 0
128 136 0
140 148 0
127 134 0
135 143 0
136 144 0
117 122 0
128 134 0
134 142 0
123 130 0
133 138 0
130 133 0
121 126 0
126 131 0
124 128 0
120 120 0
121 125 0
125 127 0
121 118 0
127 130 0
122 125 0
126 126 0
128 132 0
123 126 0
123 124 0
128 128 0
133 132 0
122 120 0
122 123 0
127 126 0
128 128 0
114 113 0
121 118 0
117 113 0
119 117 0
117 115 0
122 120 0
125 121 0
123 119 0
124 120 0
119 118 0
131 129 0
127 127 0
124 122 0
116 112 0
119 117 0
125 124 0
128 127 0
126 121 0
132 130 0
123 120 0
127 124 0
132 129 0
123 119 0
134 131 0
134 132 0
128 126 0
128 126 0
136 137 0
133 129 0
136 135 0
134 130 0
141 143 0
138 140 0
143 142 0
145 148 0
149 152 0
149 153 0
145 145 0
146 147 0
151 158 0
150 156 0
149 153 0
153 158 0
155 160 0
143 144 0
154 162 0
149 155 0
156 164 0
145 150 0
158 167 0
153 162 0
151 161 0
156 162 0
156 168 0
156 164 0
156 165 0
159 169 0
156 163 0
161 173 0
162 174 0
161 171 0
163 174 0
160 172 0
162 172 0
158 170 0
162 176 0
165 180 0
159 171 0
160 174 0
161 173 0
159 173 0
164 178 0
165 178 0
168 182 0
168 181 0
168 189 0
166 188 0
164 184 0
165 185 0
165 185 0
166 187 0
166 186 0
167 188 0
166 187 0
165 185 0
165 185 0
162 182 0
164 183 0
164 184 0
164 184 0
167 187 0
167 186 0
159 178 0
165 183 0
158 177 0
160 178 0
162 181 0
161 180 0
153 171 0
151 168 0
157 175 0
156 174 0
154 171 0
157 174 0
156 173 0
158 175 0
150 167 0
146 162 0
148 164 0
154 170 0
149 165 0
153 168 0
149 165 0
146 161 0
146 161 0
142 157 0
142 157 0
141 156 0
147 163 0
149 164 0
145 160 0
142 157 0
150 166 0
143 159 0
141 155 0
140 155 0
135 150 0
133 146 0
133 147 0
133 147 0
126 139 0
136 150 0
130 143 0
134 149 0
133 146 0
134 149 0
128 141 0
130 143 0
126 139 0
135 149 0
135 149 0
133 147 0
137 151 0
136 149 0
135 149 0
130 144 0
126 140 0
132 146 0
135 149 0
129 142 0
140 155 0
131 145 0
127 140 0
131 146 0
130 144 0
130 144 0
131 146 0
127 141 0
134 149 0
136 152 0
136 151 0
139 153 0
136 152 0
126 142 0
141 157 0
131 147 0
132 147 0
136 151 0
136 153 0
140 156 0
138 154 0
131 147 0
131 148 0
136 152 0
129 146 0
138 155 0
134 151 0
140 158 0
132 150 0
139 157 0
133 151 0
127 144 0
136 153 0
133 151 0
136 155 0
138 157 0
135 153 0
135 154 0
130 147 0
135 153 0
141 161 0
134 152 0
134 153 0
143 162 0
137 155 0
133 154 0
139 159 0
142 161 0
150 171 0
125 145 0
134 153 0
133 154 0
130 149 0
134 153 0
134 154 0
136 155 0
134 153 0
130 150 0
133 153 0
142 161 0
131 149 0
132 152 0
145 164 0
132 152 0
134 152 0
133 151 0
137 156 0
138 158 0
129 148 0
135 154 0
137 158 0
139 159 0
138 158 0
130 149 0
130 150 0
132 153 0
126 144 0
132 153 0
139 160 0
126 146 0
135 154 0
128 147 0
126 146 0
135 156 0
117 137 0
131 150 0
129 149 0
135 154 0
130 150 0
127 146 0
116 136 0
127 147 0
128 147 0
133 152 0
131 150 0
137 157 0
126 145 0
127 147 0
125 146 0
129 149 0
122 142 0
130 150 0
125 144 0
123 142 0
128 148 0
119 138 0
124 144 0
109 128 0
126 144 0
127 148 0
123 142 0
129 149 0
123 142 0
118 137 0
132 153 0
115 135 0
114 133 0
123 143 0
119 136 0
123 143 0
132 151 0
130 148 0
126 145 0
127 146 0
106 124 0
111 128 0
110 130 0
114 132 0
124 142 0
119 137 0
119 135 0
122 140 0
113 132 0
121 140 0
117 135 0
128 146 0
128 147 0
119 138 0
127 146 0
123 143 0
122 140 0
127 144 0
124 142 0
119 136 0
117 134 0
123 141 0
135 153 0
126 142 0
126 143 0
125 144 0
124 142 0
121 140 0
123 141 0
134 153 0
129 148 0
138 155 0
129 144 0
122 139 0
132 149 0
127 147 0
134 152 0
125 142 0
131 151 0
135 153 0
126 142 0
120 134 0
119 135 0
137 155 0
122 137 0
131 146 0
138 155 0
139 157 0
129 145 0
134 150 0
134 152 0
128 145 0
120 137 0
129 146 0
127 144 0
129 146 0
137 153 0
127 145 0
134 151 0
136 151 0
139 155 0
127 142 0
143 161 0
132 147 0
135 147 0
139 153 0
123 137 0
131 147 0
135 151 0
129 144 0
133 147 0
140 154 0
143 160 0
142 155 0
134 148 0
138 150 0
127 140 0
129 145 0
125 139 0
136 151 0
132 144 0
132 145 0
139 153 0
141 153 0
141 152 0
127 137 0
131 145 0
139 149 0
133 145 0
127 137 0
130 141 0
138 149 0
138 148 0
133 142 0
125 134 0
143 152 0
138 147 0
131 140 0
130 138 0
147 153 0
130 137 0
133 141 0
134 137 0
133 141 0
129 134 0
137 144 0
129 137 0
130 135 0
137 146 0
128 131 0
131 138 0
128 132 0
130 136 0
126 130 0
126 129 0
130 134 0
127 130 0
132 134 0
134 136 0
116 120 0
125 124 0
137 141 0
118 119 0
115 114 0
121 120 0
121 123 0
132 133 0
118 117 0
119 117 0
131 131 0
128 126 0
119 114 0
134 136 0
131 129 0
128 127 0
127 123 0
129 127 0
117 112 0
127 123 0
117 115 0
117 113 0
127 127 0
130 129 0
134 133 0
129 122 0
127 125 0
132 131 0
123 117 0
127 126 0
129 126 0
135 133 0
140 141 0
136 134 0
139 141 0
135 135 0
128 126 0
137 137 0
141 142 0
141 142 0
142 142 0
147 149 0
137 135 0
146 149 0
149 153 0
147 151 0
149 154 0
150 155 0
150 154 0
149 154 0
148 153 0
149 154 0
151 156 0
155 161 0
155 161 0
154 159 0
158 166 0
151 158 0
157 164 0
157 164 0
158 166 0
156 162 0
163 173 0
155 163 0
155 163 0
157 167 0
158 169 0
166 175 0
161 170 0
158 168 0
158 168 0
157 166 0
161 171 0
162 177 0
165 177 0
162 176 0
164 178 0
165 180 0
164 179 0
165 181 0
161 175 0
166 180 0
167 188 0
164 184 0
165 184 0
166 187 0
164 183 0
165 185 0
163 183 0
163 183 0
159 179 0
164 184 0
167 187 0
162 181 0
163 183 0
160 180 0
162 182 0
164 183 0
162 180 0
163 182 0
156 174 0
155 173 0
159 178 0
164 182 0
160 178 0
158 175 0
156 174 0
158 175 0
149 166 0
155 172 0
153 171 0
155 172 0
153 170 0
147 165 0
149 166 0
152 169 0
153 169 0
149 164 0
149 165 0
150 165 0
145 161 0
147 163 0
147 164 0
145 161 0
145 160 0
145 159 0
144 158 0
143 158 0
143 158 0
140 154 0
136 151 0
140 154 0
141 156 0
137 151 0
142 156 0
139 152 0
136 150 0
140 154 0
136 151 0
137 151 0
133 147 0
123 136 0
136 150 0
131 144 0
145 160 0
125 139 0
133 147 0
139 153 0
138 153 0
136 151 0
140 155 0
133 148 0
133 146 0
129 142 0
139 154 0
134 147 0
128 142 0
137 151 0
132 147 0
131 146 0
144 160 0
130 144 0
139 155 0
128 143 0
129 143 0
130 145 0
137 154 0
128 143 0
138 154 0
134 150 0
138 153 0
137 154 0
130 147 0
137 154 0
131 146 0
142 159 0
134 151 0
132 149 0
142 159 0
140 158 0
132 149 0
133 150 0
134 152 0
132 149 0
140 157 0
142 160 0
142 161 0
133 151 0
131 148 0
134 153 0
139 157 0
135 152 0
133 151 0
139 158 0
133 151 0
133 152 0
138 157 0
144 163 0
144 164 0
137 156 0
141 161 0
139 158 0
135 154 0
137 157 0
133 152 0
136 156 0
132 151 0
136 155 0
141 161 0
135 153 0
135 155 0
133 152 0
134 153 0
146 166 0
142 162 0
129 148 0
130 150 0
143 161 0
134 155 0
134 154 0
137 156 0
134 153 0
130 150 0
138 159 0
128 148 0
141 161 0
140 160 0
139 158 0
135 155 0
135 155 0
142 161 0
128 147 0
131 150 0
131 152 0
129 149 0
144 165 0
132 151 0
132 152 0
138 157 0
135 155 0
125 145 0
129 148 0
131 150 0
134 155 0
135 155 0
127 146 0
127 147 0
139 158 0
124 145 0
128 148 0
130 151 0
134 155 0
123 142 0
138 157 0
132 152 0
141 162 0
127 148 0
137 157 0
131 151 0
118 137 0
124 144 0
122 143 0
126 145 0
125 144 0
122 142 0
127 146 0
126 146 0
128 147 0
120 138 0
131 150 0
126 145 0
130 149 0
128 148 0
123 143 0
122 142 0
131 150 0
119 139 0
131 151 0
118 135 0
114 135 0
122 142 0
122 141 0
129 147 0
128 147 0
126 145 0
120 138 0
120 138 0
121 141 0
124 143 0
129 148 0
130 150 0
119 137 0
117 134 0
125 143 0
120 137 0
133 151 0
127 145 0
123 141 0
123 140 0
128 147 0
129 147 0
129 148 0
114 132 0
119 137 0
134 152 0
138 155 0
129 147 0
131 151 0
124 142 0
127 145 0
129 148 0
127 144 0
132 149 0
124 141 0
133 150 0
133 151 0
132 147 0
120 136 0
124 142 0
129 147 0
130 145 0
133 152 0
125 142 0
134 152 0
130 148 0
125 141 0
137 155 0
134 151 0
125 143 0
127 142 0
135 152 0
130 144 0
129 146 0
143 160 0
139 156 0
143 160 0
126 142 0
132 146 0
135 150 0
132 148 0
141 159 0
140 156 0
130 146 0
130 146 0
138 151 0
138 155 0
139 155 0
131 148 0
142 160 0
145 162 0
137 151 0
138 153 0
144 157 0
135 152 0
137 152 0
143 160 0
142 158 0
127 143 0
133 142 0
139 154 0
136 150 0
130 142 0
140 153 0
127 137 0
138 151 0
136 147 0
129 141 0
136 147 0
139 150 0
135 148 0
133 142 0
124 136 0
136 146 0
133 140 0
127 136 0
138 148 0
129 139 0
135 145 0
138 147 0
134 142 0
132 143 0
134 142 0
143 155 0
135 142 0
135 141 0
128 136 0
131 141 0
130 133 0
132 141 0
133 139 0
132 140 0
129 133 0
128 130 0
132 139 0
125 130 0
130 134 0
139 143 0
129 132 0
130 133 0
136 139 0
127 127 0
130 132 0
121 124 0
129 130 0
127 131 0
131 131 0
118 119 0
135 137 0
135 137 0
125 128 0
131 133 0
123 121 0
130 131 0
123 122 0
122 122 0
120 117 0
129 128 0
131 129 0
130 130 0
134 136 0
130 125 0
124 120 0
121 117 0
121 118 0
119 117 0
131 128 0
135 133 0
130 126 0
133 133 0
128 125 0
131 130 0
135 136 0
131 130 0
133 133 0
136 134 0
131 130 0
141 141 0
142 143 0
141 144 0
143 143 0
137 139 0
135 135 0
143 143 0
142 142 0
140 142 0
135 137 0
146 149 0
149 152 0
150 153 0
146 150 0
146 149 0
150 155 0
147 153 0
149 155 0
151 156 0
153 163 0
156 163 0
154 162 0
147 152 0
157 165 0
155 159 0
154 161 0
155 165 0
162 173 0
158 168 0
156 165 0
159 167 0
156 165 0
162 169 0
163 175 0
154 163 0
153 164 0
160 169 0
164 174 0
160 172 0
160 173 0
163 172 0
160 175 0
157 169 0
165 177 0
160 171 0
166 179 0
162 182 0
166 186 0
163 184 0
165 185 0
162 181 0
164 182 0
163 183 0
164 183 0
163 182 0
163 181 0
160 181 0
158 178 0
159 177 0
164 183 0
162 182 0
154 172 0
156 175 0
157 175 0
156 175 0
159 177 0
162 180 0
158 176 0
157 175 0
155 173 0
160 178 0
147 165 0
156 174 0
151 167 0
153 170 0
155 171 0
150 167 0
153 170 0
153 170 0
152 169 0
151 167 0
150 166 0
157 174 0
145 161 0
144 160 0
146 163 0
147 163 0
144 160 0
141 156 0
144 159 0
150 166 0
139 154 0
141 155 0
145 160 0
140 154 0
136 150 0
138 152 0
138 152 0
139 154 0
143 158 0
143 158 0
136 150 0
125 138 0
136 151 0
138 153 0
142 158 0
136 151 0
134 148 0
137 151 0
129 142 0
132 147 0
139 154 0
136 151 0
136 150 0
141 156 0
144 159 0
135 150 0
132 146 0
139 155 0
133 148 0
133 147 0
140 156 0
136 152 0
139 155 0
141 156 0
143 158 0
135 151 0
136 152 0
134 150 0
132 148 0
132 148 0
136 152 0
138 155 0
143 160 0
136 151 0
138 155 0
139 155 0
139 155 0
134 150 0
139 157 0
146 163 0
136 153 0
137 155 0
136 153 0
146 164 0
132 150 0
138 155 0
137 154 0
134 152 0
142 160 0
137 156 0
136 154 0
147 166 0
140 158 0
142 160 0
131 150 0
146 164 0
142 160 0
137 156 0
132 151 0
145 165 0
144 162 0
132 151 0
145 165 0
134 152 0
142 162 0
133 153 0
138 157 0
141 160 0
139 158 0
141 160 0
143 163 0
135 155 0
137 157 0
142 161 0
130 149 0
137 158 0
135 154 0
140 159 0
136 156 0
135 156 0
126 145 0
138 158 0
139 160 0
142 162 0
143 163 0
141 161 0
134 154 0
136 157 0
135 155 0
142 162 0
141 162 0
131 151 0
138 159 0
130 149 0
134 155 0
134 154 0
135 154 0
134 154 0
136 157 0
133 153 0
136 155 0
130 151 0
126 146 0
138 158 0
126 147 0
125 144 0
125 144 0
135 155 0
132 154 0
133 154 0
134 154 0
121 142 0
133 153 0
129 149 0
128 149 0
127 147 0
136 157 0
131 151 0
138 158 0
131 151 0
138 158 0
134 153 0
127 147 0
131 152 0
120 138 0
125 143 0
133 154 0
126 146 0
120 138 0
126 145 0
125 144 0
132 151 0
129 149 0
124 144 0
123 145 0
124 142 0
125 143 0
126 146 0
110 129 0
118 137 0
117 136 0
127 147 0
133 153 0
122 141 0
122 142 0
119 138 0
124 142 0
120 140 0
131 151 0
133 151 0
124 141 0
130 148 0
134 153 0
114 134 0
120 137 0
126 143 0
126 145 0
132 152 0
131 149 0
125 145 0
123 142 0
123 143 0
134 152 0
131 151 0
134 153 0
125 143 0
127 145 0
127 145 0
131 149 0
134 154 0
126 145 0
123 141 0
125 145 0
129 147 0
129 146 0
126 144 0
126 143 0
127 142 0
129 148 0
132 149 0
138 157 0
136 154 0
126 143 0
136 153 0
142 159 0
131 147 0
124 142 0
125 144 0
132 150 0
143 160 0
138 155 0
141 157 0
140 156 0
131 148 0
135 152 0
135 151 0
132 147 0
132 150 0
135 152 0
134 152 0
136 153 0
137 152 0
134 148 0
133 149 0
129 146 0
135 151 0
131 148 0
135 152 0
127 143 0
142 158 0
132 146 0
143 159 0
145 159 0
135 151 0
140 156 0
136 151 0
137 152 0
130 143 0
137 151 0
133 146 0
131 144 0
126 138 0
135 147 0
135 148 0
140 156 0
136 151 0
144 157 0
143 154 0
142 153 0
132 143 0
136 148 0
135 148 0
131 141 0
140 151 0
133 141 0
127 138 0
141 150 0
140 151 0
136 148 0
137 149 0
126 135 0
141 153 0
135 145 0
132 142 0
128 135 0
131 137 0
137 147 0
141 151 0
141 148 0
126 134 0
135 141 0
137 146 0
133 139 0
133 143 0
135 142 0
137 144 0
133 141 0
140 149 0
137 142 0
139 146 0
138 141 0
142 150 0
130 133 0
118 122 0
132 134 0
134 137 0
131 133 0
130 133 0
132 133 0
136 139 0
134 136 0
133 136 0
135 136 0
124 125 0
128 130 0
123 126 0
128 128 0
123 124 0
132 135 0
128 130 0
121 118 0
136 137 0
130 129 0
133 133 0
137 139 0
141 142 0
132 135 0
134 134 0
125 125 0
132 131 0
140 139 0
129 129 0
136 137 0
129 126 0
134 135 0
129 132 0
137 138 0
137 136 0
140 140 0
148 151 0
139 141 0
143 145 0
141 144 0
140 143 0
136 135 0
143 144 0
148 153 0
146 147 0
144 147 0
139 144 0
143 146 0
144 147 0
149 154 0
149 155 0
159 164 0
148 152 0
151 158 0
151 153 0
147 151 0
151 157 0
151 159 0
152 162 0
148 153 0
150 155 0
159 166 0
153 159 0
154 162 0
153 161 0
159 168 0
155 161 0
160 169 0
163 174 0
159 168 0
158 168 0
158 168 0
161 173 0
161 174 0
162 174 0
158 171 0
159 170 0
160 171 0
160 169 0
167 181 0
162 174 0
160 172 0
165 185 0
162 183 0
165 184 0
166 187 0
165 185 0
166 186 0
163 182 0
165 185 0
163 183 0
165 185 0
162 181 0
160 180 0
162 181 0
161 180 0
158 176 0
156 174 0
161 180 0
160 179 0
162 180 0
161 179 0
153 171 0
159 177 0
156 174 0
153 170 0
158 177 0
157 174 0
158 175 0
160 177 0
151 167 0
153 170 0
154 172 0
150 167 0
150 167 0
148 165 0
150 166 0
156 172 0
153 170 0
149 164 0
140 155 0
144 160 0
149 165 0
143 158 0
147 163 0
143 159 0
128 143 0
141 157 0
142 157 0
145 160 0
130 144 0
148 163 0
137 152 0
139 153 0
140 155 0
139 154 0
138 152 0
129 144 0
147 163 0
133 146 0
141 156 0
137 151 0
137 152 0
138 153 0
138 153 0
146 160 0
134 149 0
133 147 0
140 156 0
139 154 0
139 155 0
138 153 0
131 147 0
132 147 0
137 153 0
144 160 0
137 153 0
144 161 0
136 151 0
134 149 0
130 146 0
140 157 0
140 157 0
132 148 0
139 155 0
137 153 0
143 159 0
129 144 0
139 155 0
138 155 0
147 164 0
140 157 0
145 162 0
140 158 0
130 147 0
132 148 0
133 150 0
139 157 0
143 160 0
137 155 0
141 159 0
149 166 0
143 162 0
147 166 0
135 153 0
144 163 0
136 155 0
141 161 0
143 161 0
145 163 0
142 162 0
137 155 0
141 159 0
134 152 0
142 161 0
135 153 0
144 164 0
137 156 0
136 155 0
138 158 0
135 154 0
148 168 0
136 156 0
140 161 0
146 165 0
145 165 0
143 164 0
135 155 0
141 161 0
139 160 0
139 160 0
134 153 0
140 159 0
132 152 0
136 156 0
140 159 0
147 168 0
146 165 0
137 158 0
141 161 0
141 162 0
136 157 0
132 151 0
132 152 0
141 161 0
135 156 0
132 151 0
127 145 0
138 159 0
137 158 0
139 159 0
128 149 0
134 154 0
133 152 0
129 149 0
137 157 0
132 152 0
138 159 0
138 158 0
135 155 0
135 155 0
129 149 0
129 149 0
131 151 0
131 151 0
126 145 0
132 152 0
138 158 0
127 148 0
124 144 0
132 152 0
129 149 0
132 152 0
127 146 0
144 164 0
124 144 0
134 153 0
135 154 0
137 156 0
133 152 0
125 146 0
127 146 0
124 144 0
130 150 0
128 149 0
128 147 0
137 157 0
130 151 0
124 142 0
131 152 0
128 147 0
124 145 0
130 150 0
130 149 0
123 142 0
123 143 0
131 149 0
119 138 0
116 136 0
129 148 0
129 148 0
136 155 0
124 143 0
121 140 0
124 142 0
130 151 0
124 142 0
120 139 0
132 152 0
125 143 0
122 142 0
121 139 0
127 146 0
128 148 0
124 140 0
134 153 0
134 153 0
140 160 0
120 140 0
128 146 0
122 140 0
127 146 0
131 150 0
123 142 0
132 152 0
129 147 0
137 156 0
129 148 0
120 140 0
127 147 0
128 146 0
115 134 0
121 138 0
130 149 0
135 155 0
127 143 0
140 159 0
133 152 0
131 151 0
124 144 0
135 154 0
131 146 0
123 139 0
131 146 0
132 148 0
132 150 0
138 155 0
137 156 0
137 156 0
128 144 0
139 157 0
139 158 0
137 153 0
139 157 0
139 156 0
130 146 0
131 148 0
136 152 0
118 133 0
125 142 0
132 146 0
135 151 0
137 153 0
128 144 0
141 155 0
137 151 0
137 152 0
135 149 0
139 155 0
132 148 0
134 149 0
138 154 0
144 159 0
131 145 0
137 150 0
136 151 0
140 156 0
131 145 0
142 159 0
148 162 0
130 142 0
139 154 0
140 155 0
140 155 0
134 147 0
143 158 0
133 145 0
140 152 0
143 158 0
137 147 0
142 155 0
136 145 0
139 152 0
134 145 0
131 143 0
140 151 0
139 148 0
137 148 0
136 148 0
141 150 0
139 151 0
137 146 0
146 156 0
140 150 0
137 146 0
133 141 0
134 143 0
139 148 0
138 146 0
139 148 0
147 154 0
142 150 0
136 144 0
136 142 0
139 147 0
132 137 0
129 134 0
137 140 0
137 143 0
141 144 0
127 131 0
132 135 0
133 138 0
143 146 0
139 142 0
128 130 0
141 144 0
131 133 0
129 133 0
131 135 0
132 137 0
135 137 0
135 134 0
132 133 0
129 127 0
134 135 0
135 134 0
128 130 0
135 134 0
139 141 0
135 135 0
132 131 0
136 134 0
139 140 0
134 133 0
129 130 0
133 131 0
136 137 0
140 139 0
137 137 0
142 144 0
137 136 0
133 132 0
136 137 0
143 145 0
140 139 0
143 144 0
139 141 0
137 138 0
139 140 0
146 150 0
139 145 0
137 140 0
140 144 0
144 146 0
139 140 0
146 148 0
154 160 0
148 152 0
150 153 0
151 156 0
147 150 0
142 145 0
154 161 0
149 156 0
146 149 0
155 162 0
150 156 0
152 160 0
157 164 0
155 158 0
155 159 0
151 158 0
156 163 0
161 172 0
158 168 0
158 167 0
159 169 0
158 168 0
159 169 0
161 171 0
164 176 0
158 167 0
156 165 0
159 171 0
160 171 0
169 183 0
159 170 0
156 165 0
165 179 0
160 170 0
162 172 0
166 186 0
168 187 0
165 186 0
162 182 0
166 185 0
162 182 0
162 181 0
161 180 0
161 180 0
157 176 0
161 180 0
158 177 0
161 180 0
163 181 0
161 180 0
158 177 0
161 180 0
156 174 0
158 176 0
156 174 0
153 170 0
158 176 0
152 170 0
154 171 0
152 170 0
153 170 0
156 173 0
155 171 0
157 174 0
156 173 0
150 167 0
153 170 0
156 173 0
147 163 0
150 166 0
150 166 0
145 160 0
149 165 0
147 163 0
143 159 0
141 156 0
142 158 0
148 164 0
142 157 0
138 153 0
138 153 0
149 165 0
140 155 0
141 157 0
141 157 0
148 164 0
145 161 0
138 152 0
148 164 0
131 146 0
141 157 0
143 159 0
140 155 0
143 158 0
137 152 0
143 158 0
139 155 0
134 149 0
143 158 0
139 155 0
136 152 0
139 154 0
141 157 0
145 160 0
139 154 0
133 148 0
141 157 0
141 156 0
135 151 0
139 154 0
143 159 0
137 153 0
143 160 0
140 156 0
129 145 0
143 159 0
139 154 0
148 165 0
137 153 0
145 162 0
138 153 0
149 166 0
137 155 0
142 160 0
141 158 0
140 158 0
137 153 0
140 157 0
137 154 0
144 162 0
137 155 0
141 160 0
140 158 0
140 158 0
139 157 0
136 154 0
133 151 0
139 159 0
127 145 0
142 159 0
153 172 0
129 148 0
141 160 0
136 154 0
136 154 0
135 153 0
142 161 0
147 165 0
143 163 0
145 165 0
143 163 0
136 155 0
141 161 0
132 151 0
133 152 0
140 159 0
138 157 0
143 163 0
138 158 0
137 156 0
135 155 0
143 164 0
147 168 0
148 168 0
140 159 0
134 153 0
146 166 0
141 161 0
146 166 0
142 164 0
140 161 0
142 162 0
132 151 0
140 161 0
133 153 0
148 167 0
137 158 0
142 164 0
135 157 0
141 162 0
142 163 0
136 157 0
139 159 0
141 161 0
143 164 0
128 149 0
136 156 0
135 155 0
138 159 0
138 159 0
138 158 0
134 155 0
141 161 0
126 145 0
140 161 0
142 163 0
140 159 0
124 144 0
127 146 0
137 156 0
128 148 0
123 143 0
130 152 0
130 151 0
143 164 0
127 147 0
137 158 0
134 156 0
131 151 0
133 153 0
129 148 0
126 146 0
130 149 0
129 150 0
132 152 0
122 142 0
125 145 0
126 147 0
127 147 0
123 143 0
130 149 0
128 147 0
132 151 0
131 150 0
130 150 0
129 149 0
122 140 0
133 153 0
133 153 0
134 152 0
119 138 0
128 147 0
134 155 0
126 146 0
126 145 0
138 157 0
130 150 0
128 146 0
123 140 0
132 151 0
123 143 0
122 141 0
128 147 0
114 130 0
123 141 0
129 148 0
133 152 0
118 136 0
128 148 0
129 148 0
135 154 0
125 143 0
125 144 0
135 153 0
124 143 0
143 160 0
129 148 0
132 151 0
127 145 0
124 143 0
134 152 0
134 154 0
138 157 0
127 144 0
130 147 0
128 147 0
135 155 0
124 142 0
137 157 0
139 160 0
132 150 0
137 153 0
126 144 0
126 143 0
126 143 0
123 140 0
130 147 0
126 143 0
134 152 0
130 147 0
134 151 0
131 150 0
140 159 0
126 144 0
129 147 0
132 149 0
132 149 0
131 147 0
136 155 0
135 154 0
139 157 0
133 150 0
136 153 0
136 151 0
142 161 0
136 151 0
143 160 0
140 158 0
142 158 0
137 152 0
126 143 0
134 148 0
137 154 0
149 167 0
138 154 0
134 149 0
135 150 0
136 149 0
130 145 0
136 153 0
140 154 0
143 156 0
138 152 0
138 152 0
142 157 0
142 156 0
123 136 0
142 153 0
142 156 0
143 159 0
136 149 0
140 152 0
134 148 0
136 148 0
145 160 0
141 155 0
139 150 0
130 143 0
134 147 0
134 146 0
147 157 0
140 150 0
147 162 0
139 150 0
141 154 0
133 140 0
143 153 0
129 138 0
135 145 0
136 148 0
142 153 0
134 142 0
134 142 0
139 147 0
136 144 0
142 152 0
134 144 0
140 148 0
139 146 0
138 143 0
139 147 0
138 142 0
131 136 0
135 140 0
137 139 0
146 152 0
137 142 0
140 145 0
137 144 0
131 136 0
138 142 0
138 142 0
135 138 0
135 138 0
136 140 0
130 133 0
126 126 0
133 136 0
135 137 0
136 140 0
137 141 0
134 132 0
133 134 0
129 128 0
136 140 0
129 125 0
132 131 0
138 138 0
138 139 0
148 152 0
132 134 0
131 132 0
135 137 0
142 147 0
140 141 0
144 147 0
142 142 0
140 140 0
142 142 0
130 129 0
134 134 0
140 138 0
143 145 0
138 138 0
142 144 0
147 150 0
141 144 0
146 150 0
153 158 0
144 148 0
149 151 0
145 147 0
150 153 0
149 151 0
147 151 0
146 151 0
153 158 0
147 151 0
152 160 0
149 154 0
150 154 0
158 166 0
152 161 0
150 156 0
152 161 0
152 158 0
151 159 0
156 166 0
150 156 0
153 161 0
157 163 0
155 163 0
161 171 0
156 163 0
158 169 0
154 163 0
162 173 0
158 167 0
156 168 0
158 169 0
162 171 0
165 177 0
155 166 0
158 169 0
161 171 0
164 184 0
159 179 0
166 186 0
166 185 0
166 186 0
161 180 0
163 182 0
162 182 0
159 179 0
161 180 0
158 176 0
156 175 0
159 177 0
159 177 0
160 178 0
157 175 0
160 178 0
157 175 0
153 170 0
159 177 0
153 172 0
157 175 0
151 168 0
156 173 0
150 167 0
155 172 0
150 166 0
152 169 0
155 172 0
155 172 0
152 168 0
151 167 0
149 165 0
155 171 0
150 166 0
145 160 0
149 166 0
148 164 0
147 164 0
144 159 0
152 168 0
142 157 0
144 160 0
151 168 0
142 158 0
145 161 0
138 153 0
141 156 0
138 153 0
140 155 0
143 159 0
140 155 0
144 159 0
140 155 0
140 156 0
150 166 0
140 155 0
146 162 0
143 159 0
139 154 0
134 150 0
144 160 0
145 161 0
139 156 0
141 158 0
143 160 0
139 155 0
146 162 0
143 160 0
147 163 0
142 158 0
136 152 0
131 146 0
139 156 0
140 156 0
139 155 0
131 147 0
139 156 0
144 161 0
139 156 0
139 156 0
140 157 0
147 164 0
134 151 0
145 163 0
142 159 0
137 154 0
139 157 0
140 158 0
138 154 0
134 151 0
146 164 0
149 167 0
140 158 0
136 155 0
144 161 0
139 156 0
144 162 0
147 166 0
140 159 0
144 163 0
140 159 0
138 156 0
142 162 0
141 160 0
134 153 0
142 161 0
138 157 0
139 157 0
136 153 0
133 152 0
140 159 0
132 151 0
139 159 0
135 154 0
147 167 0
143 162 0
146 167 0
138 157 0
145 165 0
139 159 0
135 153 0
135 153 0
140 161 0
134 154 0
151 171 0
135 156 0
135 155 0
138 158 0
139 160 0
145 166 0
139 159 0
140 160 0
139 160 0
139 159 0
141 160 0
134 154 0
142 162 0
143 164 0
140 161 0
136 157 0
139 160 0
135 156 0
137 157 0
139 158 0
132 151 0
146 167 0
132 152 0
138 158 0
133 154 0
134 155 0
140 161 0
139 160 0
137 159 0
127 146 0
134 154 0
128 149 0
135 156 0
134 154 0
134 154 0
141 162 0
126 146 0
146 167 0
137 157 0
139 160 0
136 156 0
130 150 0
132 152 0
141 161 0
132 152 0
129 150 0
129 149 0
127 147 0
131 151 0
130 149 0
143 163 0
127 148 0
126 148 0
133 152 0
132 152 0
127 147 0
133 154 0
119 139 0
132 153 0
128 148 0
134 154 0
138 158 0
126 144 0
131 152 0
130 151 0
130 149 0
136 158 0
126 146 0
132 153 0
130 149 0
131 151 0
140 161 0
133 153 0
140 160 0
127 144 0
127 146 0
125 144 0
127 145 0
135 155 0
126 144 0
134 153 0
126 146 0
128 149 0
126 144 0
130 149 0
128 146 0
129 148 0
137 154 0
131 151 0
120 139 0
130 148 0
131 150 0
133 153 0
128 148 0
126 144 0
132 152 0
120 139 0
128 146 0
129 148 0
126 145 0
133 152 0
128 147 0
131 150 0
128 147 0
133 151 0
133 151 0
135 153 0
136 155 0
131 149 0
127 146 0
142 160 0
134 153 0
131 149 0
118 137 0
138 157 0
135 154 0
136 156 0
136 155 0
129 149 0
135 152 0
130 149 0
134 151 0
133 150 0
138 156 0
136 156 0
143 163 0
134 149 0
133 150 0
132 149 0
129 145 0
126 144 0
128 146 0
139 157 0
131 145 0
134 152 0
133 149 0
145 163 0
130 146 0
138 156 0
139 155 0
142 159 0
143 160 0
136 151 0
135 151 0
138 153 0
138 153 0
137 153 0
140 156 0
147 161 0
140 157 0
137 152 0
141 155 0
134 148 0
140 155 0
137 152 0
144 159 0
142 157 0
134 148 0
142 157 0
144 156 0
137 150 0
144 157 0
137 152 0
146 161 0
144 156 0
135 148 0
135 147 0
139 153 0
137 151 0
140 152 0
134 145 0
133 145 0
147 160 0
142 153 0
139 149 0
137 148 0
144 155 0
142 151 0
133 143 0
127 133 0
134 141 0
138 148 0
130 140 0
138 147 0
132 139 0
134 140 0
131 138 0
140 148 0
135 142 0
134 142 0
133 140 0
133 140 0
133 140 0
140 150 0
140 148 0
141 149 0
140 144 0
136 140 0
145 152 0
136 142 0
138 143 0
141 145 0
132 139 0
135 140 0
136 139 0
146 151 0
139 143 0
135 139 0
132 131 0
137 140 0
141 144 0
137 141 0
139 143 0
135 137 0
139 145 0
137 137 0
136 137 0
140 140 0
135 135 0
135 136 0
142 146 0
134 135 0
140 143 0
141 144 0
137 137 0
139 138 0
142 147 0
137 141 0
146 147 0
138 140 0
138 140 0
139 141 0
144 147 0
141 141 0
145 149 0
143 146 0
148 151 0
150 153 0
150 153 0
149 153 0
144 146 0
144 148 0
149 156 0
143 146 0
152 158 0
146 151 0
155 162 0
145 149 0
146 151 0
145 149 0
158 165 0
149 155 0
153 160 0
156 166 0
155 161 0
156 164 0
151 159 0
157 164 0
154 161 0
159 165 0
157 168 0
158 167 0
157 168 0
156 163 0
155 162 0
152 161 0
158 168 0
158 170 0
162 174 0
157 167 0
165 178 0
158 169 0
158 171 0
160 171 0
162 173 0
166 186 0
163 183 0
160 180 0
162 181 0
165 185 0
162 182 0
163 183 0
165 184 0
161 180 0
161 180 0
162 181 0
157 175 0
165 184 0
157 175 0
162 181 0
156 175 0
154 171 0
160 179 0
153 171 0
158 176 0
153 170 0
158 175 0
157 174 0
149 165 0
155 173 0
152 169 0
150 167 0
155 172 0
152 169 0
154 171 0
149 166 0
149 166 0
150 166 0
151 167 0
150 167 0
152 167 0
144 160 0
153 169 0
156 174 0
143 159 0
144 160 0
145 162 0
147 163 0
149 164 0
142 158 0
146 161 0
142 158 0
148 165 0
149 166 0
153 170 0
139 155 0
143 158 0
141 157 0
136 151 0
144 159 0
146 163 0
145 160 0
140 156 0
144 160 0
141 157 0
144 160 0
149 166 0
140 155 0
142 157 0
146 163 0
149 166 0
139 155 0
150 167 0
141 156 0
134 151 0
139 156 0
140 157 0
140 156 0
147 165 0
149 166 0
146 164 0
145 162 0
139 156 0
136 153 0
139 156 0
140 158 0
142 160 0
136 153 0
140 157 0
141 158 0
140 157 0
139 156 0
136 154 0
148 167 0
137 154 0
137 156 0
140 157 0
140 157 0
147 166 0
137 156 0
138 155 0
138 156 0
132 150 0
142 161 0
138 156 0
146 165 0
143 162 0
142 161 0
146 166 0
129 148 0
145 164 0
134 153 0
143 163 0
144 164 0
145 165 0
136 155 0
135 155 0
134 153 0
136 155 0
138 158 0
137 157 0
144 164 0
144 165 0
144 163 0
136 156 0
137 157 0
145 166 0
144 164 0
137 156 0
145 165 0
148 170 0
137 158 0
142 164 0
145 165 0
144 165 0
142 162 0
139 159 0
133 152 0
137 157 0
144 166 0
139 159 0
139 159 0
144 165 0
131 151 0
137 158 0
135 156 0
141 162 0
138 159 0
133 153 0
140 161 0
131 151 0
132 151 0
140 162 0
141 162 0
143 164 0
134 152 0
134 154 0
138 159 0
129 149 0
140 161 0
138 159 0
136 156 0
141 162 0
138 159 0
136 156 0
134 153 0
127 148 0
135 153 0
137 158 0
122 142 0
132 152 0
138 159 0
131 151 0
128 148 0
124 144 0
136 156 0
138 158 0
138 156 0
132 152 0
136 156 0
135 156 0
127 147 0
131 150 0
132 151 0
134 154 0
125 145 0
136 156 0
133 154 0
139 159 0
133 152 0
137 157 0
129 149 0
126 147 0
140 160 0
140 160 0
137 157 0
135 155 0
129 150 0
131 150 0
123 142 0
129 150 0
124 144 0
130 150 0
126 146 0
132 153 0
130 150 0
122 142 0
143 162 0
132 149 0
134 154 0
131 149 0
131 150 0
143 162 0
134 152 0
140 160 0
133 151 0
126 145 0
139 160 0
125 146 0
114 133 0
127 144 0
133 151 0
137 155 0
136 153 0
128 146 0
133 153 0
137 157 0
138 158 0
123 142 0
150 170 0
134 152 0
128 148 0
124 142 0
142 162 0
131 150 0
140 158 0
139 158 0
130 147 0
129 148 0
133 151 0
134 152 0
134 153 0
140 161 0
136 154 0
138 157 0
133 149 0
135 153 0
134 152 0
122 140 0
141 160 0
132 149 0
136 154 0
140 158 0
130 147 0
125 142 0
133 148 0
132 149 0
142 160 0
148 166 0
129 147 0
142 159 0
139 156 0
138 155 0
130 147 0
131 148 0
134 150 0
129 144 0
137 154 0
141 158 0
144 158 0
140 158 0
145 163 0
141 158 0
139 154 0
142 159 0
142 158 0
140 155 0
133 149 0
145 161 0
139 152 0
142 157 0
149 165 0
130 143 0
145 162 0
139 154 0
143 155 0
143 157 0
151 167 0
143 158 0
140 155 0
147 162 0
138 150 0
137 151 0
135 148 0
135 148 0
137 151 0
142 153 0
144 158 0
140 156 0
137 148 0
139 153 0
141 153 0
146 158 0
135 148 0
141 150 0
142 153 0
140 151 0
137 148 0
139 150 0
133 143 0
139 149 0
141 154 0
137 147 0
134 142 0
140 149 0
137 145 0
139 144 0
147 158 0
139 145 0
137 145 0
131 136 0
139 149 0
136 143 0
143 151 0
129 133 0
144 151 0
140 146 0
146 154 0
145 149 0
134 138 0
145 154 0
130 135 0
138 141 0
140 143 0
141 146 0
137 144 0
138 144 0
136 141 0
136 140 0
136 139 0
134 141 0
143 146 0
135 140 0
145 149 0
137 142 0
143 147 0
143 145 0
144 149 0
144 150 0
140 143 0
142 145 0
143 145 0
137 142 0
144 151 0
133 136 0
131 130 0
133 134 0
131 134 0
139 140 0
133 133 0
145 149 0
144 147 0
141 141 0
144 147 0
142 146 0
145 149 0
140 143 0
145 149 0
140 142 0
145 147 0
151 156 0
143 147 0
150 153 0
147 153 0
143 145 0
145 152 0
147 151 0
155 162 0
144 148 0
158 164 0
146 152 0
150 156 0
157 165 0
152 160 0
161 170 0
156 162 0
159 169 0
155 162 0
157 165 0
156 165 0
161 171 0
158 165 0
154 164 0
155 163 0
158 166 0
154 161 0
158 166 0
161 173 0
163 175 0
155 163 0
161 171 0
156 165 0
162 174 0
162 174 0
158 167 0
165 184 0
162 182 0
165 184 0
162 182 0
161 180 0
160 180 0
155 174 0
162 181 0
160 179 0
163 182 0
161 180 0
156 175 0
155 174 0
159 177 0
157 176 0
156 173 0
154 172 0
156 174 0
154 172 0
150 167 0
156 174 0
157 175 0
153 171 0
156 173 0
154 170 0
149 166 0
151 168 0
152 168 0
152 169 0
153 170 0
148 166 0
154 171 0
153 171 0
155 171 0
151 167 0
151 167 0
143 158 0
151 168 0
152 168 0
145 162 0
152 169 0
151 168 0
146 162 0
142 158 0
149 165 0
143 160 0
148 165 0
148 164 0
147 163 0
145 160 0
145 161 0
151 167 0
141 157 0
146 162 0
153 170 0
140 157 0
151 167 0
131 147 0
146 163 0
144 159 0
144 160 0
148 164 0
146 162 0
140 155 0
143 159 0
136 152 0
145 161 0
136 153 0
147 163 0
148 165 0
139 156 0
143 159 0
141 159 0
140 157 0
144 161 0
149 167 0
138 153 0
147 165 0
139 156 0
138 155 0
141 158 0
146 164 0
149 167 0
147 166 0
143 161 0
143 161 0
146 164 0
144 161 0
145 162 0
146 165 0
145 164 0
142 160 0
148 165 0
147 165 0
147 166 0
132 150 0
145 164 0
143 161 0
142 161 0
147 165 0
141 160 0
145 164 0
146 166 0
138 156 0
141 161 0
139 157 0
138 158 0
145 165 0
146 165 0
145 164 0
134 153 0
142 162 0
141 160 0
151 170 0
140 159 0
139 158 0
146 165 0
146 166 0
137 158 0
139 158 0
135 155 0
142 161 0
145 165 0
141 162 0
137 156 0
143 163 0
141 161 0
142 162 0
135 156 0
148 169 0
143 164 0
136 157 0
141 162 0
140 161 0
133 153 0
133 153 0
139 160 0
134 154 0
144 164 0
144 165 0
140 162 0
141 162 0
135 156 0
139 160 0
134 155 0
136 156 0
137 158 0
127 146 0
135 156 0
142 163 0
137 157 0
136 157 0
139 160 0
137 158 0
128 149 0
143 164 0
142 163 0
133 152 0
132 152 0
133 153 0
135 155 0
130 149 0
140 160 0
128 147 0
132 153 0
144 164 0
142 163 0
129 150 0
131 150 0
123 143 0
140 161 0
132 153 0
132 153 0
134 155 0
136 156 0
135 156 0
138 159 0
132 151 0
123 142 0
126 146 0
137 157 0
131 152 0
119 139 0
139 159 0
129 148 0
129 149 0
136 156 0
139 160 0
139 159 0
125 145 0
138 156 0
135 157 0
126 145 0
124 143 0
117 137 0
127 147 0
139 160 0
123 144 0
128 147 0
140 160 0
128 148 0
135 155 0
134 152 0
135 155 0
140 161 0
130 150 0
130 149 0
133 152 0
132 149 0
141 161 0
133 154 0
136 156 0
129 146 0
139 158 0
122 140 0
132 152 0
142 162 0
137 157 0
130 150 0
126 144 0
133 152 0
121 140 0
130 148 0
134 153 0
133 151 0
136 153 0
140 161 0
138 158 0
133 151 0
130 149 0
133 152 0
132 152 0
134 152 0
133 151 0
131 150 0
139 157 0
131 150 0
130 149 0
131 146 0
142 160 0
131 150 0
140 159 0
150 169 0
139 157 0
135 152 0
144 164 0
146 165 0
142 160 0
134 153 0
141 159 0
140 158 0
129 148 0
140 158 0
136 154 0
147 165 0
135 151 0
132 150 0
135 153 0
141 158 0
140 156 0
137 154 0
139 157 0
137 153 0
135 152 0
138 155 0
141 158 0
135 149 0
145 161 0
148 165 0
142 159 0
138 155 0
139 155 0
134 149 0
137 154 0
142 158 0
138 154 0
140 154 0
140 155 0
141 157 0
143 157 0
140 156 0
135 151 0
138 151 0
139 153 0
138 152 0
140 154 0
141 156 0
148 164 0
148 160 0
141 155 0
143 158 0
141 155 0
136 149 0
139 154 0
138 149 0
145 158 0
139 151 0
150 164 0
138 150 0
144 159 0
139 152 0
146 156 0
138 147 0
134 146 0
132 142 0
145 154 0
140 152 0
136 147 0
142 155 0
133 144 0
137 144 0
142 149 0
141 148 0
144 151 0
142 151 0
131 140 0
141 149 0
144 151 0
138 145 0
138 145 0
135 140 0
141 145 0
145 152 0
137 144 0
140 146 0
149 156 0
143 153 0
137 143 0
139 142 0
137 142 0
146 153 0
137 141 0
138 141 0
147 154 0
131 133 0
141 145 0
137 138 0
141 144 0
129 133 0
141 144 0
146 153 0
148 155 0
142 145 0
140 142 0
143 145 0
133 133 0
134 138 0
138 139 0
147 153 0
144 147 0
136 137 0
148 153 0
144 143 0
152 156 0
147 150 0
142 143 0
135 136 0
145 148 0
138 137 0
143 147 0
139 142 0
140 141 0
133 134 0
144 147 0
146 150 0
152 160 0
147 152 0
150 157 0
147 155 0
148 152 0
151 157 0
151 154 0
155 161 0
149 152 0
154 157 0
159 167 0
150 153 0
157 164 0
154 161 0
154 162 0
159 167 0
155 163 0
148 156 0
151 156 0
158 166 0
152 159 0
155 160 0
155 164 0
158 165 0
161 172 0
159 163 0
154 161 0
159 168 0
158 170 0
157 166 0
158 167 0
163 173 0
158 170 0
158 170 0
161 173 0
160 180 0
163 183 0
165 186 0
160 179 0
164 183 0
161 179 0
162 180 0
162 181 0
159 177 0
160 178 0
157 174 0
154 172 0
156 174 0
160 178 0
160 178 0
151 169 0
154 172 0
156 173 0
157 175 0
159 177 0
151 168 0
155 172 0
153 171 0
154 171 0
154 172 0
158 175 0
153 170 0
153 170 0
158 176 0
151 168 0
155 171 0
154 171 0
153 170 0
150 167 0
154 170 0
149 166 0
151 168 0
151 168 0
149 165 0
149 165 0
148 166 0
152 168 0
146 162 0
154 171 0
143 159 0
146 162 0
154 170 0
142 158 0
148 165 0
144 160 0
145 161 0
146 162 0
151 168 0
151 168 0
149 166 0
142 158 0
148 165 0
150 167 0
137 153 0
138 154 0
147 165 0
146 163 0
138 154 0
142 160 0
136 151 0
139 155 0
146 164 0
143 159 0
144 161 0
148 166 0
145 161 0
146 163 0
143 160 0
142 159 0
143 160 0
143 161 0
143 161 0
146 163 0
144 162 0
142 158 0
138 155 0
145 162 0
151 170 0
145 163 0
141 159 0
146 164 0
140 158 0
148 167 0
141 160 0
145 164 0
138 157 0
144 162 0
143 163 0
139 158 0
141 159 0
142 160 0
144 164 0
146 165 0
147 165 0
142 162 0
131 150 0
143 161 0
146 165 0
147 166 0
145 165 0
144 163 0
145 164 0
138 158 0
137 157 0
145 166 0
137 157 0
144 164 0
145 165 0
137 156 0
138 158 0
132 152 0
141 162 0
137 156 0
137 156 0
142 161 0
142 162 0
139 159 0
148 167 0
143 164 0
139 160 0
136 157 0
146 166 0
144 164 0
137 157 0
138 157 0
141 160 0
129 148 0
146 166 0
139 160 0
144 165 0
141 162 0
147 168 0
131 152 0
146 165 0
136 156 0
137 157 0
138 159 0
135 155 0
144 164 0
145 165 0
131 152 0
137 158 0
143 165 0
140 161 0
137 158 0
136 156 0
139 159 0
144 163 0
144 165 0
136 156 0
141 161 0
141 161 0
138 158 0
139 160 0
132 152 0
142 162 0
144 164 0
145 165 0
144 164 0
137 158 0
146 168 0
137 159 0
128 148 0
136 157 0
133 154 0
140 160 0
138 160 0
134 153 0
140 160 0
136 156 0
128 149 0
127 149 0
144 164 0
125 146 0
131 152 0
133 153 0
131 151 0
132 153 0
135 155 0
134 154 0
131 152 0
129 148 0
131 152 0
140 161 0
126 145 0
145 166 0
138 158 0
137 157 0
141 162 0
138 158 0
124 144 0
134 154 0
134 154 0
129 150 0
126 145 0
134 154 0
128 147 0
135 154 0
138 159 0
139 160 0
133 153 0
129 149 0
125 144 0
133 153 0
139 159 0
122 141 0
132 151 0
132 151 0
136 155 0
128 145 0
131 150 0
138 157 0
137 157 0
136 156 0
120 140 0
126 145 0
146 165 0
137 156 0
136 158 0
125 145 0
125 143 0
129 147 0
131 150 0
130 148 0
132 152 0
127 148 0
131 150 0
142 161 0
138 157 0
134 152 0
136 154 0
125 143 0
142 160 0
137 155 0
122 141 0
139 158 0
143 163 0
138 155 0
133 151 0
138 155 0
147 167 0
141 160 0
136 155 0
135 153 0
139 154 0
135 152 0
133 150 0
140 157 0
136 153 0
140 158 0
140 157 0
141 159 0
140 158 0
144 161 0
144 162 0
142 161 0
143 161 0
128 145 0
149 166 0
137 154 0
148 165 0
144 162 0
135 151 0
137 152 0
143 160 0
129 146 0
145 165 0
141 156 0
139 154 0
145 162 0
141 157 0
137 153 0
149 163 0
133 148 0
140 155 0
141 155 0
142 158 0
142 155 0
137 152 0
135 147 0
142 156 0
141 158 0
142 157 0
137 151 0
139 153 0
144 157 0
144 157 0
137 148 0
143 155 0
134 147 0
150 165 0
149 163 0
140 152 0
146 162 0
138 150 0
136 148 0
142 154 0
145 159 0
150 164 0
152 161 0
145 158 0
145 156 0
144 153 0
141 152 0
139 149 0
153 165 0
143 152 0
141 151 0
137 148 0
144 154 0
135 145 0
149 157 0
141 152 0
137 146 0
149 158 0
137 147 0
135 143 0
144 152 0
134 141 0
141 149 0
142 151 0
144 150 0
141 147 0
144 151 0
137 145 0
147 152 0
138 144 0
143 148 0
143 150 0
149 154 0
140 146 0
140 146 0
145 149 0
144 148 0
138 143 0
143 148 0
146 150 0
142 144 0
141 143 0
143 146 0
147 153 0
141 142 0
139 142 0
148 152 0
155 160 0
140 141 0
140 143 0
143 147 0
152 157 0
141 144 0
144 149 0
140 143 0
143 146 0
142 146 0
147 150 0
144 146 0
142 144 0
145 148 0
145 151 0
148 151 0
143 146 0
146 150 0
146 151 0
152 160 0
160 167 0
155 159 0
142 146 0
148 152 0
148 153 0
156 164 0
157 162 0
155 158 0
146 151 0
150 156 0
147 152 0
153 158 0
154 162 0
155 162 0
161 170 0
155 164 0
157 163 0
153 160 0
158 167 0
161 169 0
150 159 0
150 153 0
160 168 0
161 172 0
158 168 0
159 168 0
154 163 0
158 169 0
162 175 0
162 174 0
158 166 0
164 183 0
159 179 0
157 177 0
157 175 0
161 181 0
164 183 0
155 174 0
161 180 0
163 182 0
157 176 0
158 177 0
159 178 0
159 177 0
157 176 0
157 175 0
157 175 0
160 179 0
157 175 0
154 171 0
149 166 0
160 178 0
151 167 0
156 174 0
154 171 0
150 166 0
153 170 0
151 168 0
159 177 0
151 168 0
154 171 0
151 168 0
152 169 0
151 167 0
146 161 0
150 166 0
147 163 0
148 164 0
153 170 0
148 165 0
153 170 0
149 167 0
147 164 0
146 162 0
148 165 0
148 165 0
148 164 0
146 163 0
148 165 0
147 164 0
147 164 0
146 163 0
149 166 0
150 167 0
142 158 0
148 165 0
148 165 0
144 160 0
150 167 0
144 161 0
153 171 0
152 169 0
150 168 0
142 159 0
149 166 0
146 163 0
138 155 0
143 160 0
141 159 0
144 161 0
148 164 0
140 157 0
142 158 0
143 159 0
145 163 0
144 162 0
143 161 0
150 168 0
145 164 0
139 157 0
140 157 0
145 163 0
138 155 0
140 158 0
142 162 0
151 170 0
148 166 0
141 160 0
146 164 0
141 160 0
149 169 0
144 163 0
141 160 0
147 166 0
143 162 0
138 157 0
143 162 0
144 163 0
142 161 0
142 161 0
143 162 0
142 162 0
148 167 0
143 163 0
143 162 0
150 169 0
147 166 0
143 162 0
147 166 0
144 163 0
137 157 0
140 158 0
141 161 0
145 164 0
138 157 0
154 175 0
149 170 0
146 166 0
144 164 0
137 157 0
152 172 0
132 151 0
150 171 0
140 160 0
138 158 0
144 165 0
131 151 0
143 163 0
143 164 0
147 167 0
142 161 0
143 164 0
134 154 0
141 162 0
148 168 0
135 154 0
143 163 0
147 167 0
139 161 0
142 163 0
127 147 0
145 165 0
150 170 0
145 165 0
131 150 0
140 162 0
138 159 0
148 169 0
136 157 0
137 158 0
137 156 0
127 148 0
143 164 0
138 158 0
135 156 0
129 149 0
143 164 0
146 168 0
141 161 0
137 158 0
140 161 0
142 163 0
144 165 0
135 156 0
138 159 0
137 157 0
143 164 0
135 156 0
139 161 0
139 160 0
137 159 0
137 157 0
142 162 0
137 157 0
127 147 0
137 156 0
139 159 0
138 159 0
133 153 0
126 146 0
134 153 0
130 150 0
135 156 0
131 152 0
135 155 0
131 151 0
131 151 0
128 147 0
125 144 0
131 150 0
130 151 0
137 158 0
132 152 0
136 155 0
132 152 0
138 158 0
140 161 0
134 155 0
128 148 0
127 147 0
133 153 0
128 149 0
127 147 0
135 154 0
137 158 0
131 151 0
136 156 0
129 150 0
133 153 0
136 155 0
126 145 0
131 151 0
132 152 0
131 149 0
137 155 0
133 153 0
137 156 0
139 159 0
127 146 0
132 151 0
143 163 0
134 152 0
134 153 0
138 156 0
134 153 0
147 166 0
135 153 0
132 151 0
136 155 0
139 159 0
144 162 0
135 152 0
134 154 0
134 154 0
133 152 0
137 155 0
144 165 0
137 156 0
131 148 0
129 147 0
136 154 0
135 156 0
134 153 0
141 160 0
139 157 0
143 161 0
129 147 0
137 156 0
129 147 0
134 153 0
147 168 0
144 160 0
143 162 0
137 153 0
129 147 0
132 150 0
132 150 0
145 164 0
129 147 0
133 150 0
142 157 0
139 160 0
143 160 0
129 147 0
143 160 0
142 160 0
142 161 0
153 171 0
132 148 0
144 163 0
136 154 0
141 157 0
142 158 0
140 155 0
144 158 0
138 154 0
141 157 0
143 161 0
131 147 0
138 154 0
138 155 0
149 166 0
134 150 0
137 153 0
135 151 0
141 158 0
146 162 0
133 147 0
146 156 0
147 165 0
136 148 0
141 156 0
141 157 0
142 157 0
141 156 0
154 171 0
146 161 0
146 159 0
139 154 0
137 149 0
141 155 0
142 155 0
136 148 0
140 153 0
142 156 0
142 154 0
146 160 0
146 159 0
135 146 0
147 157 0
139 150 0
143 154 0
140 152 0
148 157 0
144 155 0
137 146 0
143 151 0
137 148 0
137 144 0
149 163 0
142 149 0
150 159 0
146 157 0
140 147 0
140 149 0
141 147 0
145 153 0
143 151 0
144 150 0
143 148 0
148 155 0
132 138 0
136 143 0
143 148 0
146 150 0
147 155 0
146 155 0
150 153 0
149 156 0
146 153 0
149 156 0
144 150 0
141 149 0
147 152 0
144 148 0
139 140 0
144 149 0
140 143 0
140 141 0
147 151 0
142 145 0
143 148 0
143 147 0
138 141 0
144 147 0
141 144 0
147 149 0
147 152 0
147 149 0
146 152 0
144 148 0
147 151 0
154 159 0
145 148 0
141 143 0
145 149 0
145 149 0
149 155 0
149 153 0
145 148 0
152 154 0
152 159 0
154 158 0
152 158 0
146 150 0
144 150 0
151 155 0
162 169 0
151 157 0
149 155 0
152 158 0
151 160 0
156 164 0
152 155 0
149 155 0
153 158 0
158 165 0
154 162 0
156 165 0
155 164 0
154 161 0
153 160 0
154 162 0
157 167 0
157 167 0
154 162 0
153 162 0
160 171 0
149 160 0
163 176 0
161 171 0
163 183 0
161 181 0
162 182 0
162 181 0
160 178 0
161 179 0
163 181 0
152 171 0
161 180 0
155 173 0
160 178 0
160 179 0
157 173 0
160 178 0
160 178 0
159 178 0
152 170 0
155 171 0
157 176 0
155 173 0
158 175 0
151 167 0
154 171 0
155 173 0
151 168 0
148 166 0
148 165 0
155 172 0
154 171 0
154 170 0
154 171 0
148 164 0
150 167 0
150 167 0
153 170 0
147 164 0
154 171 0
155 172 0
150 167 0
148 165 0
156 173 0
151 168 0
148 164 0
146 164 0
145 162 0
148 164 0
145 162 0
148 165 0
147 164 0
154 171 0
144 160 0
144 159 0
142 158 0
149 166 0
151 169 0
147 164 0
147 164 0
144 160 0
144 161 0
152 170 0
145 162 0
143 160 0
146 164 0
151 169 0
145 162 0
144 161 0
149 166 0
143 160 0
144 162 0
147 164 0
143 160 0
138 156 0
151 169 0
136 154 0
142 160 0
145 164 0
146 165 0
144 162 0
145 164 0
143 161 0
154 174 0
151 170 0
146 165 0
145 164 0
147 165 0
147 166 0
145 164 0
146 166 0
147 166 0
146 165 0
145 165 0
143 161 0
136 155 0
137 155 0
149 169 0
147 166 0
143 162 0
153 172 0
146 166 0
149 168 0
142 161 0
141 160 0
152 173 0
145 164 0
143 163 0
149 170 0
145 165 0
143 162 0
150 170 0
143 164 0
143 163 0
143 162 0
143 162 0
142 163 0
135 155 0
151 171 0
138 159 0
143 162 0
138 158 0
145 165 0
145 165 0
147 166 0
141 162 0
145 166 0
140 159 0
142 163 0
137 156 0
139 160 0
143 165 0
143 163 0
148 169 0
143 164 0
140 159 0
147 168 0
145 165 0
139 159 0
134 155 0
146 167 0
141 162 0
138 158 0
145 166 0
141 162 0
143 163 0
137 159 0
147 168 0
135 156 0
142 161 0
143 163 0
136 158 0
144 164 0
142 164 0
146 167 0
144 165 0
134 155 0
140 162 0
137 158 0
136 157 0
136 156 0
137 157 0
135 154 0
140 160 0
140 161 0
135 156 0
140 161 0
139 160 0
135 156 0
133 154 0
134 154 0
141 160 0
129 149 0
140 161 0
142 163 0
141 161 0
137 158 0
130 151 0
143 164 0
134 154 0
147 166 0
141 163 0
132 153 0
138 158 0
134 154 0
132 154 0
133 152 0
133 153 0
134 154 0
128 150 0
125 145 0
130 150 0
133 151 0
128 148 0
134 152 0
136 157 0
132 152 0
139 158 0
134 154 0
131 150 0
135 155 0
133 153 0
130 151 0
128 148 0
128 148 0
143 163 0
125 143 0
134 152 0
145 167 0
131 151 0
131 151 0
140 162 0
132 151 0
141 161 0
128 148 0
136 155 0
127 146 0
130 148 0
141 161 0
144 162 0
125 144 0
139 159 0
138 159 0
122 140 0
139 159 0
133 153 0
132 150 0
133 154 0
138 156 0
136 155 0
140 160 0
137 156 0
141 160 0
129 146 0
143 163 0
146 166 0
138 159 0
137 157 0
135 154 0
133 148 0
147 166 0
133 153 0
123 141 0
133 151 0
142 159 0
131 150 0
132 150 0
129 146 0
132 149 0
137 156 0
136 156 0
144 163 0
141 160 0
148 165 0
139 156 0
142 160 0
145 164 0
136 156 0
145 164 0
146 164 0
148 167 0
141 159 0
135 153 0
141 158 0
145 163 0
144 162 0
151 168 0
146 163 0
142 162 0
134 149 0
144 163 0
140 157 0
137 154 0
141 158 0
146 164 0
142 158 0
145 165 0
143 159 0
138 156 0
129 144 0
132 147 0
144 160 0
141 156 0
148 164 0
144 159 0
152 169 0
146 162 0
150 168 0
145 161 0
145 160 0
151 167 0
142 158 0
145 159 0
142 156 0
138 154 0
147 162 0
146 161 0
132 144 0
142 155 0
140 155 0
139 151 0
139 154 0
142 155 0
134 146 0
141 154 0
138 147 0
149 160 0
143 153 0
140 153 0
144 155 0
141 151 0
147 159 0
149 164 0
147 161 0
142 152 0
144 152 0
128 138 0
141 149 0
143 155 0
139 150 0
142 153 0
139 146 0
145 154 0
142 152 0
140 151 0
141 147 0
143 151 0
145 154 0
139 146 0
142 150 0
142 149 0
145 154 0
137 145 0
140 148 0
150 156 0
142 149 0
136 140 0
152 163 0
141 148 0
143 151 0
138 142 0
140 145 0
138 144 0
147 154 0
147 153 0
143 148 0
148 155 0
139 142 0
153 158 0
145 151 0
152 157 0
149 150 0
152 159 0
142 144 0
142 146 0
147 152 0
144 149 0
142 146 0
148 151 0
146 151 0
146 150 0
144 150 0
150 157 0
146 148 0
140 146 0
147 153 0
155 159 0
146 149 0
154 161 0
148 152 0
154 159 0
140 146 0
149 156 0
154 161 0
148 152 0
143 147 0
150 155 0
148 152 0
154 162 0
150 157 0
154 161 0
156 163 0
149 155 0
156 164 0
158 162 0
158 167 0
156 162 0
155 164 0
155 164 0
157 164 0
151 157 0
157 166 0
153 158 0
157 165 0
162 172 0
158 165 0
159 171 0
154 162 0
161 173 0
161 168 0
162 173 0
165 176 0
155 163 0
160 179 0
160 179 0
165 183 0
158 176 0
158 176 0
159 178 0
161 180 0
157 176 0
163 182 0
158 177 0
160 178 0
162 180 0
151 169 0
159 177 0
155 174 0
159 178 0
156 174 0
154 172 0
162 180 0
156 174 0
158 176 0
155 173 0
150 168 0
156 175 0
151 169 0
151 169 0
151 168 0
150 166 0
156 173 0
151 169 0
152 169 0
151 167 0
150 167 0
152 170 0
149 166 0
153 171 0
146 164 0
150 167 0
146 162 0
155 173 0
149 166 0
146 163 0
148 166 0
146 164 0
153 171 0
157 175 0
143 159 0
152 169 0
152 170 0
147 164 0
148 164 0
143 160 0
154 171 0
148 165 0
152 170 0
144 160 0
147 162 0
149 167 0
149 167 0
143 161 0
155 174 0
145 162 0
148 166 0
146 163 0
145 162 0
142 160 0
142 160 0
145 164 0
149 167 0
146 164 0
148 166 0
148 167 0
139 157 0
147 164 0
149 166 0
144 162 0
141 158 0
145 164 0
151 169 0
138 157 0
143 162 0
147 166 0
141 161 0
152 171 0
147 166 0
143 161 0
150 168 0
144 163 0
143 161 0
149 167 0
150 170 0
151 171 0
153 171 0
152 171 0
144 163 0
144 164 0
137 157 0
136 156 0
153 172 0
144 164 0
150 170 0
149 169 0
145 166 0
146 166 0
142 161 0
154 174 0
147 166 0
142 162 0
150 170 0
145 165 0
146 167 0
147 168 0
146 166 0
145 165 0
144 164 0
145 166 0
133 153 0
143 165 0
146 167 0
143 162 0
141 161 0
148 169 0
144 164 0
153 174 0
147 168 0
144 165 0
149 170 0
137 157 0
147 168 0
136 156 0
141 162 0
146 168 0
146 168 0
138 159 0
149 171 0
133 154 0
141 162 0
132 153 0
144 165 0
141 162 0
147 167 0
128 147 0
147 168 0
136 157 0
137 158 0
145 167 0
138 159 0
141 161 0
144 166 0
138 159 0
139 161 0
149 170 0
139 159 0
134 154 0
140 161 0
143 164 0
139 159 0
142 163 0
138 159 0
129 149 0
141 162 0
136 156 0
140 161 0
140 162 0
140 162 0
144 163 0
140 162 0
144 165 0
129 149 0
137 159 0
132 154 0
135 155 0
137 159 0
140 160 0
130 150 0
141 160 0
132 152 0
136 156 0
143 163 0
141 163 0
134 156 0
136 157 0
140 161 0
131 151 0
135 156 0
128 148 0
135 156 0
140 161 0
135 154 0
135 156 0
136 156 0
138 158 0
145 165 0
139 160 0
135 158 0
132 152 0
134 154 0
134 155 0
126 147 0
134 154 0
129 149 0
133 152 0
141 162 0
131 150 0
133 153 0
132 151 0
143 164 0
141 161 0
141 162 0
129 150 0
148 169 0
140 161 0
128 148 0
134 154 0
143 163 0
130 149 0
141 162 0
134 154 0
135 156 0
141 160 0
135 155 0
130 149 0
139 160 0
133 152 0
140 159 0
138 157 0
136 156 0
128 147 0
138 157 0
135 154 0
142 162 0
139 159 0
135 151 0
142 161 0
131 149 0
139 159 0
134 152 0
142 162 0
133 151 0
138 158 0
142 161 0
137 156 0
137 157 0
138 157 0
151 172 0
145 163 0
142 161 0
134 151 0
142 160 0
141 161 0
140 158 0
136 154 0
143 162 0
135 155 0
136 154 0
141 160 0
140 159 0
139 157 0
143 161 0
140 158 0
144 161 0
140 159 0
145 164 0
137 155 0
139 157 0
147 163 0
151 169 0
135 152 0
143 160 0
144 162 0
149 168 0
147 166 0
148 167 0
142 158 0
145 160 0
149 165 0
135 152 0
140 156 0
141 159 0
145 161 0
140 155 0
137 154 0
136 151 0
146 162 0
138 154 0
138 151 0
150 166 0
143 156 0
141 156 0
128 144 0
146 161 0
146 162 0
149 165 0
141 158 0
143 159 0
148 164 0
144 157 0
145 163 0
129 142 0
135 148 0
140 152 0
153 166 0
144 155 0
145 158 0
135 145 0
146 157 0
142 155 0
149 163 0
146 159 0
136 146 0
142 153 0
143 153 0
145 157 0
151 162 0
143 152 0
142 151 0
141 151 0
141 153 0
151 163 0
142 151 0
145 155 0
145 154 0
146 156 0
144 153 0
146 156 0
140 150 0
139 148 0
146 154 0
143 148 0
152 162 0
147 153 0
137 147 0
138 145 0
140 147 0
138 148 0
147 154 0
143 150 0
146 154 0
145 153 0
148 158 0
148 153 0
148 154 0
140 147 0
141 147 0
145 152 0
151 158 0
144 149 0
138 142 0
150 157 0
151 157 0
145 150 0
154 159 0
150 155 0
145 151 0
149 151 0
142 147 0
149 155 0
154 162 0
144 147 0
146 150 0
144 148 0
155 162 0
145 151 0
147 153 0
152 161 0
145 146 0
158 165 0
147 150 0
152 160 0
149 154 0
148 152 0
148 156 0
153 157 0
146 152 0
147 153 0
149 154 0
147 151 0
146 151 0
151 157 0
149 156 0
152 156 0
147 153 0
148 150 0
151 158 0
151 158 0
155 164 0
151 156 0
154 162 0
156 166 0
159 169 0
157 164 0
151 161 0
152 161 0
160 166 0
154 162 0
156 166 0
161 172 0
155 166 0
163 174 0
159 172 0
158 177 0
157 176 0
164 183 0
157 176 0
164 183 0
163 180 0
159 178 0
157 176 0
157 175 0
157 175 0
159 178 0
156 175 0
157 176 0
158 177 0
152 171 0
153 170 0
161 179 0
153 171 0
159 178 0
159 177 0
155 174 0
154 172 0
156 174 0
149 165 0
153 170 0
150 168 0
149 166 0
153 171 0
153 171 0
158 176 0
151 168 0
158 176 0
150 167 0
154 171 0
155 173 0
156 173 0
156 174 0
156 173 0
152 169 0
150 167 0
157 173 0
154 172 0
147 164 0
149 166 0
150 166 0
149 167 0
144 162 0
154 171 0
150 167 0
138 154 0
141 158 0
146 164 0
152 170 0
151 168 0
153 170 0
151 168 0
149 166 0
139 157 0
150 168 0
147 164 0
154 173 0
145 163 0
148 166 0
152 171 0
146 164 0
144 162 0
144 161 0
148 165 0
145 163 0
147 166 0
156 174 0
154 173 0
143 161 0
144 163 0
144 163 0
149 168 0
149 167 0
142 161 0
144 163 0
145 163 0
142 161 0
139 157 0
145 164 0
148 166 0
142 161 0
140 159 0
133 151 0
151 171 0
147 165 0
147 167 0
148 168 0
144 163 0
147 168 0
148 168 0
142 161 0
147 167 0
139 159 0
152 171 0
145 164 0
147 166 0
143 163 0
133 153 0
140 159 0
151 172 0
143 163 0
138 158 0
136 157 0
140 159 0
141 160 0
146 166 0
141 161 0
137 157 0
147 168 0
147 168 0
144 163 0
147 168 0
149 170 0
148 169 0
149 171 0
133 152 0
141 161 0
144 164 0
143 164 0
148 170 0
143 163 0
137 157 0
144 165 0
144 165 0
141 162 0
150 171 0
149 169 0
148 169 0
140 161 0
140 160 0
137 157 0
139 160 0
139 159 0
139 160 0
148 169 0
141 161 0
142 163 0
143 164 0
140 160 0
144 165 0
144 165 0
141 162 0
135 157 0
146 167 0
146 167 0
138 159 0
138 156 0
142 163 0
140 162 0
147 169 0
139 159 0
140 161 0
141 162 0
143 165 0
141 161 0
139 160 0
137 159 0
138 157 0
137 158 0
136 156 0
141 162 0
142 163 0
137 158 0
143 162 0
136 156 0
139 159 0
137 158 0
134 154 0
134 155 0
130 150 0
134 156 0
142 162 0
135 157 0
139 159 0
133 154 0
139 161 0
139 158 0
135 155 0
134 156 0
143 164 0
134 154 0
138 159 0
139 160 0
137 157 0
135 156 0
140 160 0
145 166 0
135 156 0
143 165 0
139 159 0
128 148 0
135 156 0
131 152 0
138 158 0
136 157 0
138 159 0
135 156 0
139 159 0
132 151 0
138 158 0
132 153 0
132 152 0
138 158 0
134 154 0
132 151 0
135 155 0
135 155 0
140 161 0
138 158 0
141 162 0
140 158 0
134 154 0
143 165 0
131 150 0
139 160 0
142 162 0
139 160 0
135 153 0
136 154 0
150 171 0
140 158 0
139 159 0
131 151 0
134 153 0
137 157 0
137 158 0
138 156 0
128 146 0
139 159 0
134 154 0
137 157 0
147 168 0
141 161 0
144 161 0
141 160 0
141 161 0
135 153 0
129 148 0
147 167 0
142 161 0
142 161 0
141 157 0
143 163 0
132 151 0
145 164 0
146 165 0
142 160 0
140 159 0
147 165 0
138 155 0
147 166 0
147 167 0
144 163 0
142 160 0
153 172 0
142 160 0
138 155 0
143 162 0
141 159 0
143 161 0
139 156 0
135 154 0
145 163 0
142 158 0
137 154 0
145 163 0
137 155 0
140 158 0
149 167 0
141 157 0
143 159 0
139 154 0
142 158 0
153 168 0
147 166 0
140 157 0
147 164 0
146 162 0
149 165 0
137 152 0
140 156 0
142 159 0
138 153 0
145 161 0
148 164 0
146 161 0
147 162 0
145 162 0
144 158 0
145 163 0
144 159 0
140 156 0
151 168 0
140 152 0
140 153 0
152 167 0
146 157 0
134 149 0
145 160 0
145 157 0
137 148 0
142 155 0
140 152 0
145 159 0
143 156 0
141 151 0
148 160 0
142 151 0
148 160 0
145 157 0
139 149 0
145 158 0
139 146 0
150 158 0
146 156 0
138 149 0
142 151 0
145 159 0
147 155 0
148 159 0
149 159 0
138 144 0
149 158 0
146 156 0
142 150 0
146 156 0
142 149 0
148 158 0
145 154 0
138 145 0
149 157 0
143 152 0
150 158 0
143 152 0
148 157 0
145 151 0
150 157 0
145 152 0
144 152 0
141 149 0
137 143 0
146 151 0
149 156 0
143 149 0
142 150 0
144 149 0
150 155 0
148 153 0
149 156 0
150 157 0
145 150 0
144 150 0
151 158 0
150 158 0
146 149 0
146 151 0
148 154 0
140 146 0
147 150 0
147 151 0
149 156 0
149 152 0
158 166 0
153 161 0
149 154 0
148 153 0
148 154 0
151 154 0
152 159 0
147 152 0
149 156 0
154 160 0
155 162 0
152 159 0
152 159 0
151 160 0
157 165 0
151 155 0
152 159 0
157 165 0
161 170 0
156 164 0
154 163 0
153 160 0
152 160 0
161 170 0
154 166 0
153 160 0
146 150 0
155 165 0
157 165 0
155 164 0
160 170 0
159 167 0
156 167 0
159 170 0
161 179 0
159 179 0
162 180 0
164 183 0
161 180 0
160 179 0
153 170 0
163 182 0
163 182 0
163 182 0
160 179 0
155 173 0
158 177 0
154 172 0
160 179 0
152 170 0
157 175 0
152 169 0
158 176 0
157 175 0
159 177 0
154 171 0
152 170 0
153 171 0
153 171 0
159 177 0
154 171 0
150 167 0
156 174 0
147 165 0
152 170 0
153 169 0
150 168 0
151 168 0
152 169 0
155 172 0
154 171 0
159 177 0
155 172 0
160 177 0
155 172 0
153 171 0
143 160 0
151 170 0
149 167 0
153 170 0
149 166 0
153 170 0
150 168 0
155 173 0
154 171 0
144 162 0
151 169 0
148 166 0
147 165 0
147 164 0
148 165 0
146 164 0
157 174 0
149 167 0
149 167 0
148 165 0
154 173 0
150 169 0
146 164 0
147 165 0
146 163 0
144 162 0
145 162 0
148 166 0
141 158 0
145 164 0
148 167 0
144 162 0
147 165 0
143 162 0
150 169 0
146 164 0
150 168 0
151 171 0
146 164 0
155 174 0
140 158 0
148 168 0
150 168 0
149 168 0
152 171 0
142 162 0
144 163 0
149 168 0
145 164 0
141 161 0
144 164 0
149 168 0
150 171 0
146 167 0
145 165 0
147 168 0
154 175 0
152 173 0
149 169 0
149 168 0
141 162 0
150 171 0
139 159 0
147 168 0
147 167 0
146 167 0
151 172 0
150 171 0
154 175 0
146 166 0
150 170 0
145 165 0
142 161 0
154 176 0
141 160 0
147 167 0
139 159 0
147 167 0
154 176 0
147 167 0
147 169 0
139 160 0
147 168 0
147 167 0
144 165 0
147 168 0
146 167 0
141 161 0
148 170 0
141 161 0
140 160 0
145 166 0
141 162 0
143 164 0
144 166 0
134 154 0
145 165 0
145 166 0
146 166 0
146 167 0
142 161 0
150 171 0
144 165 0
144 165 0
148 168 0
137 158 0
149 170 0
142 162 0
143 163 0
145 167 0
147 169 0
138 159 0
150 171 0
135 156 0
146 167 0
146 168 0
142 163 0
149 169 0
135 156 0
144 166 0
139 159 0
136 156 0
143 163 0
134 153 0
142 163 0
142 163 0
138 157 0
141 161 0
143 165 0
137 158 0
134 155 0
138 159 0
140 161 0
138 160 0
136 157 0
139 160 0
138 159 0
137 158 0
144 165 0
133 153 0
132 151 0
140 162 0
142 162 0
144 165 0
137 158 0
134 155 0
132 152 0
137 156 0
133 153 0
139 159 0
133 153 0
139 160 0
129 148 0
134 155 0
143 163 0
150 170 0
141 161 0
132 153 0
141 161 0
142 162 0
127 147 0
130 152 0
138 158 0
140 160 0
137 158 0
141 161 0
140 159 0
131 149 0
144 163 0
139 159 0
140 159 0
133 154 0
138 158 0
136 155 0
134 154 0
130 148 0
134 155 0
135 154 0
140 160 0
134 155 0
132 151 0
142 162 0
130 150 0
131 150 0
134 152 0
133 154 0
140 159 0
131 152 0
136 155 0
139 160 0
142 163 0
141 160 0
139 158 0
146 164 0
137 156 0
145 165 0
140 160 0
139 157 0
144 162 0
139 157 0
143 162 0
132 151 0
142 161 0
136 154 0
128 144 0
146 165 0
147 166 0
140 159 0
136 154 0
146 166 0
151 170 0
141 160 0
149 167 0
138 157 0
135 154 0
142 161 0
133 151 0
141 160 0
149 168 0
146 164 0
142 161 0
143 162 0
148 168 0
143 161 0
141 157 0
146 165 0
147 164 0
139 157 0
145 161 0
149 169 0
137 155 0
147 165 0
132 148 0
154 171 0
143 160 0
147 164 0
144 160 0
146 162 0
142 160 0
147 164 0
147 161 0
146 163 0
142 160 0
149 165 0
137 154 0
145 161 0
144 160 0
146 162 0
151 169 0
144 159 0
143 159 0
136 150 0
138 151 0
147 164 0
145 162 0
139 153 0
144 161 0
143 157 0
141 155 0
146 160 0
137 150 0
148 162 0
142 153 0
141 154 0
147 161 0
143 158 0
147 161 0
142 155 0
142 154 0
143 154 0
145 158 0
140 151 0
145 155 0
142 154 0
144 157 0
147 158 0
146 158 0
148 158 0
147 159 0
151 162 0
149 158 0
151 162 0
149 160 0
148 156 0
149 160 0
150 162 0
141 150 0
147 157 0
144 153 0
145 154 0
151 159 0
146 155 0
146 156 0
145 153 0
144 154 0
149 160 0
137 144 0
151 157 0
144 151 0
150 157 0
154 163 0
148 156 0
145 149 0
147 153 0
143 148 0
145 149 0
143 151 0
154 161 0
145 152 0
150 155 0
144 150 0
146 150 0
145 152 0
143 151 0
151 156 0
144 151 0
137 141 0
153 161 0
147 150 0
142 146 0
150 159 0
148 155 0
145 153 0
147 152 0
146 150 0
153 160 0
149 157 0
152 158 0
154 161 0
148 153 0
156 162 0
155 163 0
154 161 0
141 148 0
157 163 0
151 159 0
154 160 0
148 154 0
149 156 0
152 161 0
149 155 0
146 155 0
153 160 0
154 159 0
157 165 0
162 172 0
156 166 0
154 160 0
155 163 0
156 165 0
152 157 0
160 172 0
154 161 0
155 163 0
153 159 0
156 166 0
157 167 0
151 157 0
162 181 0
167 186 0
159 179 0
163 182 0
162 180 0
161 179 0
160 180 0
155 173 0
160 178 0
156 175 0
154 173 0
164 182 0
159 178 0
158 176 0
156 174 0
161 179 0
156 174 0
158 175 0
152 170 0
153 171 0
155 174 0
159 178 0
150 167 0
161 179 0
158 176 0
158 176 0
151 168 0
149 166 0
157 175 0
154 171 0
150 168 0
153 171 0
154 172 0
147 163 0
159 177 0
156 174 0
150 167 0
149 167 0
152 169 0
151 168 0
150 168 0
148 165 0
152 170 0
149 167 0
152 169 0
145 161 0
151 169 0
147 165 0
152 170 0
154 172 0
155 173 0
156 174 0
147 164 0
153 172 0
154 173 0
153 171 0
146 164 0
153 171 0
151 169 0
150 168 0
144 163 0
148 166 0
148 165 0
150 168 0
143 161 0
143 161 0
150 169 0
145 162 0
151 169 0
152 171 0
148 167 0
153 172 0
142 161 0
146 164 0
149 167 0
155 175 0
148 167 0
138 156 0
146 165 0
145 165 0
143 162 0
146 165 0
149 167 0
145 164 0
149 168 0
152 172 0
149 169 0
148 168 0
149 168 0
145 164 0
145 164 0
142 160 0
140 160 0
147 167 0
142 162 0
148 169 0
141 161 0
149 170 0
151 170 0
150 169 0
154 175 0
144 165 0
137 158 0
147 168 0
143 164 0
147 167 0
142 161 0
145 166 0
148 167 0
146 166 0
139 158 0
150 171 0
147 167 0
150 171 0
141 162 0
149 168 0
137 158 0
152 174 0
140 160 0
143 163 0
144 165 0
150 171 0
142 162 0
138 157 0
144 164 0
147 167 0
147 168 0
146 167 0
140 161 0
142 163 0
151 172 0
144 165 0
143 163 0
144 164 0
141 162 0
150 172 0
146 166 0
133 154 0
145 165 0
145 165 0
137 158 0
145 167 0
136 156 0
140 160 0
144 165 0
145 166 0
139 161 0
132 152 0
152 172 0
146 167 0
146 168 0
138 159 0
142 163 0
145 166 0
142 163 0
152 174 0
147 168 0
143 164 0
139 160 0
147 168 0
142 163 0
142 163 0
149 170 0
135 156 0
135 155 0
140 161 0
140 161 0
139 159 0
129 149 0
146 167 0
140 161 0
127 148 0
143 164 0
138 159 0
145 166 0
139 160 0
143 163 0
135 155 0
139 160 0
130 151 0
135 155 0
137 158 0
130 150 0
141 162 0
136 155 0
136 157 0
138 159 0
143 163 0
137 158 0
133 154 0
142 161 0
132 153 0
134 155 0
146 167 0
138 158 0
140 161 0
138 157 0
133 153 0
142 163 0
138 158 0
137 158 0
133 153 0
133 153 0
135 154 0
138 158 0
133 154 0
131 149 0
137 157 0
143 162 0
140 161 0
137 157 0
145 166 0
140 157 0
140 161 0
141 162 0
132 152 0
138 159 0
142 163 0
137 158 0
142 164 0
139 158 0
139 160 0
140 160 0
134 153 0
146 166 0
141 161 0
132 151 0
133 150 0
140 161 0
142 162 0
131 149 0
142 159 0
141 162 0
148 167 0
140 160 0
138 157 0
141 160 0
139 160 0
135 154 0
137 156 0
142 161 0
140 158 0
133 151 0
141 160 0
132 152 0
138 158 0
142 162 0
141 160 0
146 167 0
142 161 0
142 163 0
137 155 0
145 163 0
139 158 0
145 164 0
144 162 0
147 166 0
144 163 0
146 165 0
150 169 0
148 167 0
143 160 0
141 159 0
151 170 0
140 157 0
140 157 0
147 164 0
143 162 0
138 154 0
149 168 0
140 156 0
138 157 0
140 157 0
140 156 0
138 156 0
138 155 0
143 160 0
149 165 0
150 167 0
141 159 0
152 169 0
145 159 0
151 169 0
141 156 0
139 154 0
150 166 0
150 165 0
142 159 0
148 164 0
141 156 0
145 161 0
139 154 0
150 165 0
143 159 0
147 162 0
147 164 0
139 155 0
147 164 0
142 156 0
153 169 0
151 165 0
142 155 0
137 147 0
151 165 0
145 159 0
151 163 0
144 159 0
147 161 0
134 144 0
146 157 0
141 154 0
144 156 0
147 161 0
145 156 0
154 170 0
146 158 0
143 153 0
153 166 0
144 154 0
144 153 0
143 154 0
145 156 0
145 154 0
148 159 0
141 153 0
142 151 0
141 149 0
145 159 0
150 160 0
152 161 0
153 161 0
149 159 0
149 158 0
144 153 0
147 158 0
146 156 0
146 155 0
145 154 0
143 150 0
156 167 0
144 154 0
150 158 0
146 153 0
148 156 0
146 153 0
135 140 0
148 154 0
144 152 0
146 153 0
139 145 0
146 154 0
146 152 0
146 151 0
145 151 0
150 156 0
146 153 0
146 154 0
155 163 0
155 163 0
150 155 0
152 160 0
149 156 0
153 160 0
148 154 0
146 152 0
152 162 0
146 149 0
152 158 0
146 152 0
147 152 0
146 151 0
147 154 0
157 165 0
153 162 0
153 160 0
153 160 0
149 155 0
146 153 0
154 162 0
158 166 0
149 156 0
154 162 0
156 163 0
155 164 0
154 164 0
157 164 0
152 160 0
153 160 0
154 163 0
153 161 0
162 174 0
155 163 0
161 169 0
158 169 0
156 167 0
163 171 0
159 169 0
157 166 0
157 166 0
156 164 0
163 182 0
155 173 0
160 179 0
161 181 0
158 178 0
160 179 0
162 181 0
155 174 0
159 176 0
166 185 0
158 177 0
161 179 0
163 181 0
154 172 0
162 179 0
156 173 0
158 176 0
155 174 0
158 176 0
157 175 0
165 184 0
157 175 0
156 174 0
156 174 0
149 166 0
155 174 0
162 180 0
154 172 0
152 170 0
153 171 0
153 170 0
154 172 0
157 175 0
154 171 0
153 170 0
155 174 0
156 175 0
150 169 0
145 162 0
148 166 0
156 174 0
151 168 0
148 166 0
152 170 0
157 177 0
150 168 0
146 164 0
149 167 0
149 167 0
150 168 0
157 177 0
150 168 0
150 168 0
151 169 0
152 171 0
150 169 0
156 174 0
150 168 0
142 161 0
156 175 0
147 165 0
153 173 0
145 163 0
155 174 0
152 171 0
154 173 0
153 172 0
151 169 0
145 163 0
153 172 0
153 173 0
146 165 0
148 167 0
152 171 0
147 166 0
143 161 0
144 164 0
153 173 0
148 168 0
146 165 0
142 161 0
142 160 0
152 172 0
145 163 0
150 170 0
142 161 0
147 167 0
142 161 0
160 180 0
145 165 0
149 169 0
157 177 0
146 165 0
142 162 0
150 171 0
151 171 0
150 171 0
146 165 0
147 168 0
144 166 0
148 168 0
137 157 0
150 169 0
144 163 0
142 162 0
149 171 0
144 163 0
145 166 0
151 172 0
141 162 0
151 173 0
153 174 0
145 165 0
137 158 0
150 172 0
147 167 0
147 167 0
144 165 0
149 171 0
151 171 0
142 163 0
146 167 0
146 166 0
144 165 0
149 170 0
144 165 0
152 173 0
135 156 0
142 162 0
149 171 0
136 157 0
143 165 0
145 165 0
142 162 0
148 169 0
139 161 0
141 162 0
137 158 0
144 165 0
144 165 0
143 164 0
151 173 0
138 158 0
152 173 0
142 163 0
149 170 0
148 170 0
145 166 0
142 163 0
142 162 0
150 170 0
136 156 0
147 166 0
140 161 0
140 162 0
144 165 0
140 161 0
141 163 0
140 162 0
137 157 0
143 164 0
137 158 0
134 154 0
138 158 0
134 154 0
149 171 0
137 159 0
144 164 0
142 164 0
138 158 0
134 155 0
139 159 0
142 163 0
143 164 0
140 160 0
135 157 0
137 158 0
148 169 0
142 163 0
149 170 0
142 164 0
142 163 0
131 152 0
142 163 0
148 169 0
135 156 0
140 162 0
132 152 0
132 154 0
144 165 0
142 162 0
137 157 0
143 165 0
135 154 0
144 164 0
140 161 0
127 146 0
133 154 0
138 158 0
140 162 0
142 164 0
134 154 0
138 157 0
132 152 0
128 148 0
139 160 0
137 156 0
144 165 0
134 155 0
145 165 0
135 156 0
143 164 0
142 163 0
140 159 0
142 163 0
131 151 0
135 153 0
143 162 0
136 155 0
134 154 0
138 157 0
146 167 0
137 157 0
143 164 0
146 167 0
146 166 0
133 152 0
136 157 0
141 161 0
135 155 0
143 162 0
141 158 0
140 159 0
143 163 0
134 153 0
133 152 0
140 159 0
144 164 0
144 164 0
139 159 0
144 163 0
138 155 0
146 165 0
147 166 0
144 163 0
141 161 0
140 160 0
150 170 0
142 161 0
134 150 0
146 167 0
144 161 0
141 160 0
137 154 0
144 163 0
131 150 0
139 157 0
142 160 0
148 168 0
146 164 0
141 159 0
141 158 0
148 166 0
143 161 0
137 156 0
141 158 0
151 169 0
145 164 0
147 166 0
141 158 0
143 160 0
145 164 0
144 160 0
143 159 0
140 159 0
142 158 0
146 164 0
140 157 0
146 162 0
147 164 0
148 166 0
141 158 0
139 157 0
147 164 0
140 157 0
144 161 0
154 171 0
151 169 0
149 166 0
150 166 0
148 164 0
145 162 0
144 160 0
147 163 0
153 167 0
153 169 0
136 149 0
151 165 0
148 159 0
150 164 0
138 152 0
143 156 0
153 166 0
149 163 0
150 164 0
144 157 0
141 155 0
152 168 0
135 147 0
144 157 0
141 155 0
134 147 0
148 159 0
149 162 0
144 155 0
146 158 0
145 156 0
140 152 0
148 161 0
148 162 0
142 155 0
150 162 0
146 156 0
154 168 0
147 160 0
151 163 0
145 156 0
146 161 0
150 158 0
145 156 0
144 151 0
150 160 0
145 155 0
147 158 0
140 144 0
146 157 0
143 150 0
145 153 0
145 153 0
145 154 0
143 153 0
150 160 0
150 160 0
152 163 0
143 148 0
148 155 0
154 162 0
146 152 0
149 158 0
151 159 0
152 162 0
146 152 0
147 157 0
154 163 0
150 157 0
152 159 0
147 154 0
145 152 0
148 155 0
157 164 0
151 157 0
148 153 0
151 158 0
149 157 0
147 154 0
153 161 0
150 156 0
145 151 0
147 154 0
152 161 0
148 156 0
144 150 0
150 158 0
160 170 0
156 162 0
155 161 0
155 165 0
150 156 0
149 154 0
152 160 0
151 159 0
154 161 0
149 157 0
153 159 0
152 161 0
145 151 0
155 163 0
154 162 0
160 170 0
155 164 0
159 170 0
151 161 0
155 162 0
155 163 0
159 167 0
158 165 0
151 158 0
158 166 0
155 164 0
157 168 0
162 182 0
160 178 0
161 180 0
159 177 0
158 177 0
160 179 0
158 177 0
155 174 0
160 178 0
155 172 0
155 173 0
157 176 0
157 176 0
154 172 0
159 178 0
158 176 0
160 178 0
160 178 0
161 178 0
154 172 0
158 176 0
156 175 0
154 172 0
156 174 0
151 169 0
154 171 0
156 174 0
158 176 0
153 171 0
156 174 0
154 172 0
156 174 0
155 173 0
153 173 0
155 174 0
153 172 0
155 174 0
153 171 0
150 167 0
147 164 0
156 174 0
153 172 0
152 171 0
147 165 0
148 166 0
147 165 0
156 174 0
153 171 0
151 170 0
155 172 0
153 172 0
156 175 0
156 174 0
155 174 0
143 161 0
151 170 0
150 168 0
147 167 0
144 161 0
146 166 0
145 163 0
148 167 0
156 175 0
152 171 0
148 167 0
156 175 0
152 171 0
151 170 0
152 171 0
150 169 0
148 167 0
147 167 0
144 163 0
145 165 0
146 165 0
151 170 0
151 170 0
147 167 0
149 168 0
147 167 0
151 171 0
150 169 0
145 165 0
141 160 0
150 170 0
150 171 0
151 171 0
148 166 0
147 166 0
145 166 0
147 168 0
145 164 0
149 169 0
150 171 0
147 167 0
144 165 0
141 161 0
152 172 0
138 158 0
146 165 0
145 165 0
149 169 0
142 163 0
151 173 0
142 163 0
152 172 0
149 169 0
149 170 0
153 173 0
146 166 0
144 164 0
148 167 0
156 178 0
144 164 0
147 169 0
152 174 0
147 168 0
147 168 0
150 171 0
146 168 0
144 164 0
145 166 0
141 162 0
151 172 0
141 163 0
147 167 0
151 172 0
145 166 0
149 171 0
145 167 0
138 158 0
140 160 0
142 163 0
144 164 0
144 165 0
145 167 0
148 171 0
148 170 0
142 164 0
132 154 0
145 167 0
147 168 0
140 160 0
143 164 0
142 162 0
147 168 0
147 168 0
141 162 0
138 159 0
144 166 0
141 161 0
140 162 0
147 169 0
144 165 0
142 163 0
139 161 0
149 169 0
146 166 0
132 153 0
141 161 0
145 166 0
142 163 0
138 158 0
138 158 0
145 167 0
148 170 0
145 166 0
144 164 0
147 169 0
136 156 0
135 155 0
139 162 0
132 154 0
138 159 0
147 168 0
146 166 0
143 164 0
143 164 0
143 164 0
143 165 0
141 162 0
137 158 0
143 164 0
138 159 0
147 167 0
143 164 0
129 149 0
142 163 0
143 164 0
151 171 0
148 170 0
128 148 0
137 157 0
130 151 0
141 162 0
141 162 0
131 152 0
135 155 0
140 161 0
147 169 0
144 166 0
136 155 0
139 160 0
139 161 0
138 158 0
145 166 0
146 166 0
142 160 0
144 165 0
136 157 0
149 171 0
136 156 0
142 163 0
142 162 0
144 164 0
144 163 0
141 162 0
150 170 0
134 153 0
136 156 0
138 159 0
146 167 0
123 142 0
141 163 0
144 165 0
143 163 0
149 169 0
148 169 0
143 163 0
140 160 0
136 156 0
145 165 0
140 160 0
138 157 0
137 157 0
137 157 0
135 153 0
139 158 0
138 158 0
146 167 0
141 161 0
140 158 0
145 164 0
136 156 0
135 152 0
135 152 0
147 165 0
147 165 0
141 159 0
142 162 0
150 170 0
142 161 0
144 163 0
143 163 0
143 163 0
143 163 0
142 163 0
153 173 0
139 158 0
141 160 0
141 160 0
133 152 0
152 169 0
140 159 0
149 167 0
149 167 0
146 162 0
149 165 0
150 168 0
141 157 0
146 163 0
152 169 0
135 153 0
142 160 0
149 168 0
150 166 0
136 153 0
140 158 0
148 166 0
148 164 0
139 155 0
148 165 0
141 160 0
149 167 0
152 167 0
146 163 0
147 165 0
143 158 0
143 160 0
137 154 0
149 166 0
143 160 0
144 159 0
146 163 0
141 155 0
143 159 0
148 166 0
153 170 0
141 158 0
150 166 0
145 160 0
156 173 0
149 162 0
148 163 0
145 160 0
150 163 0
143 158 0
147 161 0
141 155 0
142 156 0
150 162 0
147 160 0
147 161 0
142 156 0
155 167 0
150 164 0
155 169 0
140 153 0
150 167 0
148 162 0
147 158 0
139 151 0
146 157 0
152 166 0
155 168 0
146 159 0
145 155 0
142 155 0
156 170 0
146 160 0
150 162 0
155 165 0
147 158 0
148 158 0
147 155 0
149 159 0
146 156 0
146 156 0
155 164 0
145 155 0
146 156 0
148 155 0
150 159 0
145 153 0
149 156 0
154 167 0
153 165 0
145 154 0
150 159 0
149 155 0
145 150 0
136 141 0
143 153 0
148 155 0
151 157 0
145 153 0
150 158 0
155 165 0
152 160 0
149 154 0
146 153 0
150 159 0
154 161 0
154 159 0
145 151 0
145 155 0
154 163 0
154 160 0
151 157 0
152 161 0
148 153 0
151 159 0
149 156 0
153 159 0
156 164 0
151 159 0
158 167 0
153 160 0
156 164 0
146 151 0
154 162 0
154 162 0
156 166 0
149 157 0
150 157 0
162 168 0
156 163 0
158 167 0
152 161 0
150 158 0
161 172 0
160 169 0
156 167 0
155 166 0
158 166 0
155 162 0
159 166 0
156 166 0
152 160 0
154 162 0
157 176 0
159 178 0
165 184 0
162 181 0
161 180 0
159 177 0
160 179 0
157 175 0
158 176 0
157 174 0
156 174 0
153 171 0
154 172 0
153 171 0
150 169 0
158 176 0
162 181 0
154 172 0
157 176 0
156 174 0
157 175 0
155 173 0
156 175 0
157 175 0
155 172 0
154 172 0
151 169 0
160 179 0
156 174 0
146 164 0
148 167 0
158 178 0
159 178 0
150 167 0
159 177 0
157 175 0
151 168 0
156 173 0
144 162 0
158 178 0
153 171 0
153 171 0
156 174 0
150 168 0
150 168 0
153 170 0
153 172 0
155 174 0
150 169 0
156 175 0
152 170 0
156 176 0
152 171 0
157 176 0
148 166 0
145 163 0
148 166 0
151 170 0
152 171 0
148 166 0
156 175 0
152 170 0
153 172 0
150 169 0
149 168 0
147 166 0
154 172 0
149 167 0
153 172 0
146 166 0
148 167 0
151 169 0
159 179 0
144 162 0
144 163 0
150 169 0
143 162 0
148 168 0
148 168 0
146 167 0
151 170 0
148 167 0
147 167 0
146 167 0
145 164 0
151 170 0
144 164 0
149 168 0
149 171 0
145 165 0
144 164 0
155 174 0
151 172 0
157 177 0
152 175 0
149 169 0
146 167 0
152 172 0
145 166 0
154 174 0
153 173 0
147 168 0
139 160 0
147 167 0
148 170 0
145 166 0
149 168 0
149 170 0
146 167 0
154 174 0
147 168 0
146 166 0
137 158 0
145 165 0
147 167 0
149 169 0
143 164 0
147 168 0
139 160 0
150 172 0
149 171 0
148 170 0
147 169 0
145 165 0
149 170 0
155 176 0
148 169 0
147 167 0
149 170 0
143 165 0
143 164 0
141 162 0
151 173 0
144 165 0
138 160 0
147 168 0
147 168 0
152 173 0
145 166 0
144 166 0
156 177 0
154 176 0
136 159 0
147 167 0
138 159 0
142 163 0
145 166 0
142 164 0
143 164 0
142 163 0
138 159 0
147 167 0
152 173 0
145 166 0
141 163 0
139 160 0
143 163 0
147 169 0
135 157 0
135 157 0
143 162 0
148 169 0
141 162 0
140 161 0
142 162 0
144 165 0
147 168 0
140 161 0
142 164 0
141 162 0
147 168 0
137 157 0
145 166 0
138 159 0
146 169 0
135 156 0
133 153 0
139 159 0
148 168 0
134 154 0
143 164 0
137 159 0
144 166 0
143 164 0
146 166 0
141 160 0
145 166 0
142 164 0
148 169 0
140 162 0
140 160 0
138 159 0
143 163 0
146 167 0
144 165 0
135 154 0
142 163 0
135 155 0
142 163 0
135 155 0
134 155 0
142 163 0
144 165 0
138 158 0
145 166 0
146 168 0
138 160 0
141 161 0
148 171 0
139 159 0
134 154 0
135 155 0
146 166 0
143 163 0
125 145 0
143 163 0
142 162 0
144 164 0
139 159 0
142 164 0
133 152 0
144 165 0
141 161 0
142 162 0
144 164 0
141 162 0
146 167 0
144 164 0
143 164 0
146 167 0
141 162 0
142 163 0
137 155 0
142 161 0
147 166 0
139 159 0
144 163 0
132 151 0
150 171 0
137 158 0
136 153 0
134 154 0
145 164 0
140 159 0
137 156 0
145 164 0
143 162 0
143 162 0
147 168 0
137 157 0
145 163 0
134 156 0
150 171 0
153 172 0
139 159 0
142 161 0
141 161 0
140 158 0
139 156 0
146 166 0
138 156 0
151 170 0
139 158 0
139 157 0
151 169 0
148 163 0
144 163 0
136 154 0
135 152 0
138 157 0
147 166 0
135 150 0
144 163 0
149 168 0
140 158 0
138 154 0
143 163 0
143 161 0
151 171 0
139 153 0
154 169 0
147 166 0
138 156 0
148 165 0
143 161 0
143 160 0
146 162 0
152 169 0
138 154 0
138 151 0
148 164 0
144 161 0
145 162 0
148 163 0
148 167 0
147 163 0
147 163 0
145 161 0
149 166 0
142 155 0
147 161 0
150 165 0
147 164 0
148 165 0
145 161 0
147 162 0
146 161 0
142 156 0
153 166 0
149 162 0
148 162 0
145 160 0
144 158 0
151 166 0
149 164 0
143 157 0
149 165 0
154 167 0
148 161 0
150 164 0
144 158 0
150 163 0
145 154 0
151 162 0
151 166 0
155 170 0
151 162 0
151 162 0
153 167 0
142 151 0
142 152 0
150 165 0
146 159 0
147 160 0
145 155 0
148 159 0
151 161 0
146 157 0
150 159 0
147 156 0
143 150 0
150 161 0
147 157 0
150 163 0
154 165 0
151 161 0
152 161 0
155 164 0
140 149 0
142 150 0
153 165 0
147 156 0
150 161 0
152 161 0
149 154 0
157 167 0
146 154 0
150 156 0
148 157 0
148 156 0
148 156 0
147 155 0
149 158 0
153 161 0
157 168 0
153 162 0
145 150 0
141 150 0
151 160 0
152 160 0
156 163 0
149 156 0
148 155 0
153 161 0
148 156 0
151 157 0
150 158 0
153 160 0
161 170 0
153 163 0
152 158 0
157 167 0
155 164 0
152 161 0
149 155 0
151 159 0
152 160 0
153 162 0
157 164 0
152 160 0
150 156 0
157 166 0
155 163 0
156 165 0
157 166 0
156 164 0
154 163 0
158 169 0
156 166 0
159 172 0
160 179 0
158 177 0
159 178 0
159 178 0
153 171 0
161 179 0
160 178 0
157 176 0
161 180 0
159 178 0
161 180 0
155 173 0
156 175 0
154 173 0
156 174 0
155 172 0
156 175 0
158 176 0
153 172 0
156 175 0
159 177 0
157 176 0
158 177 0
157 177 0
156 174 0
148 166 0
154 171 0
147 166 0
155 173 0
158 177 0
156 175 0
158 177 0
153 172 0
159 178 0
148 166 0
152 170 0
149 166 0
153 171 0
153 172 0
150 170 0
149 167 0
151 170 0
151 169 0
145 164 0
153 172 0
159 178 0
150 168 0
151 170 0
158 177 0
158 178 0
148 166 0
160 178 0
149 167 0
157 176 0
149 167 0
149 168 0
155 174 0
153 171 0
160 180 0
147 165 0
152 172 0
149 169 0
155 175 0
146 165 0
142 162 0
151 170 0
153 173 0
147 165 0
150 169 0
154 173 0
156 176 0
150 169 0
145 164 0
148 168 0
146 166 0
140 160 0
153 173 0
147 167 0
140 159 0
151 171 0
152 172 0
155 174 0
146 165 0
147 166 0
152 172 0
148 167 0
147 166 0
152 173 0
149 169 0
148 168 0
138 157 0
147 167 0
148 167 0
157 178 0
160 181 0
150 171 0
156 177 0
146 166 0
149 169 0
150 169 0
150 168 0
149 170 0
141 162 0
147 167 0
146 166 0
148 170 0
146 168 0
149 171 0
154 176 0
151 172 0
147 168 0
143 164 0
148 169 0
148 168 0
146 166 0
151 171 0
143 164 0
151 172 0
153 176 0
145 165 0
142 164 0
149 170 0
148 170 0
146 167 0
152 174 0
144 165 0
144 166 0
151 174 0
143 165 0
144 165 0
152 172 0
148 168 0
141 162 0
147 168 0
141 162 0
151 172 0
148 169 0
148 169 0
152 172 0
147 167 0
144 164 0
136 157 0
143 165 0
140 161 0
142 163 0
136 158 0
146 167 0
145 166 0
149 171 0
146 168 0
144 165 0
140 162 0
139 160 0
141 162 0
156 178 0
145 166 0
137 158 0
135 153 0
140 162 0
137 158 0
145 166 0
140 161 0
141 163 0
150 173 0
145 166 0
145 167 0
141 162 0
146 167 0
144 165 0
148 168 0
137 158 0
139 160 0
135 155 0
137 159 0
142 162 0
144 165 0
140 160 0
145 166 0
146 169 0
139 160 0
138 158 0
135 156 0
134 155 0
145 165 0
148 169 0
140 162 0
149 171 0
150 169 0
133 154 0
137 157 0
138 160 0
144 165 0
146 167 0
147 168 0
143 163 0
138 159 0
140 161 0
142 163 0
144 164 0
131 151 0
138 159 0
144 166 0
132 152 0
142 162 0
140 161 0
148 169 0
145 165 0
143 165 0
138 158 0
141 161 0
148 169 0
141 160 0
145 166 0
141 162 0
143 163 0
148 170 0
147 168 0
139 159 0
143 162 0
142 162 0
135 156 0
143 164 0
138 157 0
136 155 0
147 166 0
144 165 0
134 153 0
145 166 0
143 161 0
141 161 0
146 166 0
145 166 0
141 162 0
147 168 0
138 160 0
140 159 0
149 168 0
139 160 0
147 167 0
144 162 0
153 172 0
147 166 0
143 163 0
148 169 0
146 164 0
143 164 0
141 161 0
140 159 0
147 167 0
145 165 0
144 163 0
146 164 0
143 162 0
146 164 0
146 164 0
145 165 0
144 164 0
145 163 0
143 162 0
138 155 0
147 167 0
139 158 0
155 176 0
133 152 0
146 165 0
144 163 0
146 166 0
148 166 0
151 172 0
142 159 0
141 158 0
142 160 0
144 164 0
143 159 0
145 164 0
151 169 0
140 158 0
149 167 0
148 167 0
148 166 0
156 176 0
135 151 0
147 166 0
139 156 0
151 168 0
140 157 0
143 161 0
140 157 0
139 154 0
139 156 0
146 162 0
139 156 0
143 160 0
146 162 0
141 158 0
146 164 0
150 168 0
140 156 0
152 169 0
151 165 0
148 164 0
149 163 0
147 161 0
140 154 0
148 165 0
149 165 0
150 165 0
144 158 0
154 171 0
146 162 0
147 161 0
152 168 0
147 161 0
149 166 0
144 159 0
145 157 0
148 161 0
144 158 0
148 160 0
146 160 0
148 162 0
147 159 0
149 161 0
143 156 0
145 157 0
147 162 0
148 164 0
147 158 0
155 170 0
147 157 0
140 150 0
144 154 0
147 157 0
149 162 0
150 164 0
147 160 0
148 159 0
154 167 0
146 156 0
150 159 0
159 168 0
158 171 0
152 164 0
148 157 0
145 156 0
153 165 0
148 157 0
148 158 0
149 159 0
158 169 0
148 157 0
147 153 0
152 161 0
148 155 0
150 160 0
153 162 0
148 155 0
152 161 0
143 151 0
149 157 0
152 158 0
148 159 0
142 150 0
156 167 0
154 163 0
147 154 0
148 153 0
149 158 0
151 157 0
148 157 0
161 171 0
155 164 0
147 156 0
148 155 0
153 163 0
148 154 0
152 160 0
148 156 0
157 168 0
149 156 0
158 167 0
157 167 0
150 158 0
153 161 0
159 168 0
154 163 0
158 167 0
152 158 0
166 177 0
154 162 0
153 162 0
152 160 0
158 168 0
154 163 0
153 162 0
152 161 0
163 172 0
155 164 0
161 172 0
160 170 0
164 183 0
152 171 0
160 179 0
158 176 0
159 179 0
158 177 0
160 179 0
156 175 0
156 173 0
157 176 0
160 179 0
159 178 0
154 173 0
160 179 0
158 177 0
155 174 0
155 173 0
153 172 0
153 172 0
162 181 0
158 176 0
153 171 0
162 180 0
160 179 0
155 173 0
153 170 0
157 175 0
150 169 0
156 174 0
155 173 0
148 167 0
154 174 0
149 169 0
156 176 0
154 173 0
150 169 0
159 178 0
153 172 0
156 174 0
153 171 0
148 165 0
146 165 0
154 172 0
158 177 0
155 174 0
154 173 0
148 167 0
151 170 0
154 173 0
156 175 0
149 168 0
152 171 0
151 169 0
152 171 0
147 166 0
153 172 0
150 169 0
155 173 0
148 168 0
151 169 0
155 174 0
151 171 0
147 167 0
148 168 0
149 169 0
159 177 0
154 172 0
156 175 0
143 163 0
148 168 0
157 177 0
155 175 0
151 171 0
148 168 0
144 163 0
151 171 0
145 166 0
146 165 0
144 164 0
153 173 0
153 173 0
154 175 0
156 176 0
150 169 0
146 166 0
148 167 0
149 168 0
157 178 0
147 168 0
147 166 0
145 166 0
148 169 0
148 168 0
148 168 0
145 165 0
137 156 0
140 160 0
145 166 0
148 168 0
145 167 0
153 173 0
153 173 0
146 167 0
159 179 0
148 168 0
146 165 0
147 167 0
142 162 0
143 163 0
149 171 0
140 161 0
150 171 0
148 169 0
148 169 0
149 170 0
150 171 0
143 164 0
145 166 0
153 174 0
153 173 0
146 166 0
149 171 0
147 168 0
148 168 0
142 162 0
146 169 0
141 161 0
149 170 0
145 166 0
152 173 0
152 174 0
141 161 0
141 163 0
146 167 0
140 160 0
149 171 0
141 162 0
148 170 0
146 168 0
150 171 0
150 171 0
141 162 0
147 168 0
143 165 0
145 166 0
148 169 0
146 168 0
146 168 0
147 169 0
150 170 0
149 171 0
142 162 0
147 169 0
143 165 0
141 162 0
144 164 0
140 162 0
150 172 0
148 169 0
150 172 0
145 167 0
145 166 0
141 163 0
143 164 0
144 165 0
134 155 0
144 164 0
142 162 0
145 166 0
135 156 0
149 172 0
141 162 0
147 168 0
139 162 0
142 164 0
142 163 0
139 160 0
142 164 0
139 159 0
141 162 0
137 159 0
137 158 0
147 169 0
132 152 0
147 168 0
138 159 0
139 159 0
144 165 0
145 166 0
133 153 0
135 156 0
140 162 0
135 156 0
151 174 0
144 166 0
139 159 0
132 151 0
148 167 0
140 161 0
144 165 0
139 159 0
139 160 0
131 152 0
136 157 0
139 160 0
147 167 0
144 164 0
139 160 0
141 161 0
143 162 0
143 165 0
135 155 0
139 159 0
133 155 0
149 170 0
148 168 0
144 166 0
136 155 0
140 160 0
139 161 0
134 154 0
141 160 0
139 157 0
147 166 0
134 155 0
145 167 0
144 164 0
146 165 0
150 171 0
145 165 0
136 156 0
138 157 0
145 165 0
143 165 0
145 165 0
143 162 0
145 165 0
140 159 0
145 165 0
151 170 0
143 163 0
142 161 0
142 161 0
145 164 0
149 169 0
144 163 0
134 152 0
143 162 0
143 163 0
138 158 0
149 168 0
142 161 0
144 162 0
145 165 0
145 166 0
152 171 0
134 152 0
147 167 0
137 154 0
144 162 0
146 165 0
149 168 0
144 164 0
141 157 0
149 168 0
146 166 0
144 165 0
145 164 0
148 167 0
147 166 0
151 168 0
149 166 0
151 169 0
149 165 0
152 170 0
143 160 0
150 169 0
143 161 0
147 166 0
148 166 0
147 166 0
145 163 0
146 164 0
141 156 0
150 167 0
139 157 0
148 166 0
147 164 0
149 167 0
143 159 0
140 158 0
157 175 0
144 159 0
154 170 0
139 154 0
152 167 0
140 158 0
151 171 0
155 169 0
150 165 0
145 162 0
142 158 0
150 167 0
143 159 0
148 164 0
149 166 0
154 171 0
138 155 0
151 164 0
146 160 0
141 157 0
152 168 0
156 172 0
149 164 0
144 158 0
146 161 0
144 158 0
148 162 0
150 164 0
151 164 0
145 156 0
147 160 0
149 163 0
143 155 0
146 157 0
152 167 0
149 161 0
156 171 0
148 161 0
143 154 0
150 162 0
154 166 0
144 155 0
148 159 0
149 161 0
152 164 0
151 163 0
155 164 0
152 165 0
152 166 0
146 156 0
143 155 0
157 169 0
153 166 0
148 157 0
149 160 0
153 162 0
151 160 0
146 155 0
149 158 0
148 159 0
146 155 0
152 161 0
146 156 0
151 159 0
147 156 0
149 159 0
154 166 0
153 165 0
148 158 0
149 159 0
147 155 0
154 164 0
152 163 0
147 154 0
152 160 0
149 159 0
149 157 0
149 157 0
149 160 0
155 164 0
146 156 0
148 156 0
149 157 0
155 165 0
145 152 0
151 159 0
151 160 0
155 164 0
149 156 0
146 153 0
155 163 0
150 158 0
152 162 0
153 158 0
155 165 0
155 166 0
152 159 0
152 159 0
161 170 0
151 158 0
160 172 0
152 158 0
157 164 0
154 161 0
155 165 0
152 159 0
154 164 0
156 165 0
157 167 0
156 175 0
160 180 0
164 184 0
161 179 0
157 176 0
163 184 0
160 178 0
158 176 0
157 176 0
158 178 0
158 176 0
161 181 0
150 169 0
158 177 0
160 180 0
161 180 0
156 174 0
156 175 0
160 179 0
156 175 0
153 172 0
153 172 0
159 177 0
159 179 0
160 178 0
155 173 0
154 172 0
157 176 0
159 178 0
149 167 0
153 171 0
155 174 0
156 174 0
155 174 0
153 172 0
157 175 0
155 175 0
152 171 0
156 175 0
153 172 0
153 172 0
153 172 0
151 171 0
152 170 0
150 168 0
154 174 0
160 178 0
153 173 0
153 172 0
150 169 0
153 171 0
155 175 0
142 160 0
153 172 0
151 171 0
157 176 0
148 167 0
152 171 0
148 168 0
146 165 0
152 172 0
149 168 0
149 168 0
145 165 0
155 176 0
151 171 0
151 171 0
153 172 0
153 173 0
154 173 0
148 169 0
155 174 0
150 171 0
157 177 0
152 171 0
152 172 0
149 170 0
151 171 0
146 165 0
153 172 0
151 170 0
147 168 0
153 173 0
139 159 0
149 169 0
145 165 0
149 170 0
146 166 0
155 175 0
146 166 0
149 169 0
153 172 0
149 170 0
148 168 0
148 170 0
153 174 0
143 163 0
151 170 0
148 169 0
147 168 0
153 174 0
146 166 0
153 173 0
152 174 0
144 164 0
143 165 0
154 176 0
147 167 0
159 180 0
144 165 0
151 172 0
152 173 0
152 173 0
150 172 0
152 174 0
151 173 0
140 161 0
150 171 0
145 167 0
139 159 0
144 165 0
147 168 0
142 163 0
146 166 0
147 169 0
150 171 0
142 163 0
140 161 0
142 162 0
142 164 0
144 164 0
142 162 0
153 174 0
145 167 0
138 159 0
151 172 0
142 164 0
151 172 0
147 169 0
157 178 0
148 169 0
144 167 0
148 168 0
152 173 0
152 174 0
153 174 0
144 166 0
149 170 0
140 162 0
143 165 0
144 166 0
146 167 0
144 164 0
147 170 0
140 161 0
149 171 0
141 161 0
149 172 0
146 168 0
142 164 0
148 170 0
143 164 0
141 163 0
147 168 0
144 165 0
141 161 0
138 158 0
140 161 0
143 164 0
147 168 0
144 165 0
148 170 0
140 160 0
141 163 0
145 167 0
145 167 0
143 164 0
142 163 0
132 153 0
147 168 0
139 159 0
142 163 0
141 162 0
141 162 0
143 162 0
140 161 0
141 162 0
136 157 0
144 166 0
143 163 0
145 166 0
147 169 0
131 152 0
144 165 0
146 168 0
141 163 0
141 162 0
143 165 0
138 160 0
144 164 0
142 164 0
141 162 0
139 160 0
137 158 0
139 161 0
142 163 0
144 164 0
144 165 0
144 165 0
140 159 0
152 174 0
136 157 0
142 162 0
137 158 0
136 155 0
135 154 0
141 161 0
143 164 0
147 169 0
143 165 0
140 159 0
142 161 0
150 172 0
146 166 0
138 157 0
141 161 0
140 161 0
143 164 0
146 166 0
148 167 0
143 163 0
147 166 0
141 162 0
150 170 0
146 167 0
140 160 0
147 168 0
148 168 0
148 168 0
145 165 0
147 167 0
140 162 0
141 161 0
142 162 0
138 157 0
151 171 0
144 164 0
142 162 0
136 155 0
155 176 0
143 163 0
144 164 0
151 172 0
147 164 0
146 166 0
144 164 0
155 177 0
149 167 0
149 169 0
150 170 0
146 164 0
144 162 0
146 166 0
152 170 0
143 161 0
150 169 0
144 164 0
152 170 0
150 169 0
136 153 0
148 169 0
144 164 0
146 162 0
146 165 0
150 169 0
145 165 0
145 164 0
144 162 0
149 166 0
146 162 0
148 166 0
147 166 0
151 169 0
150 168 0
145 163 0
144 161 0
154 172 0
149 166 0
148 167 0
150 167 0
147 163 0
151 167 0
138 155 0
144 160 0
150 168 0
153 169 0
146 162 0
150 167 0
149 168 0
139 155 0
144 157 0
144 162 0
147 162 0
147 159 0
151 166 0
145 159 0
148 165 0
151 165 0
151 167 0
145 159 0
150 166 0
147 161 0
148 162 0
147 160 0
145 160 0
150 166 0
148 162 0
149 163 0
146 160 0
153 165 0
144 159 0
147 162 0
154 168 0
156 170 0
147 159 0
148 164 0
152 167 0
149 162 0
144 158 0
149 163 0
150 161 0
149 160 0
151 165 0
151 162 0
153 166 0
147 161 0
145 157 0
146 157 0
158 168 0
145 157 0
152 163 0
148 159 0
153 165 0
154 166 0
154 165 0
154 164 0
151 161 0
150 160 0
144 157 0
143 150 0
151 160 0
155 167 0
151 162 0
152 164 0
155 166 0
152 164 0
151 159 0
150 159 0
154 166 0
158 169 0
147 155 0
160 171 0
150 161 0
147 153 0
155 167 0
150 160 0
147 157 0
156 169 0
150 156 0
157 166 0
147 154 0
158 170 0
150 158 0
150 157 0
154 165 0
149 158 0
151 159 0
157 165 0
155 164 0
155 162 0
152 163 0
160 172 0
158 170 0
152 160 0
152 161 0
148 154 0
150 159 0
156 165 0
156 167 0
155 165 0
158 168 0
150 159 0
153 162 0
159 169 0
154 162 0
157 165 0
154 162 0
159 169 0
154 165 0
154 163 0
160 178 0
162 181 0
155 175 0
163 182 0
156 176 0
165 184 0
160 180 0
158 176 0
156 174 0
161 180 0
157 176 0
161 179 0
155 174 0
159 177 0
151 169 0
157 177 0
157 176 0
160 178 0
160 179 0
160 179 0
156 176 0
155 174 0
158 176 0
159 178 0
163 182 0
156 175 0
160 180 0
154 172 0
156 176 0
160 179 0
152 170 0
156 175 0
152 171 0
163 181 0
157 175 0
151 170 0
150 167 0
149 166 0
154 174 0
154 172 0
151 170 0
159 178 0
154 173 0
149 168 0
147 166 0
152 171 0
153 172 0
153 172 0
152 172 0
150 169 0
155 174 0
150 169 0
152 172 0
150 169 0
145 163 0
148 167 0
158 176 0
155 174 0
148 167 0
148 168 0
153 172 0
155 174 0
154 174 0
159 179 0
152 171 0
152 171 0
149 169 0
154 173 0
153 173 0
148 167 0
152 171 0
147 166 0
152 172 0
149 170 0
156 176 0
151 172 0
149 169 0
148 168 0
152 173 0
152 173 0
147 167 0
151 170 0
155 175 0
156 177 0
149 169 0
145 166 0
155 176 0
148 169 0
154 176 0
146 165 0
152 172 0
146 166 0
150 172 0
151 172 0
150 171 0
150 171 0
147 168 0
144 166 0
156 178 0
151 173 0
148 169 0
146 166 0
146 167 0
149 171 0
150 170 0
152 172 0
151 172 0
154 176 0
150 171 0
147 169 0
146 166 0
149 171 0
148 169 0
152 171 0
152 173 0
143 164 0
142 163 0
151 173 0
148 168 0
143 164 0
133 153 0
153 174 0
147 169 0
148 169 0
147 167 0
144 165 0
151 173 0
148 169 0
153 173 0
156 178 0
150 171 0
152 174 0
144 166 0
148 168 0
149 171 0
146 166 0
138 160 0
152 174 0
142 164 0
142 162 0
140 162 0
147 168 0
150 171 0
143 164 0
148 170 0
149 171 0
150 171 0
143 164 0
151 173 0
138 160 0
149 170 0
140 162 0
140 162 0
137 159 0
138 160 0
147 169 0
147 168 0
139 160 0
137 158 0
149 169 0
136 158 0
135 156 0
143 163 0
142 163 0
149 169 0
143 163 0
137 158 0
153 175 0
151 172 0
146 167 0
144 166 0
152 174 0
138 160 0
142 164 0
139 161 0
139 160 0
124 145 0
137 158 0
146 168 0
150 170 0
152 172 0
141 162 0
146 168 0
144 165 0
139 161 0
143 164 0
132 152 0
149 170 0
140 161 0
141 163 0
137 158 0
137 158 0
141 163 0
153 173 0
145 165 0
142 163 0
147 168 0
145 165 0
151 172 0
140 160 0
136 155 0
141 160 0
153 173 0
148 170 0
147 167 0
136 158 0
133 154 0
144 164 0
146 166 0
146 167 0
148 169 0
144 165 0
135 156 0
142 161 0
144 164 0
141 163 0
143 163 0
148 169 0
140 161 0
143 164 0
145 165 0
144 166 0
150 170 0
147 168 0
138 157 0
139 160 0
145 165 0
141 162 0
146 167 0
142 162 0
146 167 0
151 172 0
140 161 0
142 163 0
143 164 0
138 157 0
148 168 0
146 166 0
146 165 0
150 172 0
143 163 0
145 166 0
141 161 0
142 160 0
142 161 0
139 159 0
140 159 0
153 173 0
144 162 0
141 159 0
147 167 0
142 159 0
140 159 0
144 163 0
145 164 0
143 163 0
143 162 0
145 165 0
144 163 0
145 165 0
149 168 0
147 166 0
150 169 0
133 152 0
147 165 0
152 172 0
138 157 0
146 162 0
143 163 0
144 162 0
145 164 0
136 152 0
146 164 0
138 157 0
148 167 0
139 159 0
147 166 0
140 156 0
149 167 0
151 170 0
157 175 0
150 167 0
147 165 0
140 159 0
145 163 0
153 170 0
150 169 0
144 161 0
141 157 0
149 165 0
151 167 0
151 167 0
147 162 0
148 163 0
145 159 0
140 154 0
158 177 0
153 168 0
154 170 0
152 169 0
151 167 0
149 166 0
151 168 0
146 160 0
141 155 0
150 164 0
153 169 0
151 166 0
148 165 0
143 158 0
157 174 0
145 161 0
142 157 0
145 160 0
149 166 0
150 166 0
146 160 0
150 163 0
146 160 0
149 165 0
153 165 0
144 157 0
147 161 0
148 165 0
150 164 0
143 157 0
153 166 0
158 173 0
139 149 0
147 162 0
155 168 0
151 165 0
146 158 0
152 165 0
152 165 0
148 160 0
150 162 0
151 162 0
151 163 0
149 161 0
151 163 0
143 152 0
158 171 0
154 167 0
155 167 0
151 163 0
150 162 0
154 167 0
146 158 0
150 160 0
153 162 0
152 164 0
152 160 0
152 163 0
140 150 0
158 170 0
149 160 0
152 162 0
145 153 0
152 162 0
150 156 0
149 158 0
154 163 0
153 163 0
158 170 0
147 154 0
156 164 0
151 162 0
150 161 0
150 160 0
151 159 0
161 173 0
154 164 0
155 163 0
154 165 0
152 162 0
155 160 0
157 164 0
156 163 0
156 168 0
152 161 0
162 171 0
155 165 0
145 152 0
150 158 0
157 166 0
156 164 0
150 158 0
155 167 0
158 168 0
156 167 0
154 164 0
158 167 0
158 166 0
151 162 0
163 175 0
156 165 0
154 164 0
159 171 0
158 169 0
156 175 0
160 179 0
158 178 0
159 178 0
164 184 0
159 178 0
157 176 0
161 179 0
161 180 0
158 176 0
160 179 0
155 174 0
151 170 0
157 176 0
160 178 0
152 172 0
160 179 0
153 173 0
154 173 0
158 177 0
161 180 0
158 177 0
159 178 0
153 173 0
152 171 0
151 170 0
153 173 0
151 169 0
157 176 0
156 175 0
153 172 0
158 177 0
154 175 0
155 175 0
158 177 0
159 178 0
151 170 0
145 164 0
156 175 0
155 173 0
155 173 0
154 174 0
160 179 0
157 176 0
152 171 0
150 169 0
156 176 0
154 174 0
150 169 0
153 172 0
150 170 0
154 173 0
153 172 0
157 177 0
153 172 0
151 170 0
156 176 0
151 171 0
156 176 0
150 170 0
147 167 0
153 174 0
155 174 0
155 174 0
151 172 0
151 170 0
148 167 0
152 172 0
152 172 0
154 173 0
148 167 0
156 177 0
151 171 0
151 172 0
159 179 0
153 173 0
148 168 0
150 170 0
148 168 0
150 169 0
150 170 0
149 170 0
149 170 0
152 173 0
144 164 0
144 164 0
151 173 0
153 174 0
151 172 0
145 165 0
142 162 0
150 171 0
151 173 0
145 166 0
142 163 0
143 164 0
151 172 0
139 160 0
148 169 0
154 174 0
146 167 0
138 158 0
142 163 0
152 173 0
154 175 0
153 174 0
150 171 0
150 172 0
149 170 0
148 170 0
147 168 0
149 170 0
154 175 0
142 163 0
144 166 0
150 171 0
148 169 0
152 172 0
149 171 0
150 172 0
149 171 0
148 169 0
147 168 0
142 163 0
150 173 0
148 169 0
145 166 0
149 170 0
152 173 0
152 173 0
151 172 0
147 169 0
153 175 0
143 164 0
154 175 0
132 154 0
147 167 0
150 172 0
149 170 0
152 173 0
146 169 0
147 169 0
142 162 0
143 163 0
146 167 0
142 163 0
148 169 0
140 162 0
140 161 0
146 167 0
150 172 0
145 167 0
144 165 0
147 169 0
142 163 0
143 164 0
138 159 0
146 168 0
149 170 0
146 166 0
141 162 0
141 162 0
140 162 0
146 167 0
146 167 0
149 171 0
145 166 0
138 159 0
142 164 0
146 167 0
146 167 0
140 160 0
146 167 0
146 167 0
146 168 0
147 169 0
144 165 0
146 167 0
142 163 0
145 165 0
143 166 0
143 163 0
146 166 0
141 162 0
154 176 0
146 167 0
145 165 0
149 171 0
147 169 0
141 162 0
137 158 0
142 163 0
149 170 0
141 162 0
148 170 0
145 166 0
148 169 0
137 157 0
134 155 0
138 160 0
144 165 0
147 169 0
140 162 0
135 156 0
145 166 0
142 162 0
144 165 0
139 160 0
128 149 0
141 163 0
146 166 0
141 162 0
148 171 0
144 164 0
147 170 0
140 160 0
144 166 0
143 164 0
148 168 0
147 167 0
147 167 0
141 162 0
145 165 0
146 167 0
139 160 0
146 165 0
144 164 0
153 174 0
143 163 0
141 161 0
146 167 0
143 161 0
147 168 0
150 170 0
144 165 0
140 159 0
141 161 0
149 169 0
144 164 0
147 166 0
137 155 0
141 161 0
143 162 0
140 159 0
143 161 0
140 158 0
149 169 0
140 160 0
147 166 0
150 172 0
157 177 0
149 170 0
147 167 0
144 163 0
141 160 0
143 163 0
144 163 0
148 166 0
141 159 0
149 169 0
145 162 0
141 159 0
141 159 0
150 167 0
152 171 0
148 167 0
144 161 0
150 171 0
145 163 0
144 164 0
140 157 0
147 166 0
150 169 0
142 161 0
149 167 0
148 166 0
148 166 0
146 164 0
142 163 0
145 163 0
139 154 0
148 167 0
146 162 0
148 168 0
147 164 0
145 163 0
145 164 0
147 165 0
149 167 0
151 169 0
142 158 0
141 158 0
145 163 0
151 167 0
148 163 0
146 164 0
147 165 0
152 169 0
149 168 0
148 166 0
145 162 0
146 160 0
140 156 0
154 171 0
152 170 0
152 169 0
145 161 0
145 164 0
144 158 0
144 158 0
148 165 0
151 168 0
148 163 0
149 163 0
155 172 0
149 163 0
145 162 0
155 172 0
147 163 0
141 155 0
146 162 0
158 172 0
153 166 0
154 167 0
144 159 0
148 163 0
148 159 0
144 157 0
151 164 0
156 172 0
157 171 0
157 171 0
148 159 0
156 168 0
152 166 0
148 159 0
160 174 0
152 165 0
154 166 0
152 165 0
145 156 0
147 156 0
145 155 0
153 166 0
152 162 0
155 166 0
154 164 0
153 165 0
149 164 0
152 164 0
158 172 0
155 167 0
155 167 0
150 163 0
159 174 0
151 161 0
146 155 0
151 162 0
147 158 0
151 162 0
149 156 0
154 166 0
152 163 0
152 162 0
150 160 0
157 166 0
153 165 0
151 160 0
147 158 0
156 163 0
152 163 0
157 170 0
154 164 0
150 160 0
157 165 0
150 157 0
152 161 0
146 155 0
154 163 0
147 156 0
158 169 0
155 165 0
145 154 0
155 165 0
153 163 0
154 163 0
157 168 0
155 165 0
161 169 0
157 165 0
157 166 0
159 169 0
153 163 0
149 159 0
162 172 0
157 165 0
153 162 0
161 172 0
155 165 0
159 168 0
165 184 0
158 176 0
161 181 0
159 178 0
158 177 0
155 174 0
153 172 0
158 176 0
159 177 0
160 178 0
158 178 0
162 181 0
160 180 0
157 176 0
156 175 0
157 175 0
148 166 0
158 177 0
158 178 0
152 171 0
153 173 0
158 178 0
157 175 0
157 175 0
161 181 0
155 174 0
154 174 0
157 176 0
156 174 0
153 172 0
157 176 0
157 177 0
156 175 0
150 169 0
152 170 0
154 174 0
154 172 0
151 171 0
154 173 0
158 178 0
153 172 0
154 173 0
155 174 0
157 177 0
151 170 0
154 174 0
156 175 0
149 167 0
146 165 0
150 169 0
157 176 0
157 177 0
156 175 0
148 168 0
150 168 0
151 172 0
157 177 0
151 172 0
156 176 0
155 175 0
151 171 0
152 173 0
147 168 0
150 169 0
153 173 0
151 172 0
152 173 0
159 180 0
151 171 0
150 171 0
157 177 0
154 174 0
146 167 0
154 175 0
151 171 0
154 175 0
152 173 0
150 170 0
153 173 0
153 174 0
158 179 0
153 174 0
151 172 0
155 176 0
148 168 0
151 172 0
149 169 0
149 169 0
153 174 0
156 177 0
148 170 0
146 166 0
148 169 0
150 170 0
151 172 0
150 170 0
148 168 0
153 174 0
146 167 0
153 173 0
148 168 0
158 179 0
141 163 0
147 168 0
144 165 0
146 167 0
150 171 0
141 163 0
151 172 0
146 167 0
157 177 0
140 162 0
149 171 0
147 168 0
148 171 0
155 177 0
152 174 0
148 170 0
147 168 0
153 174 0
147 168 0
149 170 0
142 163 0
152 174 0
140 161 0
151 173 0
147 168 0
141 163 0
148 170 0
147 167 0
150 173 0
142 164 0
151 171 0
150 171 0
157 179 0
150 171 0
150 172 0
151 173 0
148 169 0
146 166 0
150 173 0
152 173 0
143 163 0
148 168 0
148 171 0
148 170 0
141 163 0
139 162 0
142 164 0
150 172 0
142 164 0
151 173 0
141 163 0
143 164 0
144 165 0
147 169 0
147 168 0
155 177 0
147 168 0
147 167 0
148 170 0
152 174 0
145 167 0
144 166 0
142 165 0
146 167 0
153 174 0
144 165 0
151 174 0
145 166 0
132 152 0
137 158 0
142 164 0
144 165 0
146 166 0
149 170 0
145 166 0
147 169 0
143 164 0
148 170 0
134 153 0
138 160 0
144 165 0
147 167 0
139 160 0
142 163 0
139 160 0
144 165 0
146 166 0
135 157 0
147 168 0
145 167 0
143 165 0
147 169 0
143 164 0
138 160 0
138 160 0
137 158 0
145 167 0
140 160 0
139 160 0
144 165 0
137 156 0
146 167 0
145 166 0
141 162 0
143 163 0
139 160 0
148 169 0
144 165 0
142 164 0
138 159 0
140 160 0
143 163 0
145 166 0
136 156 0
146 166 0
143 164 0
142 163 0
139 158 0
137 158 0
144 164 0
149 170 0
146 166 0
144 164 0
143 163 0
145 165 0
146 166 0
144 162 0
149 168 0
153 175 0
145 166 0
142 162 0
143 162 0
140 160 0
139 160 0
144 166 0
145 163 0
148 168 0
150 172 0
147 168 0
141 162 0
139 159 0
149 170 0
147 167 0
142 163 0
148 167 0
146 167 0
146 168 0
150 170 0
152 172 0
144 163 0
135 154 0
151 169 0
141 160 0
147 165 0
145 165 0
145 163 0
148 166 0
138 157 0
147 168 0
145 165 0
148 168 0
147 165 0
154 173 0
149 168 0
153 172 0
148 169 0
144 165 0
145 164 0
145 163 0
151 172 0
142 162 0
144 164 0
145 164 0
145 162 0
142 160 0
148 168 0
141 160 0
150 170 0
144 161 0
147 166 0
137 153 0
153 171 0
148 167 0
147 165 0
148 167 0
147 166 0
153 170 0
149 167 0
149 168 0
150 169 0
154 172 0
148 165 0
146 163 0
145 162 0
152 171 0
151 167 0
142 159 0
142 160 0
148 165 0
151 167 0
149 166 0
152 170 0
143 159 0
154 173 0
150 166 0
152 167 0
146 162 0
153 167 0
152 168 0
149 166 0
157 176 0
156 175 0
146 162 0
158 172 0
147 165 0
154 170 0
146 163 0
154 171 0
149 165 0
151 168 0
146 161 0
141 157 0
153 169 0
155 170 0
144 158 0
148 161 0
155 171 0
153 167 0
152 166 0
150 164 0
146 158 0
152 166 0
152 164 0
155 169 0
147 158 0
149 162 0
148 160 0
158 172 0
153 166 0
154 167 0
156 170 0
156 169 0
153 167 0
144 154 0
154 165 0
154 166 0
145 157 0
143 152 0
149 160 0
152 162 0
155 166 0
150 160 0
154 165 0
162 177 0
151 161 0
155 163 0
152 165 0
149 161 0
148 157 0
154 166 0
148 157 0
154 163 0
146 156 0
156 165 0
149 159 0
153 162 0
153 163 0
149 159 0
150 157 0
153 163 0
157 167 0
158 170 0
151 163 0
158 169 0
155 167 0
157 165 0
154 163 0
156 165 0
154 166 0
153 160 0
153 161 0
156 166 0
160 169 0
156 168 0
155 164 0
154 166 0
156 167 0
158 168 0
152 160 0
156 166 0
153 163 0
154 164 0
159 171 0
150 161 0
159 168 0
156 167 0
158 170 0
161 172 0
160 179 0
159 179 0
157 176 0
157 176 0
156 175 0
159 179 0
158 176 0
158 177 0
160 179 0
161 180 0
158 177 0
159 178 0
158 177 0
159 179 0
157 175 0
154 173 0
159 178 0
153 172 0
153 173 0
161 181 0
150 170 0
161 180 0
156 176 0
155 173 0
154 173 0
156 175 0
159 179 0
160 180 0
150 169 0
156 175 0
153 172 0
158 178 0
153 171 0
150 169 0
151 170 0
157 177 0
152 172 0
154 173 0
155 174 0
154 172 0
152 172 0
153 173 0
149 169 0
151 170 0
158 178 0
161 182 0
151 170 0
153 173 0
149 168 0
153 174 0
152 171 0
152 171 0
157 177 0
154 172 0
157 177 0
155 175 0
154 173 0
154 174 0
158 178 0
148 168 0
152 172 0
158 178 0
153 174 0
154 174 0
154 175 0
157 179 0
154 174 0
153 172 0
146 165 0
152 172 0
151 172 0
153 174 0
152 173 0
156 177 0
152 174 0
150 171 0
139 158 0
150 169 0
154 175 0
153 173 0
153 173 0
145 166 0
150 171 0
155 176 0
155 178 0
152 173 0
155 176 0
150 171 0
153 173 0
154 175 0
150 170 0
152 173 0
145 166 0
150 172 0
150 172 0
146 166 0
156 177 0
145 165 0
153 174 0
157 179 0
144 163 0
148 169 0
152 172 0
150 171 0
150 172 0
151 173 0
143 165 0
139 161 0
152 174 0
147 168 0
150 171 0
151 173 0
154 174 0
145 166 0
148 169 0
144 165 0
148 169 0
147 169 0
146 168 0
142 162 0
156 178 0
150 172 0
148 169 0
146 167 0
136 157 0
145 166 0
139 162 0
147 167 0
151 174 0
145 167 0
153 175 0
148 171 0
155 176 0
140 161 0
146 168 0
146 167 0
146 167 0
143 165 0
150 172 0
143 165 0
148 169 0
147 170 0
151 174 0
146 165 0
151 173 0
147 169 0
141 162 0
145 166 0
147 169 0
147 169 0
149 170 0
142 164 0
148 170 0
155 176 0
145 167 0
151 172 0
145 165 0
147 169 0
141 161 0
144 164 0
145 167 0
147 168 0
144 165 0
143 166 0
136 157 0
147 169 0
149 170 0
140 162 0
151 172 0
138 159 0
146 167 0
151 172 0
146 169 0
148 170 0
145 166 0
143 165 0
147 170 0
145 166 0
140 161 0
144 163 0
148 169 0
139 161 0
144 166 0
144 165 0
153 176 0
147 169 0
144 166 0
153 174 0
145 168 0
132 152 0
142 163 0
139 161 0
146 168 0
143 163 0
153 175 0
147 169 0
147 169 0
145 166 0
143 163 0
144 165 0
142 163 0
144 165 0
142 163 0
148 169 0
147 168 0
146 167 0
152 174 0
153 175 0
148 169 0
151 172 0
140 161 0
150 171 0
145 165 0
141 162 0
145 164 0
144 164 0
145 167 0
149 170 0
132 151 0
142 163 0
152 173 0
134 154 0
146 166 0
146 166 0
149 171 0
148 169 0
144 165 0
144 163 0
146 166 0
143 164 0
141 162 0
136 157 0
153 173 0
139 161 0
150 170 0
148 169 0
150 170 0
152 172 0
155 176 0
147 166 0
150 172 0
145 163 0
142 162 0
147 166 0
141 161 0
146 166 0
149 169 0
144 165 0
144 163 0
147 166 0
146 166 0
138 157 0
147 165 0
145 164 0
149 168 0
146 166 0
151 171 0
147 165 0
150 170 0
141 160 0
137 156 0
144 162 0
151 170 0
143 163 0
145 165 0
149 169 0
151 171 0
143 162 0
152 171 0
139 156 0
147 167 0
150 169 0
145 164 0
143 162 0
149 167 0
150 168 0
148 165 0
152 170 0
148 167 0
148 166 0
151 169 0
148 167 0
148 167 0
149 167 0
152 172 0
152 170 0
151 169 0
150 170 0
148 163 0
150 168 0
143 162 0
148 165 0
150 169 0
153 170 0
146 163 0
141 158 0
145 163 0
138 155 0
151 167 0
151 169 0
150 166 0
149 166 0
155 171 0
154 171 0
149 165 0
146 162 0
151 167 0
151 167 0
157 175 0
144 161 0
145 160 0
144 160 0
148 165 0
154 170 0
152 168 0
148 162 0
154 172 0
146 160 0
148 165 0
148 164 0
152 167 0
155 171 0
145 160 0
149 163 0
149 164 0
149 163 0
151 166 0
146 161 0
144 157 0
152 167 0
155 166 0
151 166 0
147 158 0
153 164 0
153 165 0
143 155 0
145 158 0
147 158 0
158 173 0
152 163 0
157 173 0
156 170 0
150 160 0
156 170 0
147 161 0
151 163 0
150 160 0
147 159 0
150 164 0
152 163 0
154 166 0
156 168 0
148 160 0
148 158 0
154 167 0
148 161 0
162 176 0
150 161 0
156 166 0
153 163 0
154 165 0
152 165 0
152 164 0
146 154 0
156 167 0
157 169 0
158 168 0
152 163 0
153 164 0
151 162 0
148 156 0
158 170 0
156 167 0
152 165 0
155 167 0
149 160 0
154 166 0
156 165 0
151 161 0
154 164 0
149 159 0
160 170 0
158 166 0
155 165 0
161 175 0
156 167 0
156 167 0
156 167 0
150 157 0
158 170 0
150 157 0
158 170 0
163 175 0
152 159 0
157 168 0
155 164 0
155 165 0
160 170 0
154 162 0
156 166 0
151 170 0
156 176 0
157 177 0
157 176 0
163 183 0
159 178 0
157 176 0
164 184 0
159 178 0
159 179 0
158 178 0
164 184 0
157 175 0
160 180 0
156 175 0
162 182 0
157 176 0
159 178 0
161 181 0
156 175 0
156 175 0
161 180 0
154 174 0
154 174 0
158 178 0
155 175 0
157 176 0
156 175 0
157 177 0
155 174 0
151 170 0
154 173 0
152 170 0
153 173 0
154 174 0
155 174 0
153 173 0
156 175 0
147 166 0
160 180 0
156 177 0
154 174 0
154 173 0
151 171 0
156 175 0
157 176 0
159 179 0
157 176 0
153 174 0
155 174 0
144 164 0
149 168 0
151 170 0
154 174 0
152 172 0
153 173 0
154 175 0
162 182 0
152 173 0
154 174 0
150 170 0
156 177 0
151 170 0
149 169 0
153 172 0
144 163 0
156 176 0
155 176 0
154 174 0
148 168 0
164 186 0
154 173 0
154 174 0
157 177 0
155 176 0
150 170 0
156 176 0
153 174 0
148 168 0
153 174 0
154 175 0
152 173 0
151 173 0
158 179 0
150 171 0
151 173 0
154 175 0
151 171 0
147 168 0
150 171 0
153 173 0
147 168 0
146 166 0
155 176 0
160 181 0
148 168 0
149 168 0
155 175 0
149 170 0
155 177 0
150 171 0
142 163 0
152 173 0
149 169 0
152 173 0
145 166 0
153 174 0
144 166 0
157 179 0
162 185 0
149 172 0
148 170 0
144 165 0
146 167 0
151 172 0
151 173 0
152 172 0
146 167 0
145 167 0
147 169 0
143 164 0
148 170 0
152 174 0
152 172 0
152 175 0
154 174 0
148 171 0
143 163 0
145 166 0
147 168 0
138 159 0
147 169 0
150 171 0
145 166 0
148 170 0
148 169 0
141 163 0
150 172 0
137 158 0
149 171 0
156 179 0
145 166 0
143 164 0
151 172 0
151 172 0
147 168 0
153 174 0
148 170 0
144 166 0
140 162 0
152 173 0
146 166 0
152 173 0
141 162 0
147 168 0
157 178 0
151 173 0
149 171 0
148 169 0
141 163 0
148 169 0
151 173 0
140 161 0
144 167 0
152 172 0
144 166 0
149 171 0
144 163 0
141 162 0
150 171 0
137 159 0
144 165 0
142 164 0
145 166 0
143 165 0
150 172 0
152 174 0
150 171 0
143 164 0
151 174 0
146 167 0
140 160 0
140 161 0
142 163 0
148 169 0
138 159 0
146 167 0
145 166 0
144 165 0
136 157 0
148 168 0
143 162 0
136 157 0
144 167 0
150 172 0
139 160 0
147 169 0
141 162 0
143 165 0
151 174 0
145 166 0
143 164 0
146 168 0
145 164 0
134 153 0
148 168 0
144 166 0
139 161 0
145 166 0
147 168 0
146 169 0
146 167 0
145 165 0
152 173 0
137 157 0
138 158 0
146 168 0
144 165 0
143 163 0
145 166 0
147 168 0
147 168 0
144 166 0
141 162 0
145 165 0
148 170 0
150 172 0
147 167 0
145 166 0
140 160 0
143 162 0
149 171 0
138 157 0
151 172 0
148 169 0
147 168 0
151 174 0
149 170 0
148 170 0
141 162 0
156 177 0
147 167 0
147 168 0
149 168 0
141 162 0
142 162 0
151 172 0
149 169 0
143 163 0
140 160 0
141 160 0
153 172 0
148 168 0
146 166 0
152 172 0
149 169 0
138 159 0
142 162 0
139 159 0
152 170 0
148 166 0
148 166 0
149 167 0
147 166 0
151 171 0
139 158 0
141 161 0
150 172 0
145 162 0
153 173 0
148 167 0
154 173 0
142 160 0
144 161 0
152 169 0
147 166 0
152 172 0
147 165 0
157 176 0
154 173 0
146 161 0
145 163 0
147 164 0
144 161 0
148 167 0
145 165 0
156 175 0
143 160 0
145 163 0
153 170 0
147 164 0
145 161 0
141 157 0
154 171 0
142 159 0
147 166 0
137 155 0
144 160 0
150 169 0
153 172 0
152 170 0
151 168 0
144 159 0
143 160 0
155 172 0
144 161 0
152 170 0
150 165 0
151 168 0
146 162 0
151 169 0
150 164 0
153 169 0
154 171 0
158 173 0
157 171 0
154 170 0
148 164 0
148 165 0
147 163 0
150 164 0
156 169 0
145 159 0
150 164 0
155 168 0
154 169 0
154 171 0
149 165 0
151 164 0
144 158 0
148 160 0
146 159 0
153 168 0
153 169 0
152 164 0
151 164 0
152 167 0
156 172 0
154 168 0
155 167 0
150 164 0
153 169 0
146 159 0
140 150 0
155 169 0
149 161 0
153 167 0
145 159 0
157 171 0
149 162 0
149 159 0
153 166 0
147 161 0
156 170 0
154 165 0
152 164 0
147 160 0
144 157 0
146 157 0
152 161 0
156 167 0
159 172 0
151 164 0
152 162 0
150 162 0
148 160 0
153 162 0
151 164 0
158 169 0
156 169 0
153 162 0
154 163 0
160 173 0
155 168 0
156 170 0
151 162 0
154 164 0
152 160 0
157 167 0
148 157 0
151 160 0
150 160 0
153 165 0
150 160 0
151 161 0
154 164 0
148 157 0
147 159 0
160 171 0
159 168 0
156 168 0
157 167 0
156 167 0
153 163 0
155 165 0
156 165 0
157 167 0
158 168 0
156 167 0
154 163 0
163 184 0
160 180 0
156 175 0
164 183 0
158 178 0
159 178 0
154 173 0
157 176 0
159 179 0
161 179 0
154 174 0
158 177 0
154 173 0
159 178 0
157 175 0
156 174 0
156 176 0
154 172 0
158 177 0
160 180 0
157 176 0
158 178 0
154 173 0
155 174 0
157 176 0
154 173 0
160 179 0
161 181 0
158 178 0
153 172 0
161 181 0
149 167 0
154 174 0
158 178 0
155 175 0
152 172 0
155 174 0
153 172 0
154 173 0
153 172 0
149 169 0
162 182 0
153 173 0
157 177 0
159 179 0
155 175 0
152 172 0
158 178 0
154 175 0
149 168 0
153 172 0
151 171 0
155 174 0
152 171 0
152 172 0
152 172 0
152 172 0
157 178 0
152 172 0
158 179 0
152 173 0
152 172 0
159 180 0
154 175 0
152 173 0
154 174 0
154 174 0
150 170 0
152 173 0
157 177 0
145 166 0
154 175 0
154 174 0
151 172 0
150 170 0
151 173 0
157 177 0
151 171 0
149 170 0
156 178 0
150 171 0
153 173 0
147 168 0
147 168 0
143 164 0
150 170 0
154 175 0
146 166 0
157 178 0
154 175 0
151 172 0
147 168 0
151 172 0
149 170 0
155 177 0
149 171 0
152 173 0
156 177 0
148 169 0
147 169 0
148 168 0
153 174 0
147 169 0
150 170 0
148 169 0
152 172 0
147 167 0
154 176 0
148 169 0
149 169 0
142 163 0
147 168 0
149 170 0
151 171 0
145 167 0
150 171 0
153 174 0
152 173 0
148 170 0
150 172 0
156 178 0
152 174 0
148 171 0
151 172 0
148 169 0
149 171 0
152 173 0
148 170 0
142 163 0
154 174 0
149 171 0
141 162 0
148 169 0
144 166 0
145 166 0
151 172 0
151 173 0
155 176 0
153 173 0
148 171 0
152 175 0
147 168 0
147 167 0
139 160 0
140 162 0
141 162 0
154 177 0
150 172 0
145 167 0
152 174 0
146 169 0
139 161 0
156 177 0
141 162 0
152 174 0
147 168 0
148 170 0
144 166 0
148 170 0
153 174 0
139 160 0
149 171 0
148 170 0
145 166 0
147 166 0
145 167 0
153 175 0
148 170 0
143 165 0
143 165 0
147 170 0
142 163 0
149 172 0
146 168 0
149 170 0
147 169 0
146 169 0
148 169 0
153 176 0
152 173 0
140 163 0
145 165 0
149 171 0
141 161 0
137 158 0
142 165 0
152 173 0
147 168 0
150 171 0
149 170 0
146 166 0
147 168 0
141 164 0
135 155 0
143 165 0
144 164 0
142 163 0
140 160 0
148 169 0
149 169 0
145 166 0
150 171 0
144 165 0
137 159 0
146 165 0
145 165 0
141 163 0
155 177 0
142 163 0
148 170 0
145 166 0
138 159 0
150 170 0
135 154 0
150 171 0
145 167 0
145 167 0
139 160 0
142 164 0
145 164 0
142 163 0
145 166 0
148 168 0
143 163 0
141 161 0
139 159 0
141 160 0
136 156 0
140 159 0
150 170 0
146 168 0
148 169 0
137 157 0
131 151 0
149 170 0
144 161 0
147 168 0
144 164 0
145 166 0
150 171 0
147 168 0
147 167 0
144 164 0
141 160 0
145 164 0
143 164 0
145 165 0
154 174 0
146 166 0
145 164 0
151 172 0
151 170 0
150 171 0
146 165 0
153 173 0
156 178 0
148 167 0
149 169 0
148 166 0
154 176 0
146 165 0
143 162 0
145 164 0
144 163 0
156 177 0
156 175 0
152 171 0
153 174 0
152 171 0
139 157 0
143 162 0
140 159 0
144 165 0
147 167 0
141 160 0
150 170 0
143 162 0
144 164 0
146 165 0
147 166 0
144 163 0
151 170 0
154 173 0
152 169 0
142 162 0
148 166 0
147 165 0
149 168 0
139 156 0
149 167 0
153 172 0
151 168 0
146 166 0
149 167 0
144 160 0
148 164 0
149 165 0
149 169 0
149 166 0
151 169 0
152 170 0
147 164 0
143 158 0
148 165 0
147 164 0
154 169 0
151 170 0
153 169 0
154 173 0
154 171 0
141 159 0
153 169 0
147 163 0
153 171 0
152 168 0
151 167 0
149 164 0
154 168 0
154 168 0
153 172 0
146 158 0
152 167 0
152 165 0
146 163 0
154 168 0
157 173 0
153 169 0
150 164 0
149 159 0
145 160 0
154 169 0
149 163 0
152 166 0
150 164 0
158 175 0
152 168 0
149 161 0
151 165 0
148 162 0
153 166 0
146 159 0
148 161 0
154 169 0
156 171 0
150 165 0
153 168 0
156 172 0
151 161 0
157 168 0
151 164 0
154 166 0
154 169 0
155 166 0
148 159 0
156 169 0
150 162 0
146 158 0
159 173 0
148 159 0
154 168 0
156 166 0
151 165 0
155 168 0
152 163 0
152 164 0
155 164 0
159 171 0
154 167 0
160 174 0
153 164 0
156 168 0
160 174 0
157 167 0
153 167 0
155 165 0
152 161 0
156 166 0
146 157 0
148 159 0
153 164 0
156 167 0
157 167 0
159 171 0
151 160 0
162 176 0
160 170 0
154 165 0
153 162 0
155 168 0
163 175 0
153 163 0
156 168 0
153 163 0
156 168 0
154 163 0
156 168 0
155 165 0
155 164 0
161 174 0
160 172 0
160 180 0
157 176 0
163 183 0
163 183 0
163 182 0
160 180 0
164 183 0
158 178 0
166 187 0
159 179 0
158 177 0
154 174 0
159 177 0
165 184 0
163 184 0
159 179 0
156 175 0
159 177 0
156 176 0
159 179 0
159 178 0
162 181 0
153 172 0
153 172 0
157 178 0
151 170 0
155 175 0
159 178 0
156 176 0
155 175 0
157 177 0
156 175 0
153 172 0
156 175 0
154 174 0
152 172 0
155 175 0
155 175 0
157 175 0
155 175 0
154 174 0
153 173 0
158 178 0
157 177 0
150 171 0
152 172 0
157 178 0
156 176 0
153 174 0
155 174 0
152 172 0
154 174 0
156 176 0
151 171 0
153 173 0
151 172 0
152 172 0
144 164 0
154 174 0
154 174 0
154 173 0
152 172 0
152 172 0
145 165 0
157 178 0
153 174 0
152 173 0
153 174 0
153 173 0
154 175 0
156 177 0
154 174 0
152 172 0
153 174 0
150 171 0
148 168 0
149 170 0
148 168 0
150 171 0
153 174 0
152 172 0
156 178 0
156 176 0
152 174 0
157 177 0
147 168 0
160 181 0
156 177 0
154 176 0
150 170 0
157 179 0
153 174 0
149 171 0
147 169 0
155 175 0
150 170 0
152 175 0
146 166 0
151 173 0
148 169 0
155 176 0
148 170 0
155 176 0
150 171 0
151 173 0
153 174 0
149 170 0
150 172 0
146 167 0
148 169 0
145 166 0
157 179 0
146 166 0
153 174 0
147 167 0
139 160 0
142 163 0
153 174 0
145 168 0
152 174 0
152 174 0
147 169 0
149 170 0
149 169 0
148 169 0
147 169 0
144 166 0
147 169 0
145 167 0
148 169 0
147 169 0
149 171 0
150 172 0
150 172 0
155 176 0
140 162 0
155 177 0
148 170 0
142 164 0
142 163 0
154 175 0
155 177 0
151 170 0
153 175 0
148 170 0
147 169 0
148 169 0
146 167 0
146 167 0
149 170 0
143 164 0
145 166 0
151 171 0
140 161 0
145 167 0
143 165 0
151 173 0
147 169 0
140 160 0
152 173 0
151 173 0
145 167 0
147 168 0
154 176 0
146 167 0
152 174 0
147 170 0
137 158 0
146 167 0
147 168 0
142 162 0
145 165 0
148 170 0
144 167 0
148 170 0
151 173 0
143 162 0
141 163 0
149 171 0
151 174 0
146 168 0
144 166 0
141 161 0
148 170 0
147 169 0
148 171 0
140 162 0
154 175 0
141 162 0
144 166 0
146 168 0
145 166 0
144 165 0
148 168 0
144 165 0
146 167 0
147 169 0
152 173 0
143 165 0
139 160 0
148 169 0
143 164 0
147 169 0
139 162 0
141 163 0
146 167 0
144 164 0
145 165 0
143 164 0
147 168 0
149 168 0
158 179 0
138 159 0
145 166 0
151 171 0
153 175 0
138 159 0
147 166 0
145 166 0
147 168 0
146 165 0
147 168 0
143 164 0
148 168 0
143 165 0
149 169 0
139 159 0
148 170 0
140 160 0
141 162 0
139 158 0
152 172 0
144 164 0
152 171 0
145 165 0
153 173 0
139 158 0
144 165 0
151 170 0
144 164 0
144 163 0
152 173 0
147 166 0
142 161 0
151 171 0
145 164 0
142 162 0
154 174 0
149 169 0
148 169 0
148 167 0
141 162 0
145 163 0
151 171 0
141 160 0
153 173 0
152 172 0
151 172 0
152 171 0
144 164 0
145 164 0
153 174 0
148 168 0
149 169 0
154 172 0
155 176 0
149 169 0
146 165 0
156 176 0
151 169 0
155 174 0
150 169 0
150 170 0
150 168 0
148 168 0
143 163 0
159 179 0
150 170 0
153 172 0
148 167 0
153 173 0
154 172 0
152 172 0
143 161 0
148 167 0
148 166 0
144 164 0
151 168 0
160 179 0
157 176 0
138 156 0
147 164 0
147 165 0
147 165 0
152 170 0
149 167 0
152 170 0
149 170 0
148 164 0
146 162 0
147 163 0
141 158 0
152 168 0
151 170 0
157 173 0
155 172 0
152 170 0
148 164 0
143 162 0
154 169 0
153 168 0
146 161 0
150 168 0
152 169 0
148 165 0
152 169 0
146 162 0
154 170 0
153 168 0
153 170 0
145 160 0
148 165 0
151 166 0
151 167 0
156 170 0
159 174 0
143 156 0
146 161 0
154 172 0
149 163 0
147 164 0
150 166 0
148 162 0
152 167 0
154 172 0
156 170 0
155 170 0
150 165 0
154 168 0
150 166 0
153 169 0
149 164 0
155 170 0
153 168 0
154 168 0
154 168 0
144 157 0
148 162 0
160 175 0
155 169 0
156 168 0
153 166 0
148 161 0
148 162 0
158 171 0
155 166 0
140 150 0
156 169 0
150 163 0
157 169 0
156 169 0
158 172 0
141 151 0
149 162 0
149 162 0
156 168 0
156 168 0
153 165 0
148 162 0
152 163 0
155 168 0
154 163 0
158 172 0
154 167 0
155 167 0
148 156 0
152 161 0
157 168 0
153 163 0
154 165 0
152 164 0
152 163 0
150 159 0
159 172 0
154 165 0
158 169 0
157 169 0
150 159 0
158 170 0
153 165 0
160 173 0
149 157 0
152 165 0
158 168 0
158 170 0
158 171 0
158 170 0
156 166 0
158 169 0
157 170 0
159 180 0
155 174 0
154 173 0
159 179 0
157 177 0
158 178 0
162 182 0
157 176 0
160 179 0
159 178 0
163 183 0
157 177 0
156 176 0
163 181 0
158 178 0
154 172 0
153 173 0
155 175 0
154 174 0
150 169 0
160 180 0
153 172 0
158 177 0
159 179 0
151 171 0
152 171 0
154 173 0
152 171 0
152 173 0
153 173 0
151 172 0
154 174 0
158 178 0
157 176 0
159 179 0
148 167 0
149 169 0
156 175 0
157 176 0
158 176 0
148 169 0
151 171 0
157 177 0
149 168 0
160 180 0
155 175 0
160 180 0
157 178 0
154 174 0
156 176 0
154 174 0
153 173 0
155 176 0
159 179 0
149 168 0
157 178 0
152 172 0
151 171 0
153 173 0
152 173 0
154 175 0
155 176 0
151 172 0
152 174 0
155 176 0
151 172 0
155 176 0
158 178 0
150 170 0
160 180 0
150 170 0
150 170 0
153 174 0
150 169 0
153 174 0
151 173 0
149 170 0
155 176 0
154 175 0
152 172 0
147 168 0
153 175 0
153 173 0
146 166 0
151 172 0
150 172 0
147 169 0
154 175 0
145 166 0
155 177 0
152 173 0
145 167 0
154 174 0
153 174 0
157 180 0
157 177 0
150 171 0
153 174 0
151 173 0
150 171 0
153 174 0
148 169 0
155 176 0
155 177 0
151 171 0
152 172 0
145 166 0
148 169 0
151 172 0
155 177 0
151 173 0
148 170 0
148 170 0
152 174 0
150 172 0
148 168 0
146 167 0
147 169 0
147 168 0
147 169 0
152 173 0
139 161 0
149 171 0
150 172 0
151 173 0
152 173 0
159 180 0
139 160 0
146 167 0
149 171 0
149 170 0
155 178 0
145 165 0
142 162 0
153 176 0
150 172 0
151 173 0
148 170 0
151 172 0
151 173 0
151 173 0
159 181 0
147 169 0
152 174 0
153 176 0
144 167 0
148 170 0
143 165 0
151 173 0
144 167 0
138 160 0
146 168 0
146 168 0
143 164 0
153 175 0
141 163 0
145 167 0
149 171 0
143 164 0
146 169 0
151 172 0
148 169 0
152 174 0
153 176 0
146 167 0
138 159 0
146 167 0
150 171 0
141 161 0
141 162 0
155 177 0
145 167 0
150 172 0
149 172 0
154 176 0
144 167 0
146 167 0
146 167 0
142 163 0
145 166 0
149 170 0
144 166 0
151 173 0
144 165 0
148 168 0
152 174 0
141 163 0
141 162 0
147 169 0
151 173 0
145 167 0
144 165 0
136 157 0
145 166 0
149 171 0
140 161 0
147 167 0
151 172 0
147 168 0
147 168 0
147 168 0
144 165 0
137 157 0
140 162 0
140 161 0
142 163 0
138 159 0
145 165 0
149 171 0
152 175 0
147 168 0
143 163 0
148 169 0
146 168 0
141 162 0
147 167 0
150 171 0
148 169 0
141 162 0
149 171 0
148 168 0
146 166 0
148 168 0
149 171 0
141 161 0
146 167 0
148 170 0
144 164 0
149 170 0
152 172 0
140 160 0
147 166 0
142 161 0
142 164 0
149 170 0
143 162 0
147 169 0
145 166 0
142 163 0
143 162 0
154 174 0
148 168 0
145 166 0
151 171 0
148 169 0
144 165 0
153 174 0
154 174 0
145 167 0
156 177 0
148 169 0
150 171 0
146 166 0
147 168 0
147 167 0
153 173 0
143 163 0
149 170 0
150 169 0
145 165 0
146 165 0
154 174 0
152 172 0
148 168 0
142 162 0
154 175 0
147 166 0
146 165 0
150 171 0
148 169 0
144 163 0
148 166 0
148 167 0
142 162 0
140 160 0
143 163 0
150 172 0
149 167 0
148 167 0
154 173 0
148 164 0
156 178 0
147 166 0
151 170 0
153 172 0
150 168 0
143 160 0
147 165 0
144 164 0
147 164 0
149 166 0
146 162 0
150 169 0
152 171 0
154 172 0
145 163 0
149 167 0
145 163 0
149 166 0
145 162 0
146 162 0
150 169 0
156 174 0
152 170 0
155 171 0
150 167 0
150 168 0
148 164 0
148 167 0
148 164 0
156 170 0
149 167 0
150 165 0
154 170 0
158 176 0
154 173 0
153 171 0
153 170 0
150 164 0
146 162 0
151 167 0
151 167 0
152 166 0
157 173 0
157 171 0
149 165 0
151 168 0
150 167 0
149 166 0
147 161 0
150 162 0
156 172 0
154 169 0
145 162 0
153 170 0
143 157 0
157 172 0
154 168 0
152 169 0
156 172 0
157 171 0
156 171 0
151 166 0
155 169 0
149 163 0
156 169 0
153 166 0
152 163 0
149 160 0
148 162 0
156 169 0
159 175 0
146 159 0
155 167 0
154 166 0
154 167 0
151 164 0
149 161 0
156 169 0
146 158 0
151 164 0
156 168 0
156 170 0
154 165 0
160 172 0
152 166 0
152 164 0
157 171 0
154 167 0
161 174 0
153 165 0
151 164 0
153 165 0
152 163 0
152 162 0
154 167 0
157 167 0
155 167 0
156 166 0
155 166 0
157 169 0
155 168 0
152 161 0
159 170 0
155 164 0
153 164 0
157 167 0
154 167 0
161 172 0
154 164 0
150 160 0
157 168 0
156 166 0
150 161 0
153 165 0
159 169 0
152 160 0
161 172 0
157 169 0
154 164 0
156 175 0
159 180 0
159 179 0
160 180 0
157 176 0
160 180 0
154 174 0
161 180 0
156 176 0
162 182 0
157 177 0
161 180 0
157 177 0
161 181 0
159 179 0
159 179 0
150 169 0
157 177 0
158 178 0
159 180 0
157 176 0
158 177 0
159 178 0
154 174 0
156 177 0
161 181 0
159 179 0
153 172 0
156 175 0
157 176 0
151 170 0
162 182 0
155 175 0
149 170 0
153 173 0
157 176 0
153 172 0
152 172 0
155 174 0
154 173 0
154 174 0
152 173 0
155 177 0
156 176 0
154 174 0
154 173 0
149 168 0
150 169 0
153 173 0
158 179 0
148 167 0
155 176 0
153 173 0
161 181 0
152 172 0
163 184 0
148 168 0
155 175 0
155 176 0
154 175 0
151 171 0
159 180 0
148 168 0
145 164 0
154 175 0
154 175 0
156 177 0
153 175 0
157 178 0
151 173 0
154 176 0
153 174 0
150 170 0
155 175 0
152 172 0
154 176 0
146 167 0
149 170 0
159 181 0
153 174 0
152 174 0
157 178 0
156 177 0
155 176 0
154 176 0
153 174 0
148 169 0
162 184 0
149 171 0
151 172 0
145 165 0
153 174 0
152 173 0
150 171 0
150 171 0
148 169 0
154 176 0
149 170 0
155 177 0
151 173 0
150 171 0
153 175 0
152 173 0
155 178 0
154 175 0
152 175 0
152 174 0
152 173 0
156 178 0
154 176 0
151 173 0
138 158 0
153 175 0
146 167 0
152 174 0
145 167 0
147 169 0
153 174 0
155 175 0
149 172 0
157 179 0
152 175 0
145 166 0
152 173 0
149 171 0
153 176 0
153 175 0
148 170 0
153 175 0
147 168 0
149 169 0
146 169 0
150 171 0
148 169 0
156 178 0
144 166 0
146 166 0
143 165 0
151 172 0
155 177 0
151 173 0
145 166 0
148 170 0
152 173 0
150 172 0
150 172 0
154 175 0
153 174 0
151 173 0
148 170 0
147 168 0
157 179 0
143 165 0
144 165 0
142 164 0
160 182 0
145 168 0
149 169 0
153 176 0
152 173 0
152 175 0
143 165 0
145 166 0
151 172 0
145 166 0
150 171 0
150 171 0
143 164 0
139 160 0
150 172 0
152 174 0
148 169 0
142 163 0
141 162 0
145 168 0
151 173 0
146 167 0
147 169 0
148 169 0
148 167 0
147 168 0
144 165 0
139 161 0
146 167 0
140 162 0
140 161 0
142 162 0
145 166 0
150 171 0
136 158 0
141 163 0
153 174 0
148 169 0
148 169 0
145 167 0
139 159 0
143 165 0
151 173 0
145 166 0
150 171 0
142 162 0
156 177 0
150 173 0
140 163 0
139 158 0
134 153 0
145 165 0
146 166 0
146 167 0
141 162 0
148 168 0
150 172 0
144 166 0
148 169 0
147 168 0
142 161 0
155 176 0
157 179 0
151 172 0
147 166 0
146 165 0
146 167 0
146 167 0
132 152 0
142 164 0
144 165 0
143 163 0
148 168 0
151 173 0
157 177 0
145 165 0
148 169 0
141 162 0
143 163 0
146 166 0
151 172 0
145 165 0
147 169 0
149 170 0
149 169 0
149 170 0
151 172 0
147 168 0
155 173 0
150 172 0
146 167 0
148 168 0
147 165 0
150 170 0
136 157 0
138 157 0
147 167 0
155 175 0
150 171 0
154 174 0
150 169 0
149 170 0
144 165 0
151 172 0
154 175 0
149 169 0
155 176 0
144 164 0
147 167 0
155 176 0
145 166 0
142 162 0
153 174 0
143 161 0
145 166 0
142 162 0
149 169 0
144 163 0
151 171 0
154 173 0
147 165 0
140 155 0
152 171 0
153 172 0
158 177 0
147 165 0
148 168 0
155 174 0
147 165 0
150 169 0
150 168 0
149 169 0
151 170 0
150 168 0
154 172 0
153 172 0
148 165 0
155 172 0
151 168 0
154 173 0
151 169 0
153 171 0
152 169 0
151 168 0
148 165 0
158 173 0
147 162 0
153 171 0
145 160 0
145 163 0
151 167 0
149 165 0
152 171 0
152 170 0
155 172 0
144 161 0
157 173 0
153 171 0
149 165 0
150 165 0
147 164 0
153 169 0
150 167 0
153 169 0
148 162 0
153 169 0
155 171 0
147 161 0
144 161 0
152 168 0
153 169 0
160 179 0
156 172 0
150 166 0
152 167 0
146 162 0
156 172 0
153 171 0
156 172 0
146 160 0
153 165 0
154 170 0
151 167 0
153 170 0
160 175 0
152 166 0
156 173 0
155 166 0
152 168 0
145 160 0
149 163 0
148 161 0
153 169 0
151 164 0
148 162 0
151 163 0
154 169 0
157 170 0
149 165 0
150 166 0
155 168 0
151 163 0
149 162 0
154 167 0
153 166 0
150 161 0
156 167 0
155 168 0
156 167 0
159 175 0
154 166 0
156 171 0
155 166 0
154 166 0
152 163 0
159 173 0
148 157 0
158 169 0
150 163 0
155 167 0
151 163 0
155 169 0
153 164 0
153 162 0
157 169 0
153 163 0
154 166 0
156 168 0
162 178 0
154 164 0
160 173 0
157 170 0
152 165 0
157 169 0
153 165 0
151 161 0
155 168 0
160 171 0
158 169 0
154 165 0
157 168 0
157 167 0
154 165 0
157 169 0
155 168 0
160 179 0
161 181 0
156 175 0
159 178 0
160 180 0
158 178 0
160 180 0
157 177 0
164 184 0
159 179 0
163 184 0
156 175 0
157 177 0
160 179 0
160 180 0
156 175 0
158 179 0
157 177 0
154 173 0
156 176 0
157 177 0
159 178 0
154 174 0
154 174 0
157 177 0
156 176 0
155 175 0
158 178 0
153 173 0
149 168 0
152 171 0
156 175 0
157 178 0
157 177 0
160 180 0
159 179 0
153 172 0
152 171 0
151 171 0
156 176 0
154 175 0
148 167 0
155 175 0
155 174 0
155 175 0
153 173 0
153 174 0
160 180 0
141 161 0
154 173 0
156 176 0
154 175 0
156 178 0
146 167 0
153 173 0
153 173 0
152 171 0
157 177 0
155 176 0
152 172 0
151 171 0
150 170 0
156 176 0
151 171 0
157 178 0
145 165 0
154 175 0
149 170 0
152 172 0
157 177 0
150 171 0
150 170 0
156 177 0
153 174 0
155 177 0
150 170 0
151 172 0
155 176 0
155 176 0
154 176 0
151 172 0
147 168 0
150 172 0
152 174 0
145 164 0
150 172 0
152 174 0
146 167 0
146 166 0
154 177 0
145 166 0
157 177 0
152 173 0
155 177 0
157 179 0
146 167 0
148 170 0
156 177 0
147 169 0
161 181 0
143 165 0
146 167 0
153 174 0
153 174 0
152 174 0
148 170 0
153 174 0
147 168 0
153 175 0
152 174 0
160 181 0
154 176 0
146 168 0
150 172 0
149 170 0
150 172 0
154 176 0
153 176 0
151 173 0
152 174 0
148 169 0
154 177 0
153 175 0
141 161 0
149 171 0
156 178 0
144 165 0
154 177 0
152 174 0
143 165 0
152 174 0
141 162 0
146 168 0
145 167 0
154 175 0
153 176 0
151 172 0
146 167 0
151 172 0
155 177 0
150 172 0
144 165 0
148 170 0
147 169 0
150 172 0
149 168 0
144 165 0
149 172 0
145 167 0
149 168 0
146 167 0
148 170 0
138 159 0
152 173 0
151 173 0
156 178 0
148 170 0
150 173 0
150 172 0
144 166 0
142 163 0
148 169 0
151 172 0
145 167 0
140 160 0
149 172 0
149 171 0
159 181 0
150 170 0
151 172 0
145 167 0
147 168 0
150 173 0
147 167 0
149 169 0
149 170 0
150 173 0
146 167 0
137 158 0
142 163 0
137 157 0
147 168 0
146 167 0
147 168 0
147 169 0
146 167 0
142 162 0
141 164 0
145 166 0
137 158 0
152 174 0
139 159 0
154 176 0
150 172 0
144 166 0
146 168 0
147 168 0
144 164 0
146 167 0
143 164 0
137 159 0
139 159 0
139 160 0
152 172 0
149 171 0
144 165 0
148 170 0
139 160 0
146 167 0
143 164 0
145 166 0
145 166 0
146 167 0
141 163 0
147 169 0
143 164 0
144 165 0
152 172 0
152 174 0
152 174 0
148 169 0
153 174 0
146 168 0
144 166 0
148 169 0
149 169 0
148 169 0
146 166 0
145 167 0
152 173 0
145 165 0
143 164 0
147 170 0
154 175 0
146 166 0
148 168 0
150 170 0
147 168 0
142 163 0
137 155 0
150 171 0
152 173 0
144 165 0
148 168 0
152 172 0
148 168 0
140 161 0
151 172 0
144 165 0
143 164 0
154 176 0
149 170 0
151 172 0
147 170 0
151 172 0
149 168 0
143 161 0
150 168 0
150 171 0
139 158 0
149 170 0
150 170 0
142 161 0
156 177 0
149 169 0
153 174 0
143 163 0
151 172 0
149 167 0
148 167 0
148 167 0
153 174 0
153 174 0
148 168 0
151 168 0
153 173 0
150 168 0
151 170 0
148 168 0
151 170 0
145 163 0
148 168 0
153 173 0
152 173 0
144 164 0
152 172 0
156 176 0
146 163 0
155 174 0
154 172 0
154 173 0
150 170 0
143 162 0
152 173 0
151 169 0
154 171 0
150 166 0
156 174 0
149 164 0
144 162 0
146 164 0
143 161 0
150 168 0
152 170 0
155 172 0
147 164 0
153 172 0
151 169 0
150 168 0
146 163 0
142 158 0
147 164 0
150 166 0
154 173 0
146 163 0
149 167 0
143 158 0
153 168 0
155 172 0
152 165 0
153 169 0
155 171 0
149 164 0
153 169 0
152 169 0
152 168 0
149 165 0
154 170 0
153 171 0
151 166 0
158 173 0
154 166 0
153 168 0
149 161 0
148 162 0
154 170 0
147 161 0
151 167 0
157 171 0
156 172 0
148 162 0
143 158 0
151 165 0
147 160 0
149 165 0
148 162 0
153 165 0
151 165 0
150 166 0
151 162 0
150 161 0
147 162 0
155 168 0
152 165 0
150 163 0
152 166 0
155 168 0
157 171 0
160 174 0
158 173 0
153 166 0
153 166 0
154 165 0
150 166 0
153 168 0
154 168 0
154 165 0
157 172 0
156 169 0
156 170 0
155 167 0
154 167 0
150 162 0
152 163 0
156 168 0
153 165 0
148 159 0
157 170 0
149 160 0
157 171 0
157 169 0
154 166 0
154 167 0
149 160 0
159 172 0
154 166 0
155 167 0
160 174 0
158 170 0
158 172 0
155 168 0
150 161 0
152 164 0
162 173 0
152 163 0
157 170 0
156 166 0
159 168 0
157 168 0
162 175 0
161 181 0
158 178 0
160 179 0
156 175 0
161 181 0
162 183 0
163 183 0
155 174 0
155 175 0
157 178 0
154 175 0
163 184 0
153 173 0
158 178 0
160 180 0
158 177 0
156 177 0
155 176 0
155 174 0
158 177 0
155 175 0
150 170 0
158 177 0
156 176 0
156 177 0
157 176 0
157 177 0
159 178 0
159 179 0
154 174 0
155 175 0
156 176 0
157 177 0
152 172 0
154 173 0
146 164 0
155 175 0
154 174 0
158 179 0
152 172 0
154 174 0
157 178 0
150 170 0
153 172 0
150 170 0
157 177 0
150 171 0
148 168 0
147 167 0
160 180 0
152 173 0
160 181 0
156 176 0
153 175 0
160 181 0
152 172 0
156 177 0
150 170 0
152 174 0
153 174 0
151 172 0
153 174 0
153 174 0
154 175 0
158 180 0
154 175 0
153 173 0
150 169 0
157 178 0
157 178 0
152 173 0
153 174 0
156 176 0
156 177 0
156 176 0
147 167 0
156 177 0
146 166 0
149 170 0
157 178 0
153 175 0
147 168 0
152 173 0
150 171 0
155 176 0
151 173 0
159 179 0
154 175 0
156 177 0
158 179 0
147 168 0
155 176 0
155 177 0
151 172 0
155 176 0
153 176 0
149 171 0
157 178 0
146 167 0
154 175 0
153 175 0
151 173 0
153 175 0
151 173 0
148 170 0
157 179 0
148 169 0
148 168 0
148 171 0
144 165 0
150 171 0
150 172 0
155 176 0
143 164 0
153 174 0
155 176 0
153 176 0
145 165 0
151 172 0
143 164 0
154 176 0
151 173 0
149 169 0
155 178 0
146 167 0
149 171 0
152 174 0
151 173 0
156 179 0
146 169 0
148 169 0
152 174 0
149 172 0
146 168 0
157 179 0
150 173 0
154 177 0
158 179 0
154 175 0
145 166 0
154 175 0
151 174 0
146 168 0
144 166 0
154 176 0
141 163 0
153 175 0
153 176 0
150 171 0
148 170 0
153 175 0
152 174 0
152 173 0
144 165 0
148 169 0
156 179 0
153 175 0
143 164 0
150 173 0
145 166 0
143 165 0
148 170 0
150 171 0
151 172 0
145 166 0
141 162 0
147 167 0
152 174 0
148 170 0
155 176 0
147 170 0
153 174 0
142 163 0
147 166 0
148 170 0
148 169 0
149 171 0
151 173 0
141 162 0
150 173 0
150 170 0
148 169 0
152 173 0
142 161 0
147 168 0
147 169 0
148 170 0
144 165 0
140 162 0
145 166 0
149 170 0
149 169 0
149 171 0
148 169 0
146 168 0
145 167 0
148 168 0
144 166 0
148 169 0
149 169 0
145 166 0
149 170 0
153 174 0
150 172 0
146 168 0
144 166 0
141 162 0
148 170 0
147 169 0
150 171 0
147 169 0
146 168 0
147 168 0
148 169 0
147 170 0
143 166 0
150 170 0
143 163 0
148 169 0
149 170 0
147 168 0
149 170 0
146 167 0
143 164 0
149 168 0
146 167 0
145 166 0
147 168 0
144 166 0
155 175 0
151 173 0
148 168 0
144 164 0
153 174 0
145 165 0
145 166 0
151 171 0
146 166 0
143 162 0
146 167 0
151 172 0
152 172 0
146 164 0
148 169 0
154 175 0
152 174 0
142 161 0
144 165 0
148 169 0
153 171 0
148 168 0
142 161 0
144 164 0
149 168 0
143 163 0
153 174 0
147 168 0
147 166 0
156 178 0
142 162 0
147 169 0
148 168 0
151 170 0
148 168 0
147 166 0
147 166 0
145 165 0
151 171 0
156 176 0
149 166 0
147 167 0
146 164 0
149 168 0
148 168 0
148 168 0
152 173 0
154 176 0
147 165 0
146 165 0
152 174 0
147 167 0
153 173 0
144 162 0
150 168 0
155 174 0
151 169 0
147 166 0
151 168 0
147 166 0
153 171 0
155 174 0
149 169 0
148 169 0
152 172 0
149 168 0
154 174 0
159 178 0
143 161 0
156 175 0
150 170 0
157 174 0
144 162 0
159 178 0
147 166 0
154 173 0
156 175 0
148 166 0
154 172 0
147 165 0
150 169 0
151 169 0
154 172 0
149 167 0
154 172 0
150 167 0
150 167 0
151 168 0
153 171 0
151 167 0
146 162 0
151 169 0
154 169 0
143 160 0
151 169 0
155 171 0
154 170 0
147 163 0
158 176 0
152 165 0
148 163 0
153 171 0
151 168 0
154 172 0
148 163 0
147 160 0
151 166 0
158 173 0
152 170 0
151 165 0
150 165 0
154 169 0
155 172 0
154 167 0
152 169 0
150 163 0
144 156 0
158 174 0
148 163 0
153 166 0
150 166 0
152 165 0
151 168 0
154 169 0
155 169 0
154 167 0
156 172 0
153 165 0
160 174 0
153 168 0
150 163 0
153 167 0
155 169 0
153 163 0
150 164 0
156 168 0
153 164 0
150 163 0
155 170 0
152 165 0
151 165 0
154 164 0
156 170 0
153 167 0
155 167 0
151 163 0
156 169 0
154 165 0
149 161 0
155 168 0
146 158 0
160 171 0
152 164 0
157 171 0
153 164 0
157 170 0
151 162 0
153 163 0
156 169 0
163 178 0
163 177 0
157 168 0
160 174 0
154 164 0
154 167 0
158 172 0
159 172 0
155 166 0
163 174 0
160 172 0
155 166 0
158 177 0
161 180 0
161 180 0
161 182 0
161 180 0
166 186 0
159 179 0
160 181 0
158 178 0
157 177 0
161 181 0
164 184 0
159 179 0
158 177 0
159 179 0
160 180 0
158 176 0
163 183 0
156 176 0
157 177 0
155 174 0
156 175 0
157 177 0
156 175 0
165 186 0
149 168 0
156 175 0
163 184 0
155 176 0
158 178 0
157 178 0
159 178 0
152 173 0
156 176 0
161 182 0
161 181 0
159 181 0
159 179 0
158 178 0
155 176 0
152 173 0
153 173 0
163 185 0
158 180 0
158 179 0
159 179 0
154 174 0
154 174 0
157 176 0
154 176 0
159 180 0
155 175 0
152 174 0
155 175 0
150 170 0
155 176 0
156 176 0
149 170 0
151 173 0
152 173 0
158 179 0
146 166 0
159 181 0
145 166 0
160 181 0
147 169 0
153 174 0
152 173 0
147 169 0
155 176 0
154 175 0
154 176 0
151 173 0
156 176 0
145 166 0
153 174 0
152 173 0
159 180 0
151 173 0
150 172 0
153 175 0
157 179 0
154 175 0
151 172 0
154 175 0
152 173 0
156 177 0
154 176 0
154 175 0
153 174 0
150 170 0
146 168 0
154 175 0
158 179 0
150 171 0
156 178 0
151 173 0
157 178 0
146 167 0
152 174 0
150 171 0
149 170 0
148 170 0
153 175 0
154 177 0
153 174 0
147 169 0
153 174 0
147 168 0
157 179 0
149 170 0
154 175 0
150 172 0
156 176 0
155 177 0
155 177 0
156 177 0
148 171 0
153 175 0
151 173 0
153 175 0
152 173 0
150 171 0
154 176 0
152 174 0
151 173 0
145 167 0
151 173 0
151 172 0
148 170 0
155 177 0
150 171 0
157 179 0
150 173 0
144 164 0
152 173 0
148 169 0
147 168 0
150 173 0
150 172 0
145 165 0
148 170 0
153 176 0
157 178 0
153 174 0
147 168 0
143 165 0
146 168 0
149 171 0
156 178 0
147 168 0
146 167 0
156 178 0
137 158 0
150 172 0
144 166 0
145 166 0
146 168 0
154 176 0
156 178 0
152 173 0
154 175 0
140 161 0
156 179 0
145 167 0
150 172 0
151 172 0
145 166 0
143 164 0
151 174 0
147 169 0
150 173 0
145 167 0
146 168 0
144 164 0
142 164 0
153 175 0
147 169 0
154 175 0
153 173 0
137 159 0
145 167 0
135 155 0
151 173 0
149 171 0
155 176 0
148 170 0
153 174 0
148 168 0
143 165 0
147 167 0
147 169 0
148 169 0
137 158 0
144 164 0
150 171 0
150 172 0
140 160 0
142 161 0
142 163 0
149 170 0
152 174 0
153 173 0
145 167 0
148 167 0
153 176 0
146 167 0
146 167 0
156 178 0
144 166 0
151 172 0
148 168 0
148 170 0
150 171 0
150 171 0
148 169 0
136 157 0
144 164 0
146 167 0
143 164 0
151 172 0
153 175 0
151 173 0
143 163 0
152 174 0
152 175 0
149 169 0
144 165 0
140 161 0
148 169 0
143 164 0
151 172 0
148 170 0
147 167 0
144 165 0
153 175 0
150 170 0
145 167 0
151 172 0
146 165 0
147 168 0
143 165 0
147 168 0
150 171 0
147 169 0
145 166 0
147 168 0
147 167 0
148 168 0
146 167 0
153 174 0
152 173 0
147 168 0
148 169 0
155 176 0
147 167 0
146 165 0
148 166 0
142 162 0
149 170 0
152 171 0
152 171 0
146 166 0
150 169 0
149 169 0
147 166 0
146 166 0
152 172 0
154 174 0
150 170 0
147 167 0
146 165 0
142 161 0
155 175 0
148 167 0
160 180 0
140 158 0
154 176 0
146 168 0
139 158 0
148 169 0
148 168 0
155 175 0
154 174 0
149 169 0
145 163 0
150 169 0
147 163 0
150 170 0
156 175 0
146 165 0
148 165 0
155 173 0
150 168 0
148 165 0
148 167 0
149 168 0
152 170 0
144 162 0
157 178 0
155 173 0
153 173 0
150 169 0
147 165 0
152 169 0
149 168 0
157 174 0
153 170 0
150 167 0
150 169 0
147 164 0
152 169 0
152 171 0
153 172 0
155 171 0
150 167 0
152 171 0
149 167 0
153 169 0
151 168 0
156 174 0
154 172 0
153 170 0
158 176 0
149 165 0
147 163 0
151 165 0
157 174 0
157 173 0
146 162 0
155 172 0
153 168 0
146 162 0
153 169 0
150 165 0
157 172 0
151 167 0
156 171 0
150 167 0
148 164 0
147 160 0
154 168 0
148 163 0
156 170 0
153 167 0
150 166 0
152 167 0
149 164 0
146 160 0
157 172 0
158 173 0
149 164 0
155 169 0
156 172 0
153 168 0
151 166 0
149 161 0
149 164 0
157 171 0
158 173 0
155 171 0
153 166 0
161 176 0
158 171 0
152 164 0
151 164 0
162 174 0
150 161 0
154 166 0
157 167 0
158 172 0
151 165 0
147 159 0
151 164 0
155 168 0
154 166 0
156 170 0
159 174 0
158 172 0
154 168 0
149 160 0
155 165 0
159 173 0
160 172 0
156 168 0
157 168 0
159 172 0
156 167 0
156 168 0
159 173 0
161 173 0
150 162 0
157 169 0
152 163 0
149 161 0
156 169 0
155 168 0
156 169 0
160 171 0
163 176 0
159 179 0
166 187 0
161 181 0
159 178 0
162 182 0
159 179 0
158 179 0
152 171 0
160 180 0
157 176 0
160 179 0
162 184 0
156 176 0
157 177 0
159 180 0
156 175 0
158 178 0
155 175 0
158 179 0
160 181 0
159 180 0
158 179 0
157 176 0
161 182 0
157 177 0
154 175 0
153 174 0
158 178 0
157 177 0
158 179 0
154 174 0
148 168 0
153 173 0
150 169 0
155 176 0
159 179 0
155 174 0
158 178 0
156 176 0
155 175 0
154 176 0
152 174 0
152 172 0
151 171 0
151 172 0
158 179 0
158 178 0
155 176 0
154 173 0
157 178 0
158 178 0
153 174 0
158 179 0
152 173 0
159 180 0
159 178 0
150 171 0
157 178 0
161 182 0
149 170 0
151 172 0
153 174 0
159 180 0
155 177 0
159 181 0
154 175 0
142 163 0
159 180 0
154 175 0
156 177 0
151 172 0
152 172 0
153 174 0
146 167 0
148 169 0
152 173 0
151 172 0
156 177 0
153 174 0
149 169 0
147 167 0
158 179 0
153 174 0
156 178 0
156 177 0
157 178 0
154 176 0
146 167 0
146 167 0
158 179 0
151 174 0
155 176 0
155 176 0
147 168 0
152 174 0
157 180 0
150 171 0
150 172 0
151 172 0
150 171 0
153 176 0
159 181 0
157 180 0
155 177 0
153 175 0
154 176 0
154 176 0
152 174 0
151 174 0
154 176 0
145 166 0
151 173 0
151 172 0
155 176 0
146 167 0
161 183 0
150 171 0
147 169 0
147 168 0
147 167 0
158 179 0
157 179 0
151 173 0
153 176 0
151 173 0
144 165 0
150 172 0
153 174 0
146 167 0
147 169 0
156 177 0
151 172 0
145 167 0
147 169 0
152 173 0
151 174 0
147 169 0
137 158 0
154 176 0
149 172 0
153 175 0
154 175 0
151 173 0
154 177 0
148 169 0
148 169 0
147 169 0
149 171 0
150 173 0
145 166 0
155 178 0
145 166 0
157 179 0
148 170 0
147 168 0
156 178 0
149 171 0
147 170 0
155 178 0
156 178 0
141 163 0
148 170 0
150 172 0
151 173 0
151 172 0
153 175 0
152 175 0
151 172 0
145 166 0
146 166 0
140 161 0
146 167 0
149 172 0
151 173 0
149 171 0
147 168 0
150 170 0
146 167 0
150 172 0
150 172 0
152 174 0
144 166 0
140 162 0
145 167 0
154 176 0
146 167 0
146 167 0
145 166 0
146 167 0
143 166 0
143 165 0
150 172 0
146 167 0
151 173 0
143 165 0
142 164 0
142 163 0
155 176 0
147 166 0
145 166 0
146 168 0
147 168 0
154 176 0
149 170 0
152 174 0
146 167 0
155 178 0
139 160 0
150 171 0
143 163 0
136 156 0
149 170 0
149 170 0
140 161 0
144 167 0
145 167 0
143 164 0
147 169 0
145 167 0
153 176 0
151 174 0
145 166 0
140 161 0
145 167 0
151 172 0
146 165 0
144 166 0
152 174 0
142 162 0
147 169 0
152 172 0
150 171 0
148 169 0
146 166 0
150 171 0
145 166 0
150 171 0
148 169 0
149 169 0
151 172 0
157 179 0
149 171 0
147 166 0
147 169 0
147 170 0
147 169 0
147 168 0
149 169 0
145 165 0
141 160 0
154 172 0
144 164 0
155 176 0
147 168 0
140 162 0
152 171 0
145 165 0
152 173 0
150 169 0
151 172 0
155 174 0
154 174 0
150 168 0
156 177 0
151 171 0
153 173 0
157 177 0
147 166 0
140 160 0
152 172 0
156 176 0
149 168 0
149 167 0
151 172 0
143 163 0
151 172 0
150 170 0
150 167 0
146 165 0
146 165 0
152 172 0
155 176 0
143 164 0
150 169 0
148 167 0
149 168 0
152 172 0
155 176 0
151 170 0
152 169 0
157 177 0
147 165 0
153 173 0
144 162 0
148 166 0
158 177 0
144 162 0
151 169 0
154 171 0
153 173 0
154 173 0
150 170 0
150 169 0
156 171 0
154 172 0
145 164 0
150 168 0
145 165 0
145 161 0
154 170 0
149 169 0
151 167 0
153 171 0
149 169 0
160 175 0
146 164 0
153 169 0
148 166 0
155 173 0
154 170 0
143 160 0
156 173 0
155 172 0
151 165 0
153 169 0
152 169 0
151 168 0
144 159 0
154 173 0
152 169 0
151 168 0
155 173 0
151 169 0
152 166 0
156 173 0
150 167 0
160 176 0
157 173 0
147 163 0
153 169 0
157 174 0
157 171 0
153 170 0
152 167 0
148 163 0
153 169 0
149 162 0
152 168 0
151 166 0
157 172 0
151 166 0
153 167 0
151 167 0
152 167 0
154 168 0
150 164 0
152 168 0
156 174 0
156 171 0
154 168 0
159 173 0
150 163 0
152 166 0
158 172 0
155 172 0
152 167 0
156 168 0
155 168 0
153 166 0
150 164 0
150 164 0
156 170 0
152 167 0
160 173 0
155 169 0
159 172 0
155 169 0
158 172 0
153 165 0
154 167 0
164 177 0
163 177 0
148 163 0
151 164 0
153 166 0
155 166 0
154 168 0
156 169 0
158 170 0
155 170 0
156 171 0
156 167 0
157 169 0
153 165 0
156 167 0
161 175 0
161 175 0
163 178 0
158 174 0
158 171 0
162 183 0
157 177 0
161 180 0
159 180 0
156 176 0
156 176 0
157 177 0
159 179 0
157 177 0
161 180 0
160 180 0
160 181 0
159 179 0
155 176 0
162 182 0
155 176 0
156 177 0
159 178 0
162 182 0
157 177 0
160 181 0
153 173 0
163 184 0
162 183 0
158 179 0
158 178 0
155 175 0
154 174 0
152 172 0
157 178 0
151 170 0
154 175 0
156 177 0
147 167 0
161 181 0
151 171 0
157 177 0
155 175 0
154 175 0
151 172 0
162 182 0
158 178 0
160 181 0
156 176 0
163 184 0
153 174 0
159 179 0
159 180 0
152 172 0
152 174 0
156 177 0
155 177 0
158 179 0
156 177 0
149 168 0
158 179 0
156 177 0
153 173 0
158 180 0
160 181 0
152 172 0
160 181 0
156 178 0
155 176 0
159 180 0
153 174 0
159 180 0
154 175 0
151 172 0
154 176 0
152 174 0
159 181 0
159 179 0
150 172 0
154 175 0
154 175 0
159 181 0
153 175 0
156 177 0
159 181 0
152 174 0
153 174 0
150 172 0
151 173 0
157 178 0
151 171 0
152 174 0
151 171 0
156 178 0
150 172 0
152 174 0
148 169 0
155 177 0
150 172 0
153 175 0
151 173 0
155 177 0
155 178 0
156 177 0
142 164 0
152 173 0
151 173 0
159 180 0
157 180 0
154 175 0
152 173 0
158 180 0
151 172 0
148 171 0
145 168 0
156 178 0
151 174 0
152 173 0
148 170 0
152 175 0
150 172 0
156 178 0
150 171 0
156 178 0
152 174 0
148 170 0
146 167 0
154 175 0
150 171 0
156 179 0
147 168 0
152 172 0
152 175 0
152 175 0
145 165 0
154 178 0
154 176 0
152 174 0
149 171 0
147 169 0
147 168 0
145 167 0
149 171 0
148 171 0
144 166 0
153 175 0
149 170 0
154 177 0
150 172 0
153 175 0
153 173 0
142 163 0
149 171 0
153 175 0
143 165 0
152 174 0
152 173 0
154 176 0
145 167 0
142 164 0
153 174 0
148 170 0
150 171 0
149 170 0
149 170 0
154 175 0
152 175 0
148 168 0
152 173 0
145 167 0
151 174 0
149 171 0
151 173 0
150 172 0
148 168 0
149 172 0
156 178 0
152 173 0
158 180 0
148 169 0
151 173 0
149 170 0
155 177 0
143 165 0
151 172 0
145 168 0
146 167 0
144 166 0
144 166 0
149 172 0
154 177 0
150 172 0
148 169 0
151 173 0
150 172 0
145 164 0
157 179 0
146 167 0
153 176 0
150 172 0
152 173 0
151 172 0
161 182 0
150 172 0
151 173 0
151 171 0
150 171 0
146 167 0
154 176 0
152 173 0
152 173 0
148 171 0
145 167 0
150 170 0
154 176 0
143 164 0
147 170 0
146 167 0
146 166 0
149 170 0
146 167 0
146 166 0
146 168 0
154 175 0
144 165 0
152 171 0
145 167 0
144 165 0
149 170 0
149 170 0
154 173 0
148 169 0
143 163 0
153 173 0
150 170 0
149 171 0
148 169 0
155 177 0
148 169 0
144 165 0
150 170 0
150 170 0
153 175 0
154 175 0
144 164 0
147 169 0
148 169 0
145 165 0
149 170 0
150 172 0
151 170 0
155 178 0
150 171 0
151 173 0
143 162 0
155 176 0
148 169 0
147 168 0
152 173 0
151 172 0
147 165 0
147 166 0
149 169 0
139 159 0
154 176 0
160 181 0
150 170 0
148 168 0
151 170 0
157 178 0
148 168 0
147 168 0
150 169 0
156 177 0
150 170 0
154 173 0
149 169 0
144 164 0
153 174 0
156 176 0
148 168 0
151 172 0
156 175 0
143 162 0
149 167 0
155 175 0
150 169 0
151 171 0
154 173 0
152 172 0
153 171 0
150 168 0
151 168 0
155 175 0
150 169 0
152 172 0
152 173 0
154 175 0
145 163 0
158 177 0
147 166 0
149 168 0
158 178 0
153 172 0
146 164 0
148 166 0
159 178 0
143 162 0
151 169 0
150 168 0
147 165 0
153 171 0
154 174 0
156 174 0
148 167 0
148 166 0
157 174 0
153 171 0
148 164 0
157 174 0
147 163 0
155 171 0
153 170 0
151 170 0
154 171 0
152 168 0
157 176 0
156 173 0
147 164 0
149 165 0
157 174 0
150 169 0
153 169 0
160 176 0
152 169 0
151 166 0
158 174 0
149 165 0
156 171 0
158 175 0
154 167 0
153 167 0
154 169 0
148 165 0
151 169 0
154 171 0
151 166 0
151 165 0
154 170 0
152 166 0
150 167 0
153 167 0
154 169 0
160 177 0
156 170 0
156 172 0
152 168 0
154 170 0
151 168 0
154 169 0
155 168 0
157 174 0
147 161 0
153 170 0
154 170 0
157 171 0
150 165 0
152 168 0
146 160 0
150 161 0
158 173 0
151 162 0
152 163 0
152 166 0
152 165 0
155 171 0
156 170 0
155 170 0
149 161 0
153 167 0
155 168 0
160 177 0
157 172 0
155 168 0
153 164 0
153 163 0
157 169 0
160 170 0
158 172 0
154 166 0
155 169 0
157 169 0
156 168 0
157 168 0
152 165 0
155 166 0
161 174 0
159 170 0
152 163 0
151 163 0
154 167 0
160 173 0
155 166 0
158 173 0
164 178 0
158 178 0
157 176 0
160 180 0
158 178 0
158 178 0
157 177 0
164 184 0
158 178 0
163 183 0
161 182 0
158 180 0
154 173 0
156 176 0
160 182 0
157 177 0
158 178 0
158 179 0
154 175 0
158 178 0
154 174 0
153 173 0
155 176 0
161 182 0
162 183 0
151 171 0
156 176 0
156 177 0
157 178 0
156 176 0
152 172 0
158 179 0
156 177 0
152 172 0
151 171 0
154 174 0
160 180 0
153 174 0
158 178 0
160 181 0
159 180 0
157 178 0
159 179 0
155 175 0
157 178 0
156 177 0
158 178 0
158 179 0
158 179 0
157 178 0
155 176 0
156 176 0
154 175 0
153 173 0
157 178 0
156 178 0
155 177 0
150 171 0
160 182 0
155 177 0
155 176 0
162 183 0
149 170 0
157 178 0
157 178 0
154 175 0
149 169 0
153 173 0
150 171 0
151 172 0
157 179 0
144 165 0
157 180 0
153 173 0
152 172 0
154 175 0
148 169 0
157 178 0
152 172 0
158 178 0
158 180 0
151 172 0
155 176 0
152 175 0
151 173 0
156 177 0
153 175 0
156 176 0
154 176 0
150 172 0
159 181 0
151 172 0
152 174 0
151 172 0
156 178 0
147 169 0
151 172 0
156 177 0
141 163 0
157 180 0
153 175 0
149 170 0
149 172 0
158 181 0
153 176 0
151 172 0
153 173 0
148 170 0
151 173 0
152 174 0
153 175 0
154 176 0
153 174 0
148 170 0
154 176 0
148 171 0
149 171 0
152 175 0
147 168 0
156 178 0
155 176 0
156 177 0
154 175 0
151 172 0
145 166 0
158 180 0
146 168 0
148 168 0
153 175 0
146 167 0
148 171 0
149 170 0
149 171 0
148 170 0
147 169 0
146 167 0
148 170 0
141 163 0
158 180 0
146 168 0
155 177 0
154 177 0
145 167 0
149 171 0
147 170 0
142 163 0
148 170 0
151 171 0
147 167 0
152 175 0
158 180 0
144 165 0
150 172 0
150 172 0
148 170 0
150 171 0
152 174 0
151 172 0
145 168 0
146 167 0
141 161 0
149 170 0
149 171 0
155 177 0
148 170 0
151 173 0
151 172 0
153 174 0
152 174 0
149 170 0
142 164 0
154 176 0
147 168 0
153 174 0
149 170 0
141 162 0
149 170 0
151 173 0
149 170 0
142 164 0
146 168 0
151 174 0
147 170 0
146 168 0
149 171 0
151 173 0
139 161 0
150 171 0
150 172 0
147 167 0
149 171 0
150 173 0
140 161 0
147 169 0
148 169 0
142 162 0
147 169 0
146 167 0
146 168 0
157 179 0
149 171 0
148 169 0
154 177 0
146 167 0
148 172 0
147 170 0
158 180 0
153 176 0
147 168 0
147 169 0
147 168 0
141 161 0
147 168 0
154 175 0
147 169 0
139 160 0
144 165 0
141 162 0
148 169 0
148 169 0
149 169 0
147 167 0
151 172 0
139 163 0
146 167 0
145 165 0
154 175 0
152 172 0
146 168 0
154 175 0
145 165 0
155 177 0
153 175 0
153 173 0
154 176 0
149 170 0
144 166 0
150 171 0
149 171 0
148 168 0
150 171 0
151 171 0
146 167 0
148 169 0
142 161 0
152 172 0
152 173 0
146 167 0
150 170 0
150 171 0
145 166 0
154 174 0
147 167 0
144 163 0
151 173 0
149 170 0
147 166 0
151 173 0
152 172 0
153 173 0
142 159 0
145 165 0
154 174 0
152 173 0
153 175 0
148 168 0
151 172 0
148 167 0
149 169 0
152 173 0
149 169 0
150 170 0
154 175 0
147 166 0
150 170 0
151 172 0
154 173 0
155 174 0
150 170 0
151 171 0
148 167 0
148 169 0
150 170 0
146 165 0
153 174 0
144 162 0
153 172 0
148 167 0
147 166 0
148 169 0
148 167 0
152 172 0
148 167 0
142 158 0
154 173 0
151 170 0
149 167 0
147 166 0
154 173 0
153 172 0
145 164 0
154 173 0
158 179 0
157 176 0
159 179 0
147 163 0
157 175 0
145 162 0
155 173 0
157 174 0
155 172 0
156 175 0
150 168 0
147 164 0
157 175 0
158 180 0
152 171 0
156 173 0
156 173 0
154 171 0
160 179 0
157 174 0
152 171 0
157 176 0
151 168 0
146 164 0
145 163 0
156 173 0
152 168 0
158 176 0
148 164 0
153 171 0
147 164 0
155 172 0
152 168 0
145 159 0
156 172 0
152 169 0
156 172 0
152 169 0
153 168 0
157 174 0
155 172 0
157 174 0
152 169 0
148 163 0
154 167 0
158 173 0
161 179 0
152 168 0
155 171 0
154 169 0
148 164 0
151 167 0
159 173 0
154 170 0
150 165 0
161 178 0
155 169 0
156 170 0
158 172 0
152 170 0
155 170 0
154 168 0
156 172 0
158 173 0
158 174 0
153 167 0
153 165 0
154 169 0
158 170 0
160 173 0
153 167 0
157 171 0
152 166 0
163 179 0
159 174 0
159 176 0
155 170 0
157 171 0
163 180 0
154 168 0
156 170 0
159 171 0
158 172 0
155 167 0
151 164 0
156 169 0
156 170 0
156 167 0
153 165 0
161 174 0
158 173 0
158 171 0
161 175 0
152 163 0
158 171 0
159 173 0
160 172 0
159 173 0
155 166 0
157 177 0
159 180 0
158 178 0
164 185 0
159 180 0
156 177 0
160 179 0
159 179 0
158 179 0
157 178 0
157 177 0
156 176 0
157 178 0
154 174 0
159 180 0
162 183 0
155 176 0
156 177 0
157 176 0
161 181 0
158 179 0
159 179 0
162 182 0
152 172 0
160 181 0
163 184 0
159 180 0
151 171 0
158 178 0
153 172 0
156 176 0
159 180 0
147 166 0
155 176 0
163 184 0
157 178 0
155 175 0
159 179 0
154 175 0
152 172 0
158 178 0
158 178 0
160 180 0
159 180 0
160 181 0
151 171 0
155 176 0
156 177 0
156 177 0
159 181 0
161 181 0
147 166 0
149 170 0
155 176 0
156 176 0
155 175 0
158 180 0
154 175 0
152 174 0
159 179 0
157 179 0
152 173 0
154 175 0
154 175 0
156 178 0
157 179 0
155 176 0
150 171 0
152 173 0
143 164 0
149 171 0
154 175 0
147 168 0
151 172 0
150 172 0
153 174 0
153 174 0
160 182 0
154 175 0
155 177 0
153 174 0
146 168 0
153 175 0
155 176 0
151 172 0
156 176 0
155 177 0
153 175 0
154 175 0
156 178 0
149 171 0
159 181 0
157 179 0
151 173 0
154 175 0
155 176 0
157 178 0
147 168 0
153 175 0
151 172 0
150 170 0
150 172 0
147 169 0
158 180 0
159 182 0
148 170 0
155 178 0
152 174 0
149 169 0
159 181 0
156 177 0
156 178 0
154 176 0
146 166 0
155 178 0
149 172 0
155 175 0
144 166 0
158 180 0
156 179 0
152 174 0
152 174 0
152 175 0
153 176 0
152 174 0
157 180 0
148 170 0
151 172 0
148 169 0
149 171 0
156 178 0
160 183 0
154 176 0
155 178 0
152 173 0
155 176 0
149 171 0
154 176 0
152 174 0
155 177 0
164 186 0
153 174 0
155 177 0
146 169 0
150 172 0
154 175 0
149 171 0
153 175 0
142 164 0
151 173 0
149 170 0
156 178 0
149 169 0
142 163 0
145 166 0
144 166 0
140 162 0
142 163 0
151 173 0
152 174 0
154 177 0
144 167 0
152 175 0
152 173 0
146 168 0
145 168 0
157 178 0
146 167 0
148 171 0
149 171 0
146 167 0
150 172 0
144 166 0
145 166 0
148 168 0
149 169 0
150 173 0
145 168 0
156 177 0
145 166 0
145 167 0
146 168 0
146 168 0
147 168 0
150 171 0
147 169 0
152 173 0
144 166 0
153 175 0
145 167 0
157 180 0
149 169 0
156 179 0
144 165 0
151 174 0
143 164 0
148 170 0
159 182 0
146 168 0
149 170 0
140 162 0
158 180 0
151 171 0
145 165 0
152 173 0
150 171 0
150 172 0
153 175 0
142 163 0
153 174 0
148 167 0
147 168 0
139 161 0
143 164 0
144 165 0
141 161 0
150 169 0
148 169 0
140 161 0
150 171 0
148 169 0
149 171 0
156 178 0
145 165 0
151 171 0
149 171 0
152 174 0
145 165 0
153 174 0
149 170 0
145 166 0
150 170 0
147 167 0
147 167 0
153 172 0
154 172 0
145 166 0
147 167 0
150 171 0
141 161 0
157 179 0
143 164 0
143 162 0
142 163 0
153 175 0
156 178 0
158 178 0
149 171 0
151 171 0
146 167 0
153 173 0
147 168 0
142 161 0
154 176 0
154 175 0
154 175 0
151 172 0
150 171 0
156 176 0
150 170 0
152 175 0
147 169 0
152 173 0
154 175 0
152 172 0
146 166 0
145 165 0
153 174 0
139 157 0
159 179 0
144 163 0
149 170 0
143 163 0
150 170 0
150 170 0
145 163 0
151 171 0
153 173 0
153 174 0
151 171 0
152 172 0
153 171 0
145 162 0
143 163 0
155 176 0
153 174 0
145 164 0
154 176 0
151 169 0
148 167 0
147 166 0
151 170 0
155 174 0
155 172 0
149 165 0
155 175 0
144 162 0
152 171 0
149 167 0
157 177 0
153 171 0
152 172 0
155 174 0
156 176 0
150 168 0
147 162 0
151 171 0
157 175 0
153 173 0
154 173 0
157 174 0
143 162 0
154 173 0
159 178 0
149 165 0
156 175 0
143 161 0
153 172 0
150 167 0
147 163 0
154 172 0
153 169 0
157 175 0
159 177 0
152 171 0
154 174 0
156 175 0
156 173 0
156 175 0
151 169 0
154 173 0
153 171 0
151 165 0
152 171 0
146 163 0
159 174 0
158 174 0
153 169 0
152 170 0
157 173 0
156 172 0
153 169 0
148 164 0
154 170 0
146 160 0
154 170 0
160 177 0
157 171 0
154 169 0
154 169 0
152 169 0
155 170 0
151 167 0
148 162 0
160 176 0
154 171 0
159 176 0
153 167 0
154 168 0
149 165 0
152 168 0
153 165 0
150 166 0
159 174 0
146 161 0
147 161 0
147 160 0
150 166 0
156 170 0
153 166 0
152 166 0
154 166 0
155 168 0
154 167 0
146 160 0
149 161 0
158 173 0
155 168 0
151 162 0
149 161 0
148 164 0
164 181 0
160 172 0
149 161 0
153 168 0
155 169 0
160 176 0
161 174 0
156 170 0
161 176 0
154 166 0
156 170 0
155 170 0
158 170 0
160 173 0
159 171 0
159 172 0
157 170 0
159 174 0
157 171 0
158 178 0
159 178 0
158 177 0
163 183 0
165 186 0
153 174 0
157 177 0
156 177 0
156 176 0
157 178 0
158 178 0
158 178 0
158 179 0
158 178 0
156 177 0
156 176 0
156 177 0
153 173 0
159 179 0
155 175 0
149 169 0
160 182 0
158 178 0
153 172 0
159 181 0
159 179 0
157 178 0
161 182 0
154 174 0
154 175 0
156 176 0
162 183 0
156 176 0
156 176 0
155 176 0
159 179 0
155 176 0
160 181 0
157 178 0
158 179 0
156 176 0
158 179 0
151 172 0
160 180 0
156 176 0
154 174 0
154 175 0
155 176 0
156 176 0
163 184 0
150 172 0
151 173 0
155 177 0
159 180 0
157 177 0
160 181 0
155 176 0
152 173 0
150 171 0
153 174 0
156 178 0
152 173 0
153 176 0
156 177 0
154 175 0
153 174 0
159 181 0
157 178 0
159 181 0
156 178 0
152 173 0
149 170 0
156 178 0
145 167 0
160 181 0
156 177 0
152 174 0
152 173 0
150 170 0
154 176 0
155 175 0
155 176 0
151 171 0
155 177 0
147 169 0
149 169 0
157 179 0
156 177 0
156 178 0
154 177 0
152 173 0
153 174 0
146 168 0
158 179 0
154 175 0
151 172 0
148 169 0
156 176 0
157 178 0
157 178 0
147 169 0
146 168 0
159 180 0
157 178 0
150 171 0
154 176 0
151 174 0
150 171 0
155 178 0
154 175 0
158 181 0
149 171 0
156 178 0
153 175 0
152 173 0
151 173 0
153 175 0
156 178 0
150 171 0
152 175 0
156 177 0
154 176 0
155 177 0
151 173 0
146 167 0
150 172 0
147 168 0
155 177 0
156 178 0
150 172 0
145 167 0
152 174 0
147 169 0
154 176 0
149 171 0
158 179 0
155 178 0
148 171 0
146 167 0
159 182 0
146 167 0
152 173 0
150 170 0
151 173 0
145 167 0
154 176 0
147 169 0
148 171 0
153 176 0
153 175 0
158 180 0
151 174 0
156 179 0
155 177 0
156 179 0
149 171 0
151 173 0
146 167 0
151 174 0
149 171 0
148 169 0
156 179 0
146 168 0
154 176 0
147 169 0
155 177 0
152 175 0
140 162 0
145 166 0
149 170 0
148 170 0
143 165 0
151 173 0
146 167 0
151 172 0
148 171 0
151 172 0
156 178 0
152 172 0
153 174 0
149 172 0
146 167 0
151 173 0
152 174 0
144 166 0
157 178 0
145 166 0
140 161 0
141 162 0
156 179 0
153 176 0
149 171 0
143 166 0
145 166 0
153 175 0
138 161 0
152 173 0
149 172 0
142 165 0
147 168 0
150 173 0
148 169 0
149 172 0
148 170 0
146 166 0
146 167 0
149 171 0
148 170 0
149 171 0
149 169 0
152 174 0
153 175 0
147 168 0
149 170 0
145 167 0
152 174 0
151 173 0
146 168 0
146 165 0
155 176 0
151 174 0
149 170 0
144 165 0
144 165 0
153 174 0
154 175 0
151 174 0
141 163 0
155 177 0
151 172 0
142 162 0
152 175 0
150 169 0
153 173 0
146 164 0
154 176 0
147 168 0
150 170 0
153 174 0
156 176 0
145 165 0
149 169 0
150 171 0
142 164 0
153 175 0
151 172 0
147 168 0
156 178 0
150 170 0
150 172 0
153 173 0
152 172 0
155 174 0
140 159 0
147 167 0
144 166 0
152 171 0
151 171 0
145 165 0
152 173 0
153 175 0
149 169 0
149 167 0
151 172 0
149 168 0
148 169 0
152 174 0
155 177 0
157 178 0
151 172 0
148 169 0
151 170 0
153 172 0
150 171 0
152 171 0
145 163 0
156 176 0
155 174 0
146 166 0
142 163 0
148 168 0
145 165 0
151 170 0
150 170 0
149 170 0
151 171 0
156 176 0
152 171 0
156 176 0
150 169 0
156 176 0
151 171 0
154 172 0
152 172 0
145 164 0
152 173 0
143 161 0
152 171 0
146 163 0
150 169 0
152 171 0
154 172 0
150 169 0
147 166 0
147 164 0
147 164 0
146 165 0
149 169 0
160 179 0
152 170 0
154 172 0
156 174 0
151 171 0
149 164 0
154 171 0
153 169 0
156 172 0
144 159 0
158 177 0
157 174 0
149 168 0
148 165 0
152 167 0
160 180 0
150 166 0
152 167 0
149 166 0
161 181 0
154 171 0
143 159 0
150 165 0
149 164 0
155 172 0
153 168 0
161 179 0
153 173 0
150 165 0
151 167 0
154 172 0
157 174 0
152 167 0
158 177 0
155 170 0
155 170 0
153 169 0
158 174 0
158 175 0
158 175 0
154 172 0
152 167 0
153 170 0
157 173 0
158 175 0
159 176 0
158 175 0
154 169 0
154 171 0
151 166 0
154 169 0
156 172 0
155 170 0
151 165 0
153 166 0
151 164 0
160 175 0
158 172 0
156 171 0
152 170 0
152 167 0
154 166 0
162 177 0
156 172 0
155 168 0
159 173 0
150 164 0
160 173 0
156 171 0
155 170 0
160 174 0
159 174 0
155 167 0
152 165 0
160 175 0
153 167 0
162 178 0
150 162 0
155 170 0
155 170 0
148 161 0
162 175 0
154 167 0
153 167 0
159 172 0
157 171 0
152 165 0
150 162 0
157 170 0
155 168 0
157 171 0
156 170 0
160 180 0
161 181 0
160 180 0
155 175 0
151 172 0
160 180 0
157 178 0
156 176 0
156 175 0
157 177 0
161 182 0
154 175 0
160 180 0
160 181 0
161 181 0
156 177 0
158 180 0
153 174 0
152 174 0
152 173 0
160 181 0
161 182 0
154 174 0
162 182 0
156 175 0
153 173 0
156 177 0
164 186 0
158 179 0
158 179 0
153 173 0
154 175 0
152 172 0
159 180 0
158 179 0
157 178 0
152 171 0
156 177 0
160 180 0
157 177 0
161 181 0
157 177 0
159 179 0
154 175 0
160 182 0
156 177 0
153 175 0
156 177 0
151 172 0
156 176 0
151 170 0
158 179 0
157 178 0
156 178 0
152 173 0
156 177 0
151 172 0
152 173 0
153 174 0
153 173 0
154 174 0
158 179 0
152 172 0
159 181 0
156 177 0
153 174 0
157 179 0
158 179 0
153 174 0
157 179 0
153 174 0
160 182 0
152 173 0
153 174 0
152 173 0
157 179 0
156 178 0
162 184 0
160 182 0
149 170 0
154 177 0
155 177 0
143 164 0
156 178 0
160 181 0
153 174 0
148 170 0
156 177 0
151 173 0
149 171 0
156 177 0
152 173 0
157 179 0
154 176 0
157 179 0
154 176 0
155 178 0
153 175 0
151 173 0
149 172 0
152 174 0
151 173 0
147 167 0
154 177 0
154 176 0
157 179 0
152 173 0
149 171 0
155 178 0
155 177 0
156 178 0
154 176 0
145 168 0
155 177 0
151 173 0
150 171 0
150 172 0
150 172 0
158 180 0
151 174 0
154 176 0
153 176 0
148 170 0
151 174 0
155 177 0
152 174 0
153 175 0
152 174 0
161 184 0
156 178 0
151 173 0
153 175 0
150 173 0
149 170 0
151 173 0
147 170 0
150 173 0
154 176 0
148 170 0
148 170 0
149 171 0
151 174 0
147 169 0
144 165 0
147 169 0
150 173 0
151 173 0
145 167 0
153 174 0
154 177 0
151 172 0
148 169 0
153 175 0
153 175 0
148 169 0
149 169 0
151 172 0
147 169 0
155 176 0
146 167 0
158 180 0
151 172 0
154 176 0
153 174 0
153 175 0
143 164 0
149 171 0
150 173 0
148 170 0
148 169 0
141 163 0
144 165 0
153 174 0
153 175 0
155 177 0
143 166 0
151 172 0
156 177 0
149 171 0
147 170 0
154 177 0
149 170 0
158 180 0
149 171 0
143 164 0
145 167 0
147 168 0
149 170 0
146 169 0
153 174 0
155 177 0
145 167 0
147 168 0
146 168 0
150 172 0
153 175 0
144 165 0
147 170 0
149 171 0
148 169 0
144 166 0
149 171 0
150 172 0
153 175 0
148 170 0
149 170 0
141 162 0
156 177 0
150 173 0
151 171 0
147 168 0
147 169 0
151 173 0
152 174 0
148 169 0
144 166 0
145 166 0
147 169 0
150 172 0
149 171 0
142 163 0
147 170 0
145 166 0
153 175 0
149 170 0
141 163 0
150 170 0
146 166 0
152 174 0
145 165 0
153 174 0
153 174 0
144 164 0
146 167 0
144 166 0
146 167 0
145 165 0
150 170 0
153 174 0
142 162 0
146 166 0
152 173 0
156 178 0
148 168 0
149 170 0
150 170 0
150 171 0
141 163 0
149 170 0
154 176 0
148 167 0
156 177 0
152 173 0
149 169 0
148 169 0
151 172 0
149 171 0
150 171 0
151 171 0
144 166 0
154 173 0
148 169 0
151 171 0
156 178 0
147 168 0
141 160 0
152 171 0
152 174 0
148 167 0
150 169 0
149 169 0
155 175 0
151 170 0
163 183 0
152 173 0
153 175 0
153 173 0
156 175 0
149 167 0
159 180 0
149 169 0
152 172 0
149 169 0
154 176 0
153 173 0
149 168 0
150 169 0
153 174 0
147 165 0
155 173 0
157 176 0
156 176 0
152 173 0
152 172 0
150 170 0
153 170 0
155 174 0
147 165 0
155 175 0
152 171 0
155 175 0
151 168 0
154 174 0
149 167 0
152 172 0
151 169 0
150 166 0
152 170 0
146 164 0
151 169 0
153 172 0
152 172 0
154 174 0
152 171 0
155 174 0
153 173 0
152 170 0
154 172 0
149 168 0
153 173 0
155 173 0
147 164 0
149 165 0
158 176 0
162 180 0
152 168 0
147 163 0
155 173 0
153 170 0
157 175 0
158 177 0
155 171 0
150 168 0
149 165 0
155 173 0
151 164 0
145 160 0
153 170 0
149 166 0
158 174 0
156 174 0
160 178 0
155 172 0
153 168 0
157 174 0
151 167 0
151 167 0
154 171 0
155 173 0
155 171 0
149 165 0
159 177 0
150 162 0
157 172 0
160 173 0
154 170 0
152 166 0
157 174 0
152 165 0
155 169 0
154 168 0
153 170 0
158 174 0
156 171 0
154 170 0
155 172 0
155 171 0
158 172 0
155 171 0
158 174 0
155 171 0
154 168 0
152 166 0
161 176 0
157 170 0
158 171 0
158 174 0
164 178 0
155 169 0
154 167 0
153 170 0
162 177 0
157 171 0
158 174 0
155 169 0
161 176 0
162 176 0
161 177 0
155 169 0
157 171 0
159 173 0
156 170 0
157 172 0
156 169 0
164 179 0
154 168 0
162 176 0
161 174 0
164 180 0
153 166 0
165 185 0
165 185 0
159 179 0
158 178 0
165 185 0
160 181 0
159 180 0
153 174 0
161 181 0
159 179 0
159 179 0
156 176 0
162 182 0
159 180 0
158 179 0
160 181 0
158 177 0
154 174 0
155 176 0
160 180 0
160 180 0
154 175 0
158 178 0
157 179 0
152 173 0
156 177 0
159 180 0
161 181 0
159 180 0
154 174 0
157 177 0
150 170 0
160 181 0
160 181 0
153 174 0
157 178 0
156 177 0
160 180 0
157 178 0
154 175 0
159 180 0
160 182 0
156 177 0
164 185 0
158 180 0
151 172 0
158 180 0
160 182 0
157 178 0
148 167 0
157 178 0
157 178 0
157 177 0
156 178 0
161 182 0
156 178 0
150 172 0
157 178 0
158 180 0
158 179 0
148 170 0
157 178 0
156 178 0
153 175 0
156 177 0
151 172 0
154 175 0
158 180 0
152 173 0
158 179 0
154 176 0
150 173 0
151 172 0
155 177 0
152 174 0
152 173 0
148 170 0
155 176 0
152 173 0
154 176 0
157 178 0
149 170 0
157 179 0
155 176 0
154 175 0
157 179 0
157 179 0
159 180 0
153 173 0
158 180 0
153 174 0
148 169 0
159 180 0
150 173 0
155 175 0
150 171 0
153 175 0
158 179 0
160 183 0
157 180 0
149 169 0
152 174 0
151 173 0
149 171 0
146 169 0
151 173 0
157 180 0
155 177 0
154 175 0
153 176 0
157 179 0
156 179 0
154 176 0
151 172 0
157 179 0
156 179 0
157 179 0
152 174 0
162 185 0
149 169 0
158 180 0
150 171 0
146 168 0
149 171 0
150 171 0
160 181 0
150 172 0
147 169 0
148 171 0
153 176 0
154 176 0
147 169 0
152 173 0
152 172 0
150 173 0
154 176 0
161 184 0
159 181 0
147 170 0
151 173 0
148 171 0
151 174 0
148 169 0
149 172 0
151 174 0
149 171 0
158 179 0
151 172 0
144 166 0
158 180 0
155 178 0
151 173 0
147 169 0
151 174 0
153 176 0
148 170 0
154 176 0
151 173 0
152 174 0
144 166 0
154 175 0
146 168 0
155 177 0
157 178 0
155 177 0
161 184 0
149 169 0
154 176 0
151 173 0
149 172 0
152 173 0
155 177 0
147 169 0
151 172 0
152 174 0
149 170 0
154 177 0
152 175 0
147 171 0
154 177 0
151 173 0
149 171 0
147 169 0
152 174 0
138 160 0
157 180 0
154 176 0
154 176 0
150 172 0
150 172 0
150 173 0
149 170 0
151 171 0
152 175 0
147 169 0
146 169 0
149 170 0
152 173 0
150 172 0
149 172 0
152 174 0
148 170 0
146 167 0
149 170 0
154 175 0
152 173 0
152 175 0
147 168 0
143 165 0
152 173 0
151 172 0
152 175 0
154 177 0
148 168 0
152 173 0
150 170 0
153 174 0
151 174 0
149 170 0
145 165 0
146 167 0
139 160 0
154 176 0
148 170 0
148 169 0
142 164 0
151 173 0
151 171 0
154 176 0
151 172 0
150 170 0
140 160 0
160 183 0
156 177 0
153 176 0
153 174 0
145 167 0
145 165 0
153 174 0
151 172 0
150 170 0
149 171 0
158 179 0
149 170 0
153 174 0
147 166 0
154 174 0
156 177 0
146 167 0
150 169 0
148 167 0
148 167 0
146 166 0
150 169 0
145 166 0
151 172 0
151 171 0
156 178 0
144 163 0
150 170 0
150 170 0
152 174 0
153 173 0
148 169 0
155 175 0
147 167 0
151 171 0
151 170 0
148 169 0
149 170 0
144 164 0
153 174 0
154 174 0
153 173 0
148 169 0
142 163 0
158 179 0
156 175 0
153 175 0
143 162 0
155 175 0
146 165 0
153 171 0
153 172 0
152 173 0
156 174 0
152 172 0
152 174 0
148 169 0
149 167 0
146 165 0
154 172 0
152 172 0
155 173 0
153 171 0
160 180 0
153 172 0
155 175 0
146 166 0
149 168 0
153 172 0
154 175 0
150 170 0
155 176 0
157 175 0
156 176 0
154 173 0
151 168 0
153 173 0
154 171 0
154 171 0
152 170 0
150 168 0
151 168 0
152 169 0
152 171 0
154 175 0
155 174 0
155 173 0
150 166 0
154 172 0
159 177 0
152 167 0
153 171 0
157 174 0
158 176 0
158 176 0
153 171 0
155 174 0
156 175 0
151 167 0
155 171 0
149 166 0
153 168 0
149 164 0
156 174 0
151 168 0
152 166 0
158 175 0
153 168 0
149 167 0
155 171 0
160 178 0
149 162 0
155 172 0
158 178 0
159 176 0
160 178 0
159 175 0
158 174 0
150 167 0
155 170 0
161 178 0
161 178 0
156 174 0
155 172 0
159 175 0
162 178 0
153 168 0
160 176 0
162 180 0
152 168 0
153 168 0
151 167 0
154 169 0
161 177 0
151 167 0
150 165 0
163 180 0
157 173 0
154 171 0
155 169 0
151 165 0
153 166 0
158 175 0
156 169 0
153 165 0
152 165 0
152 167 0
153 166 0
158 174 0
155 167 0
154 168 0
161 174 0
157 172 0
154 169 0
163 178 0
159 175 0
153 166 0
157 173 0
156 168 0
158 173 0
161 177 0
158 172 0
154 169 0
158 170 0
152 165 0
160 174 0
158 172 0
157 169 0
158 179 0
162 184 0
162 183 0
158 178 0
157 178 0
162 182 0
157 177 0
155 176 0
163 185 0
158 178 0
156 178 0
158 179 0
156 177 0
157 178 0
159 180 0
152 173 0
160 181 0
153 173 0
156 177 0
155 176 0
161 182 0
164 185 0
157 178 0
158 178 0
157 179 0
160 182 0
157 177 0
160 181 0
162 183 0
157 178 0
164 185 0
157 177 0
157 177 0
159 179 0
157 178 0
157 178 0
154 175 0
158 179 0
160 181 0
158 179 0
158 179 0
155 174 0
159 180 0
158 179 0
161 182 0
157 177 0
152 174 0
157 177 0
155 176 0
148 169 0
156 176 0
147 168 0
156 178 0
158 179 0
154 176 0
155 177 0
158 180 0
151 171 0
148 169 0
161 182 0
155 175 0
154 176 0
159 179 0
150 171 0
153 174 0
155 177 0
161 183 0
155 177 0
147 168 0
160 182 0
158 180 0
153 175 0
156 177 0
155 176 0
148 170 0
157 178 0
154 175 0
147 168 0
159 181 0
154 176 0
154 177 0
150 171 0
152 175 0
148 170 0
147 168 0
157 179 0
157 179 0
154 175 0
149 170 0
155 176 0
150 171 0
154 175 0
150 172 0
151 173 0
150 172 0
151 174 0
150 172 0
155 175 0
148 169 0
160 183 0
152 175 0
156 178 0
157 179 0
150 172 0
150 171 0
152 173 0
153 174 0
151 173 0
153 175 0
144 165 0
146 167 0
157 180 0
151 174 0
145 167 0
148 169 0
154 177 0
143 164 0
150 171 0
149 171 0
155 177 0
152 174 0
149 172 0
148 171 0
151 172 0
152 174 0
140 163 0
150 172 0
155 177 0
151 173 0
157 180 0
155 178 0
152 175 0
150 172 0
159 181 0
155 178 0
157 179 0
151 173 0
151 172 0
157 178 0
159 182 0
146 167 0
146 169 0
147 168 0
158 180 0
148 170 0
146 168 0
156 179 0
155 177 0
155 177 0
156 178 0
149 172 0
150 173 0
150 172 0
152 174 0
149 171 0
152 174 0
152 174 0
154 176 0
154 175 0
148 170 0
155 176 0
149 170 0
153 175 0
151 172 0
148 170 0
155 175 0
154 176 0
155 176 0
148 170 0
146 167 0
154 176 0
154 176 0
151 173 0
151 173 0
151 173 0
150 172 0
151 174 0
152 174 0
151 172 0
150 172 0
151 173 0
146 167 0
154 177 0
152 174 0
154 176 0
152 175 0
154 175 0
155 178 0
147 170 0
149 171 0
144 165 0
152 175 0
152 174 0
146 168 0
147 168 0
152 175 0
156 179 0
147 169 0
152 173 0
147 168 0
152 174 0
151 173 0
150 171 0
145 166 0
154 176 0
143 165 0
153 174 0
146 167 0
148 170 0
155 177 0
152 172 0
147 169 0
147 167 0
154 175 0
154 176 0
154 175 0
153 176 0
153 174 0
155 177 0
156 177 0
144 166 0
153 174 0
149 170 0
150 172 0
147 169 0
153 176 0
152 173 0
158 180 0
148 171 0
150 170 0
156 179 0
148 168 0
152 174 0
142 162 0
151 173 0
149 169 0
149 169 0
152 172 0
144 165 0
148 169 0
154 176 0
154 174 0
148 167 0
146 167 0
152 173 0
152 174 0
158 179 0
156 176 0
149 168 0
154 174 0
147 168 0
150 170 0
145 164 0
153 175 0
150 171 0
153 175 0
151 172 0
152 172 0
148 170 0
151 172 0
155 176 0
148 167 0
152 172 0
150 171 0
148 168 0
152 173 0
153 173 0
152 171 0
160 180 0
153 172 0
151 171 0
147 166 0
153 171 0
151 171 0
155 174 0
145 165 0
152 172 0
148 166 0
153 173 0
153 173 0
149 170 0
156 175 0
146 166 0
149 169 0
153 172 0
151 172 0
157 175 0
148 169 0
143 160 0
154 174 0
146 166 0
147 164 0
149 169 0
149 168 0
157 177 0
157 177 0
149 170 0
155 174 0
157 176 0
150 170 0
152 169 0
153 173 0
146 163 0
152 170 0
152 172 0
151 169 0
152 171 0
153 172 0
153 173 0
153 171 0
153 171 0
154 172 0
152 169 0
152 169 0
156 174 0
155 174 0
158 177 0
153 169 0
154 171 0
155 172 0
163 183 0
156 176 0
158 175 0
150 164 0
148 166 0
154 171 0
153 172 0
157 177 0
155 172 0
150 167 0
156 172 0
156 174 0
157 173 0
157 172 0
153 169 0
155 174 0
154 171 0
155 170 0
154 172 0
154 171 0
163 178 0
154 173 0
152 168 0
153 169 0
157 176 0
153 170 0
154 174 0
156 174 0
152 168 0
154 169 0
154 170 0
151 168 0
158 175 0
155 173 0
154 169 0
159 176 0
156 174 0
154 171 0
160 177 0
160 176 0
157 172 0
162 180 0
154 170 0
156 170 0
156 173 0
151 167 0
165 184 0
158 175 0
155 172 0
154 165 0
159 175 0
148 161 0
156 172 0
151 166 0
149 164 0
159 173 0
148 163 0
156 171 0
151 164 0
154 166 0
159 174 0
157 172 0
158 174 0
155 169 0
157 172 0
152 167 0
155 168 0
159 175 0
156 169 0
156 168 0
154 168 0
166 181 0
158 171 0
161 177 0
155 169 0
158 173 0
161 176 0
158 173 0
159 176 0
163 178 0
166 187 0
160 182 0
156 175 0
158 179 0
156 177 0
161 182 0
153 174 0
160 181 0
163 183 0
158 178 0
159 179 0
150 170 0
156 176 0
165 185 0
160 180 0
160 180 0
158 178 0
150 172 0
155 176 0
160 181 0
153 173 0
158 178 0
160 181 0
156 177 0
156 177 0
156 176 0
156 176 0
159 180 0
159 181 0
157 177 0
153 173 0
155 175 0
165 186 0
161 182 0
156 178 0
156 177 0
155 175 0
153 174 0
154 176 0
163 184 0
158 179 0
160 181 0
159 180 0
157 178 0
157 178 0
156 178 0
159 180 0
154 175 0
158 180 0
151 172 0
152 173 0
147 169 0
158 180 0
149 170 0
154 174 0
159 181 0
153 175 0
155 176 0
156 178 0
148 169 0
155 176 0
161 182 0
159 180 0
154 177 0
153 174 0
152 173 0
152 174 0
156 177 0
160 182 0
158 180 0
157 178 0
156 178 0
152 173 0
160 181 0
158 180 0
161 183 0
152 174 0
151 172 0
154 177 0
153 174 0
152 173 0
156 178 0
159 181 0
151 173 0
158 180 0
154 175 0
153 174 0
156 177 0
155 177 0
158 180 0
161 183 0
156 179 0
152 174 0
154 176 0
148 170 0
160 183 0
152 174 0
154 176 0
152 174 0
152 172 0
154 176 0
152 176 0
155 178 0
153 176 0
150 172 0
154 176 0
159 181 0
150 172 0
159 181 0
156 178 0
158 180 0
155 177 0
154 175 0
153 174 0
152 174 0
158 180 0
150 172 0
158 180 0
161 182 0
153 174 0
153 176 0
154 175 0
152 174 0
153 175 0
147 169 0
149 172 0
156 178 0
154 177 0
150 172 0
155 177 0
156 178 0
150 173 0
152 173 0
156 178 0
158 180 0
152 174 0
154 176 0
151 174 0
154 177 0
149 172 0
154 176 0
145 168 0
152 175 0
150 172 0
150 172 0
161 184 0
149 170 0
153 177 0
152 175 0
152 174 0
153 174 0
152 173 0
144 166 0
153 176 0
153 175 0
149 171 0
154 176 0
152 173 0
150 172 0
154 174 0
149 171 0
150 170 0
154 176 0
145 167 0
141 162 0
150 171 0
154 176 0
145 167 0
149 170 0
148 170 0
158 181 0
149 171 0
150 171 0
151 173 0
150 171 0
156 177 0
144 166 0
147 169 0
155 176 0
150 170 0
151 172 0
151 171 0
148 169 0
155 178 0
148 170 0
149 171 0
149 171 0
144 166 0
150 170 0
149 171 0
148 170 0
151 172 0
147 169 0
155 178 0
152 171 0
153 174 0
146 168 0
157 179 0
152 175 0
151 172 0
155 177 0
147 168 0
153 175 0
147 168 0
149 170 0
145 167 0
150 172 0
148 171 0
145 167 0
151 172 0
152 172 0
149 170 0
151 173 0
148 168 0
149 172 0
150 172 0
149 172 0
151 172 0
157 178 0
154 176 0
151 172 0
149 169 0
144 166 0
153 175 0
153 174 0
146 168 0
147 168 0
139 161 0
150 172 0
154 176 0
150 171 0
150 172 0
147 168 0
152 174 0
156 177 0
153 173 0
154 175 0
148 170 0
153 175 0
152 174 0
154 175 0
154 174 0
151 173 0
150 171 0
155 176 0
146 165 0
147 167 0
152 172 0
151 174 0
153 175 0
150 170 0
154 174 0
150 171 0
155 176 0
147 168 0
152 173 0
138 159 0
150 171 0
148 168 0
148 167 0
156 178 0
145 165 0
149 170 0
151 172 0
155 176 0
153 174 0
154 176 0
153 175 0
153 174 0
144 164 0
155 176 0
155 174 0
153 174 0
151 170 0
157 176 0
149 168 0
154 175 0
141 163 0
147 165 0
150 171 0
156 176 0
151 172 0
150 168 0
152 172 0
154 173 0
151 171 0
156 176 0
152 171 0
153 172 0
153 170 0
142 160 0
151 172 0
153 172 0
156 177 0
151 171 0
159 180 0
153 171 0
150 168 0
162 180 0
153 173 0
154 174 0
153 172 0
151 170 0
153 174 0
152 171 0
156 173 0
148 168 0
156 175 0
156 177 0
156 175 0
151 170 0
153 171 0
152 171 0
156 174 0
152 170 0
156 175 0
153 171 0
155 174 0
158 177 0
145 162 0
158 178 0
154 174 0
152 170 0
150 168 0
149 167 0
157 175 0
151 167 0
148 165 0
161 180 0
155 171 0
159 177 0
155 171 0
154 171 0
152 171 0
153 169 0
159 176 0
149 166 0
151 166 0
149 165 0
157 174 0
154 171 0
153 170 0
153 169 0
159 175 0
151 168 0
150 166 0
159 176 0
155 172 0
152 167 0
155 172 0
154 168 0
151 168 0
157 173 0
153 169 0
159 177 0
157 173 0
152 170 0
150 164 0
154 171 0
152 171 0
156 170 0
158 174 0
155 172 0
158 174 0
155 168 0
152 170 0
148 163 0
157 172 0
155 170 0
152 167 0
157 172 0
152 170 0
157 173 0
157 174 0
155 172 0
159 176 0
155 171 0
154 170 0
156 171 0
156 172 0
152 168 0
163 178 0
153 167 0
161 176 0
158 173 0
158 172 0
155 167 0
154 170 0
159 175 0
160 177 0
152 165 0
158 172 0
157 170 0
158 172 0
155 167 0
162 179 0
162 177 0
158 172 0
159 176 0
157 172 0
162 183 0
158 177 0
159 180 0
158 178 0
161 181 0
158 177 0
164 185 0
160 181 0
156 176 0
161 183 0
158 179 0
162 182 0
160 182 0
158 178 0
158 178 0
151 171 0
158 179 0
161 182 0
154 176 0
153 173 0
160 181 0
160 181 0
162 182 0
155 175 0
159 180 0
151 172 0
154 175 0
156 177 0
157 178 0
161 183 0
160 180 0
156 177 0
155 175 0
162 184 0
153 174 0
154 175 0
159 180 0
151 172 0
156 178 0
163 184 0
154 175 0
151 172 0
150 170 0
158 178 0
159 180 0
152 174 0
157 179 0
158 178 0
160 182 0
158 179 0
157 178 0
150 172 0
155 176 0
158 179 0
153 174 0
159 181 0
149 171 0
157 180 0
154 175 0
157 179 0
159 180 0
160 182 0
155 177 0
157 179 0
152 173 0
154 175 0
155 176 0
148 169 0
159 179 0
154 176 0
160 182 0
152 174 0
155 176 0
156 178 0
158 179 0
156 178 0
157 179 0
147 169 0
155 176 0
156 178 0
151 173 0
155 177 0
156 178 0
155 176 0
158 179 0
153 175 0
152 174 0
158 179 0
152 174 0
159 182 0
155 177 0
157 178 0
146 169 0
159 182 0
154 175 0
156 178 0
149 171 0
149 171 0
155 178 0
157 180 0
151 172 0
155 177 0
142 163 0
152 174 0
146 168 0
155 177 0
150 172 0
150 172 0
155 177 0
159 181 0
150 171 0
151 173 0
155 177 0
157 180 0
155 178 0
149 171 0
154 176 0
152 175 0
152 174 0
148 170 0
153 175 0
155 177 0
150 173 0
153 175 0
156 178 0
155 178 0
154 176 0
155 177 0
152 175 0
151 174 0
149 170 0
153 177 0
152 174 0
158 179 0
155 177 0
155 178 0
145 168 0
153 176 0
161 182 0
147 169 0
151 172 0
149 171 0
147 168 0
151 172 0
153 175 0
154 176 0
150 170 0
155 176 0
155 176 0
149 171 0
148 170 0
156 179 0
143 164 0
156 179 0
157 179 0
147 169 0
154 176 0
147 168 0
155 176 0
153 175 0
147 168 0
157 180 0
148 171 0
147 168 0
149 170 0
156 177 0
151 174 0
152 175 0
153 175 0
154 175 0
155 177 0
157 179 0
142 164 0
151 174 0
152 172 0
154 177 0
160 182 0
145 166 0
148 171 0
148 170 0
141 163 0
149 171 0
150 171 0
152 174 0
144 164 0
153 175 0
152 174 0
143 165 0
146 169 0
153 174 0
149 171 0
149 171 0
151 173 0
147 169 0
145 167 0
149 170 0
146 168 0
152 173 0
149 171 0
154 175 0
145 167 0
150 172 0
151 174 0
150 173 0
156 179 0
148 172 0
149 172 0
147 168 0
147 169 0
142 162 0
151 174 0
147 170 0
152 175 0
151 173 0
157 178 0
147 169 0
145 166 0
144 166 0
152 175 0
150 172 0
151 173 0
154 176 0
155 177 0
150 172 0
148 169 0
147 170 0
154 176 0
149 171 0
158 180 0
147 167 0
146 167 0
143 165 0
158 180 0
150 171 0
150 173 0
149 171 0
148 169 0
151 173 0
156 177 0
148 169 0
149 170 0
157 178 0
149 169 0
147 168 0
149 171 0
157 177 0
153 174 0
147 169 0
153 175 0
152 172 0
145 165 0
143 163 0
151 172 0
149 170 0
157 178 0
151 171 0
143 164 0
155 176 0
153 173 0
161 182 0
150 169 0
159 180 0
153 175 0
153 175 0
155 177 0
155 174 0
148 170 0
149 168 0
160 181 0
154 174 0
149 169 0
156 177 0
144 164 0
150 171 0
154 174 0
153 174 0
150 171 0
151 170 0
153 175 0
158 178 0
149 170 0
154 174 0
153 173 0
149 167 0
152 173 0
156 175 0
151 172 0
153 172 0
156 176 0
156 176 0
155 175 0
156 173 0
155 175 0
154 174 0
158 177 0
155 176 0
152 172 0
156 176 0
155 174 0
152 172 0
154 175 0
155 174 0
151 170 0
155 174 0
156 174 0
154 172 0
152 170 0
158 177 0
153 172 0
150 170 0
151 169 0
152 170 0
155 175 0
150 168 0
148 165 0
158 178 0
162 182 0
154 174 0
160 178 0
143 159 0
150 168 0
156 173 0
154 172 0
151 168 0
155 174 0
161 181 0
151 170 0
152 168 0
141 158 0
154 170 0
157 174 0
155 172 0
156 172 0
156 176 0
145 163 0
156 175 0
151 169 0
153 169 0
149 165 0
157 174 0
156 175 0
149 166 0
148 164 0
148 164 0
155 172 0
153 168 0
155 174 0
156 174 0
152 172 0
158 176 0
152 169 0
150 167 0
155 172 0
153 169 0
152 171 0
159 176 0
159 177 0
155 171 0
152 168 0
155 169 0
156 171 0
156 172 0
161 178 0
150 167 0
159 177 0
150 163 0
159 174 0
151 164 0
158 177 0
152 167 0
157 172 0
158 173 0
156 171 0
162 179 0
159 175 0
160 179 0
159 175 0
155 171 0
155 167 0
153 166 0
161 178 0
160 174 0
159 173 0
164 179 0
163 180 0
156 170 0
155 171 0
161 176 0
162 175 0
162 176 0
161 174 0
156 168 0
160 176 0
161 176 0
160 176 0
160 176 0
158 174 0
156 171 0
157 174 0
157 169 0
